rparak/ABB_EGM_Python/src/Old/EGM_Results/CRB15000/result_actual_abs_joint_v100_z100.txt
Time,Joint_1,Joint_2,Joint_3,Joint_4,Joint_5,Joint_6
855819.0,-6.478980541229248,-14.031689643859863,11.459030151367188,32.17593002319336,86.11853790283203,-79.14385986328125
855823.0,-6.478980541229248,-14.031689643859863,11.459030151367188,32.17593002319336,86.11853790283203,-79.14385986328125
855827.0,-6.478980541229248,-14.031689643859863,11.459030151367188,32.17593002319336,86.11853790283203,-79.14385986328125
855831.0,-6.478980541229248,-14.031689643859863,11.459030151367188,32.17593002319336,86.11853790283203,-79.14385986328125
855835.0,-6.478980541229248,-14.031689643859863,11.459030151367188,32.17593002319336,86.11853790283203,-79.14385986328125
855839.0,-6.478980541229248,-14.031689643859863,11.459030151367188,32.17593002319336,86.11853790283203,-79.14385986328125
855843.0,-6.478980541229248,-14.031689643859863,11.459030151367188,32.17593002319336,86.11853790283203,-79.14385986328125
855847.0,-6.478980541229248,-14.031689643859863,11.459030151367188,32.17593002319336,86.11853790283203,-79.14385986328125
855851.0,-6.478980541229248,-14.031689643859863,11.459030151367188,32.17593002319336,86.11853790283203,-79.14385986328125
855855.0,-6.478980541229248,-14.031689643859863,11.459030151367188,32.17593002319336,86.11853790283203,-79.14385986328125
855859.0,-6.478980541229248,-14.031689643859863,11.459030151367188,32.17593002319336,86.11853790283203,-79.14385986328125
855863.0,-6.478980541229248,-14.031689643859863,11.459030151367188,32.17593002319336,86.11853790283203,-79.14385986328125
855867.0,-6.478980541229248,-14.031689643859863,11.459030151367188,32.17593002319336,86.11853790283203,-79.14385986328125
855871.0,-6.478980541229248,-14.031689643859863,11.459030151367188,32.17593002319336,86.11853790283203,-79.14385986328125
855875.0,-6.478980541229248,-14.031689643859863,11.459030151367188,32.17593002319336,86.11853790283203,-79.14385986328125
855879.0,-6.478980541229248,-14.031689643859863,11.459030151367188,32.17593002319336,86.11853790283203,-79.14385986328125
855883.0,-6.478980541229248,-14.031689643859863,11.459030151367188,32.17593002319336,86.11853790283203,-79.14385986328125
855887.0,-6.478980541229248,-14.031689643859863,11.459030151367188,32.17593002319336,86.11853790283203,-79.14385986328125
855891.0,-6.478980541229248,-14.031689643859863,11.459030151367188,32.17593002319336,86.11853790283203,-79.14385986328125
855895.0,-6.478980541229248,-14.031689643859863,11.459030151367188,32.17593002319336,86.11853790283203,-79.14385986328125
855899.0,-6.478980541229248,-14.031689643859863,11.459030151367188,32.17593002319336,86.11853790283203,-79.14385986328125
855903.0,-6.478980541229248,-14.031689643859863,11.459030151367188,32.17593002319336,86.11853790283203,-79.14385986328125
855907.0,-6.478980541229248,-14.031689643859863,11.459030151367188,32.17593002319336,86.11853790283203,-79.14385986328125
855911.0,-6.478980541229248,-14.031689643859863,11.459030151367188,32.17593002319336,86.11853790283203,-79.14385986328125
855915.0,-6.478980541229248,-14.031691551208496,11.459031105041504,32.17593002319336,86.11853790283203,-79.14385986328125
855919.0,-6.47898006439209,-14.031691551208496,11.459031105041504,32.17593002319336,86.11853790283203,-79.14385986328125
855923.0,-6.47898006439209,-14.031691551208496,11.459031105041504,32.17593002319336,86.11853790283203,-79.14385986328125
855927.0,-6.47898006439209,-14.031691551208496,11.459031105041504,32.17593002319336,86.11853790283203,-79.14385986328125
855931.0,-6.47898006439209,-14.031691551208496,11.459031105041504,32.17593002319336,86.11853790283203,-79.14385986328125
855935.0,-6.47898006439209,-14.031691551208496,11.459031105041504,32.17593002319336,86.11853790283203,-79.14385986328125
855939.0,-6.47898006439209,-14.031691551208496,11.459031105041504,32.17593002319336,86.11853790283203,-79.14385986328125
855943.0,-6.47898006439209,-14.031691551208496,11.459031105041504,32.17593002319336,86.11853790283203,-79.14385986328125
855947.0,-6.47898006439209,-14.031692504882812,11.459031105041504,32.17593002319336,86.11853790283203,-79.14385986328125
855951.0,-6.478979587554932,-14.031692504882812,11.459031105041504,32.17593002319336,86.11853790283203,-79.14385986328125
855955.0,-6.478978633880615,-14.031689643859863,11.45903205871582,32.17593002319336,86.11853790283203,-79.14385986328125
855959.0,-6.478975296020508,-14.031686782836914,11.459036827087402,32.17593002319336,86.11853790283203,-79.14385986328125
855963.0,-6.478961944580078,-14.0316743850708,11.45904541015625,32.17593002319336,86.11853790283203,-79.14385986328125
855967.0,-6.478930473327637,-14.031647682189941,11.459068298339844,32.175926208496094,86.11854553222656,-79.14385986328125
855971.0,-6.478868007659912,-14.031599044799805,11.459114074707031,32.17591857910156,86.11854553222656,-79.14385986328125
855975.0,-6.478759765625,-14.031518936157227,11.459196090698242,32.175907135009766,86.11854553222656,-79.14385986328125
855979.0,-6.4785895347595215,-14.031400680541992,11.459332466125488,32.17588424682617,86.1185531616211,-79.14385986328125
855983.0,-6.478342533111572,-14.031243324279785,11.459543228149414,32.17584228515625,86.1185531616211,-79.14386749267578
855987.0,-6.478006839752197,-14.031050682067871,11.459851264953613,32.17577362060547,86.11854553222656,-79.14386749267578
855991.0,-6.477575778961182,-14.03083610534668,11.460286140441895,32.17566680908203,86.11849212646484,-79.14387512207031
855995.0,-6.477043628692627,-14.030619621276855,11.460883140563965,32.17549514770508,86.118408203125,-79.14388275146484
855999.0,-6.476403713226318,-14.03042221069336,11.461684226989746,32.17523956298828,86.11823272705078,-79.14391326904297
856003.0,-6.475646495819092,-14.03026008605957,11.462738990783691,32.17485809326172,86.11793518066406,-79.14393615722656
856007.0,-6.474755764007568,-14.0301513671875,11.464109420776367,32.17432403564453,86.11746978759766,-79.14398193359375
856011.0,-6.473711013793945,-14.030104637145996,11.465868949890137,32.173587799072266,86.11679077148438,-79.14404296875
856015.0,-6.4724860191345215,-14.03012466430664,11.46808910369873,32.172607421875,86.1158218383789,-79.14412689208984
856019.0,-6.4710516929626465,-14.030214309692383,11.470850944519043,32.17132568359375,86.1145248413086,-79.14424133300781
856023.0,-6.469385623931885,-14.030383110046387,11.474225997924805,32.169708251953125,86.11283874511719,-79.14440155029297
856027.0,-6.467468738555908,-14.030640602111816,11.478277206420898,32.16771697998047,86.11072540283203,-79.14458465576172
856031.0,-6.465290069580078,-14.03100299835205,11.483060836791992,32.165313720703125,86.10811614990234,-79.14481353759766
856035.0,-6.462843418121338,-14.031493186950684,11.488622665405273,32.16246795654297,86.10499572753906,-79.14508056640625
856039.0,-6.460123062133789,-14.03212833404541,11.494993209838867,32.1591682434082,86.10134887695312,-79.1454086303711
856043.0,-6.457126140594482,-14.032925605773926,11.502203941345215,32.155391693115234,86.09712982177734,-79.14576721191406
856047.0,-6.4538445472717285,-14.033891677856445,11.510272026062012,32.151123046875,86.09235382080078,-79.14617919921875
856051.0,-6.450267314910889,-14.035028457641602,11.519217491149902,32.14636993408203,86.0870132446289,-79.14664459228516
856055.0,-6.446381568908691,-14.036332130432129,11.529052734375,32.141117095947266,86.08110046386719,-79.14715576171875
856059.0,-6.442175388336182,-14.037793159484863,11.539786338806152,32.1353759765625,86.07461547851562,-79.147705078125
856063.0,-6.437639236450195,-14.039402961730957,11.551423072814941,32.12913513183594,86.06757354736328,-79.1483154296875
856067.0,-6.432765007019043,-14.041152000427246,11.563961029052734,32.12240219116211,86.05996704101562,-79.14896392822266
856071.0,-6.427550792694092,-14.043034553527832,11.57739543914795,32.11519241333008,86.05181121826172,-79.14966583251953
856075.0,-6.4219970703125,-14.045044898986816,11.591719627380371,32.10749435424805,86.0431137084961,-79.1504135131836
856079.0,-6.416105270385742,-14.047179222106934,11.60692310333252,32.09931945800781,86.03385925292969,-79.15120697021484
856083.0,-6.4098801612854,-14.049432754516602,11.622991561889648,32.09068298339844,86.02409362792969,-79.15203857421875
856087.0,-6.403326511383057,-14.05180549621582,11.639913558959961,32.08158493041992,86.0137939453125,-79.15291595458984
856091.0,-6.396448135375977,-14.054290771484375,11.657672882080078,32.07204055786133,86.00299072265625,-79.1538314819336
856095.0,-6.389251708984375,-14.05688762664795,11.676253318786621,32.06205368041992,85.9916763305664,-79.15480041503906
856099.0,-6.381741523742676,-14.059590339660645,11.695638656616211,32.05162811279297,85.9798812866211,-79.15579223632812
856103.0,-6.373924732208252,-14.062397003173828,11.715811729431152,32.04078674316406,85.96759796142578,-79.15682983398438
856107.0,-6.3658061027526855,-14.065303802490234,11.736754417419434,32.0295295715332,85.95484924316406,-79.15789794921875
856111.0,-6.357391834259033,-14.068305969238281,11.75844955444336,32.01787185668945,85.94164276123047,-79.15900421142578
856115.0,-6.348689556121826,-14.071402549743652,11.780879020690918,32.005821228027344,85.927978515625,-79.16014099121094
856119.0,-6.3397040367126465,-14.074585914611816,11.804021835327148,31.99338150024414,85.91388702392578,-79.16131591796875
856123.0,-6.330442428588867,-14.077855110168457,11.827861785888672,31.980579376220703,85.89937591552734,-79.16251373291016
856127.0,-6.320911407470703,-14.081204414367676,11.852380752563477,31.967409133911133,85.88444519042969,-79.16374206542969
856131.0,-6.311117172241211,-14.084630966186523,11.877558708190918,31.953886032104492,85.86911010742188,-79.16500091552734
856135.0,-6.301064968109131,-14.08813190460205,11.903380393981934,31.94002342224121,85.85338592529297,-79.16627502441406
856139.0,-6.2907633781433105,-14.091703414916992,11.929825782775879,31.925825119018555,85.8372802734375,-79.1675796508789
856143.0,-6.280218124389648,-14.095340728759766,11.956878662109375,31.91130256652832,85.82080078125,-79.16890716552734
856147.0,-6.269435405731201,-14.099042892456055,11.984521865844727,31.896467208862305,85.80397033691406,-79.1702651977539
856151.0,-6.258422374725342,-14.102806091308594,12.012735366821289,31.881328582763672,85.78678131103516,-79.171630859375
856155.0,-6.247184753417969,-14.106627464294434,12.04150676727295,31.86589241027832,85.76924896240234,-79.17302703857422
856159.0,-6.235728740692139,-14.110503196716309,12.070816993713379,31.850170135498047,85.75138854980469,-79.17443084716797
856163.0,-6.224061965942383,-14.11443042755127,12.1006498336792,31.834169387817383,85.73321533203125,-79.17585754394531
856167.0,-6.212189674377441,-14.118410110473633,12.13099193572998,31.81789779663086,85.71471405029297,-79.17729949951172
856171.0,-6.200118064880371,-14.122434616088867,12.161825180053711,31.801361083984375,85.69591522216797,-79.17876434326172
856175.0,-6.18785285949707,-14.126504898071289,12.193135261535645,31.78457260131836,85.67681884765625,-79.18022918701172
856179.0,-6.1753997802734375,-14.130617141723633,12.224908828735352,31.76753807067871,85.6574478149414,-79.18172454833984
856183.0,-6.162765026092529,-14.134770393371582,12.25713062286377,31.75026512145996,85.63778686523438,-79.18321990966797
856187.0,-6.149953365325928,-14.138960838317871,12.289786338806152,31.732759475708008,85.61786651611328,-79.18473052978516
856191.0,-6.1369709968566895,-14.14318561553955,12.322864532470703,31.715030670166016,85.59767150878906,-79.18624114990234
856195.0,-6.123823165893555,-14.147445678710938,12.356348991394043,31.697084426879883,85.57723999023438,-79.18777465820312
856199.0,-6.1105146408081055,-14.15173625946045,12.390228271484375,31.678930282592773,85.55655670166016,-79.18931579589844
856203.0,-6.097050189971924,-14.156057357788086,12.424488067626953,31.66057014465332,85.53562927246094,-79.19085693359375
856207.0,-6.08343505859375,-14.160405158996582,12.459118843078613,31.642013549804688,85.51446533203125,-79.19241333007812
856211.0,-6.069674968719482,-14.164777755737305,12.49410629272461,31.623268127441406,85.49308776855469,-79.1939697265625
856215.0,-6.05577278137207,-14.169174194335938,12.529439926147461,31.604333877563477,85.47148132324219,-79.19554138183594
856219.0,-6.0417351722717285,-14.173591613769531,12.565108299255371,31.58522605895996,85.44966888427734,-79.19710540771484
856223.0,-6.027565002441406,-14.17802619934082,12.601099967956543,31.56594467163086,85.42765808105469,-79.19867706298828
856227.0,-6.013267993927002,-14.182480812072754,12.63740348815918,31.54649543762207,85.40543365478516,-79.20024871826172
856231.0,-5.998847007751465,-14.186949729919434,12.674009323120117,31.526885986328125,85.38301849365234,-79.20182800292969
856235.0,-5.984306335449219,-14.19143295288086,12.710906982421875,31.50712013244629,85.36042022705078,-79.20341491699219
856239.0,-5.969649791717529,-14.195932388305664,12.748087882995605,31.48720359802246,85.33763122558594,-79.20500183105469
856243.0,-5.9548821449279785,-14.200440406799316,12.785542488098145,31.467140197753906,85.3146743774414,-79.20657348632812
856247.0,-5.940006732940674,-14.204959869384766,12.823259353637695,31.446935653686523,85.29154205322266,-79.20816040039062
856251.0,-5.925026893615723,-14.209486961364746,12.861231803894043,31.42659568786621,85.26824951171875,-79.2097396850586
856255.0,-5.909946441650391,-14.214022636413574,12.899450302124023,31.4061222076416,85.24478912353516,-79.21131896972656
856259.0,-5.894768714904785,-14.218565940856934,12.937908172607422,31.385522842407227,85.22117614746094,-79.212890625
856263.0,-5.879497051239014,-14.223112106323242,12.976595878601074,31.36479949951172,85.19740295410156,-79.21446990966797
856267.0,-5.864134788513184,-14.227663040161133,13.015504837036133,31.34395408630371,85.17349243164062,-79.2160415649414
856271.0,-5.8486857414245605,-14.232216835021973,13.0546293258667,31.322998046875,85.1494369506836,-79.21762084960938
856275.0,-5.833151817321777,-14.236772537231445,13.093961715698242,31.301931381225586,85.125244140625,-79.21918487548828
856279.0,-5.817536354064941,-14.241329193115234,13.133493423461914,31.280750274658203,85.10090637207031,-79.22074890136719
856283.0,-5.801843166351318,-14.245884895324707,13.173219680786133,31.259471893310547,85.07644653320312,-79.22230529785156
856287.0,-5.786074161529541,-14.250439643859863,13.213130950927734,31.238088607788086,85.0518569946289,-79.22386169433594
856291.0,-5.770232200622559,-14.25499153137207,13.25322437286377,31.216611862182617,85.02714538574219,-79.22541046142578
856295.0,-5.7543206214904785,-14.259540557861328,13.293490409851074,31.19504165649414,85.0023193359375,-79.22696685791016
856299.0,-5.738340854644775,-14.26408576965332,13.333924293518066,31.17337989807129,84.97737884521484,-79.22850036621094
856303.0,-5.722296237945557,-14.26862621307373,13.374519348144531,31.15163230895996,84.95231628417969,-79.23004150390625
856307.0,-5.7061896324157715,-14.273160934448242,13.41526985168457,31.12980079650879,84.9271469116211,-79.2315673828125
856311.0,-5.690021991729736,-14.277688026428223,13.456171035766602,31.10788917541504,84.9018783569336,-79.23309326171875
856315.0,-5.673797130584717,-14.282207489013672,13.497217178344727,31.085895538330078,84.87651062011719,-79.23460388183594
856319.0,-5.657516002655029,-14.286718368530273,13.538400650024414,31.063831329345703,84.85102844238281,-79.23611450195312
856323.0,-5.641181468963623,-14.291217803955078,13.579719543457031,31.041690826416016,84.8254623413086,-79.23761749267578
856327.0,-5.624795436859131,-14.295706748962402,13.621166229248047,31.01947784423828,84.79979705810547,-79.2391128540039
856331.0,-5.608360290527344,-14.300183296203613,13.662736892700195,30.99720573425293,84.7740478515625,-79.2406005859375
856335.0,-5.591877460479736,-14.304649353027344,13.704427719116211,30.974863052368164,84.74820709228516,-79.24207305908203
856339.0,-5.575348854064941,-14.309103012084961,13.746232986450195,30.95246124267578,84.72228240966797,-79.24354553222656
856343.0,-5.558777332305908,-14.313542366027832,13.78814697265625,30.93000030517578,84.69627380371094,-79.24501037597656
856347.0,-5.542163372039795,-14.317968368530273,13.830169677734375,30.9074764251709,84.6701889038086,-79.2464599609375
856351.0,-5.525509357452393,-14.322380065917969,13.872292518615723,30.884902954101562,84.64401245117188,-79.24790954589844
856355.0,-5.508817195892334,-14.326777458190918,13.914515495300293,30.862274169921875,84.61778259277344,-79.24934387207031
856359.0,-5.492088794708252,-14.331157684326172,13.956830978393555,30.83959197998047,84.59146118164062,-79.25076293945312
856363.0,-5.475325584411621,-14.335522651672363,13.999238967895508,30.81686019897461,84.56507873535156,-79.25218200683594
856367.0,-5.4585280418396,-14.339869499206543,14.041732788085938,30.794082641601562,84.53861999511719,-79.25357818603516
856371.0,-5.441699028015137,-14.344202041625977,14.084311485290527,30.771255493164062,84.51210021972656,-79.2549819946289
856375.0,-5.424839973449707,-14.348514556884766,14.126969337463379,30.748388290405273,84.48551177978516,-79.2563705444336
856379.0,-5.407951354980469,-14.352808952331543,14.169705390930176,30.725479125976562,84.4588623046875,-79.25775146484375
856383.0,-5.391036033630371,-14.357087135314941,14.212516784667969,30.70252799987793,84.43215942382812,-79.25912475585938
856387.0,-5.374093532562256,-14.361343383789062,14.255396842956543,30.679536819458008,84.40538787841797,-79.2604751586914
856391.0,-5.3571271896362305,-14.365581512451172,14.298347473144531,30.656509399414062,84.3785629272461,-79.26182556152344
856395.0,-5.340137481689453,-14.36980152130127,14.341360092163086,30.633445739746094,84.3516845703125,-79.26316833496094
856399.0,-5.323124885559082,-14.374001502990723,14.384438514709473,30.610347747802734,84.32474517822266,-79.26448822021484
856403.0,-5.306091785430908,-14.378180503845215,14.427574157714844,30.58721351623535,84.2977523803711,-79.26581573486328
856407.0,-5.289039611816406,-14.382336616516113,14.4707670211792,30.56405258178711,84.27072143554688,-79.26712036132812
856411.0,-5.271967887878418,-14.38647174835205,14.51401424407959,30.54085922241211,84.2436294555664,-79.26841735839844
856415.0,-5.254878520965576,-14.390585899353027,14.557313919067383,30.517637252807617,84.21649169921875,-79.26970672607422
856419.0,-5.237773418426514,-14.39467716217041,14.600661277770996,30.494386672973633,84.18931579589844,-79.27098846435547
856423.0,-5.220652103424072,-14.398744583129883,14.644057273864746,30.471113204956055,84.1620864868164,-79.27225494384766
856427.0,-5.203517913818359,-14.402787208557129,14.687495231628418,30.447813034057617,84.13481903076172,-79.27351379394531
856431.0,-5.186369895935059,-14.406808853149414,14.730978012084961,30.424488067626953,84.10751342773438,-79.2747573852539
856435.0,-5.169209957122803,-14.410806655883789,14.774499893188477,30.401142120361328,84.08015441894531,-79.27599334716797
856439.0,-5.152039051055908,-14.414777755737305,14.818059921264648,30.377775192260742,84.05276489257812,-79.27721405029297
856443.0,-5.134856700897217,-14.418725967407227,14.861655235290527,30.354389190673828,84.02533721923828,-79.27842712402344
856447.0,-5.1176652908325195,-14.422649383544922,14.905284881591797,30.330982208251953,83.99786376953125,-79.27963256835938
856451.0,-5.100464344024658,-14.426546096801758,14.948946952819824,30.307554244995117,83.97036743164062,-79.28083038330078
856455.0,-5.083254814147949,-14.430420875549316,14.992639541625977,30.28411293029785,83.94282531738281,-79.2820053100586
856459.0,-5.066037654876709,-14.4342679977417,15.036360740661621,30.260650634765625,83.91525268554688,-79.2831802368164
856463.0,-5.048813343048096,-14.438089370727539,15.080110549926758,30.2371768951416,83.88764953613281,-79.28433990478516
856467.0,-5.031584739685059,-14.441886901855469,15.123885154724121,30.213687896728516,83.8600082397461,-79.28548431396484
856471.0,-5.0143513679504395,-14.445657730102539,15.167683601379395,30.190183639526367,83.83234405517578,-79.28663635253906
856475.0,-4.997114181518555,-14.449399948120117,15.211505889892578,30.166664123535156,83.80464172363281,-79.28775024414062
856479.0,-4.979874610900879,-14.453117370605469,15.255349159240723,30.143138885498047,83.77691650390625,-79.28887176513672
856483.0,-4.9626336097717285,-14.456809043884277,15.299212455749512,30.11959457397461,83.74916076660156,-79.28998565673828
856487.0,-4.945390224456787,-14.460474014282227,15.343094825744629,30.096044540405273,83.72138214111328,-79.29108428955078
856491.0,-4.9281463623046875,-14.464110374450684,15.386992454528809,30.072479248046875,83.69357299804688,-79.29217529296875
856495.0,-4.910901069641113,-14.467720985412598,15.430909156799316,30.048908233642578,83.66574096679688,-79.29324340820312
856499.0,-4.893655300140381,-14.471304893493652,15.474839210510254,30.025327682495117,83.63787078857422,-79.29431915283203
856503.0,-4.876410007476807,-14.474860191345215,15.518782615661621,30.001739501953125,83.60999298095703,-79.29537200927734
856507.0,-4.859165191650391,-14.478387832641602,15.562738418579102,29.97814178466797,83.58208465576172,-79.29641723632812
856511.0,-4.841923713684082,-14.481887817382812,15.606703758239746,29.954540252685547,83.55416107177734,-79.2974624633789
856515.0,-4.824685573577881,-14.485361099243164,15.650680541992188,29.930927276611328,83.52621459960938,-79.29849243164062
856519.0,-4.807451248168945,-14.48880386352539,15.694666862487793,29.907316207885742,83.49823760986328,-79.29950714111328
856523.0,-4.790220260620117,-14.492218971252441,15.73865795135498,29.883697509765625,83.47024536132812,-79.3005142211914
856527.0,-4.772994518280029,-14.495604515075684,15.782658576965332,29.860071182250977,83.4422378540039,-79.301513671875
856531.0,-4.755773067474365,-14.498960494995117,15.826662063598633,29.836442947387695,83.4142074584961,-79.30250549316406
856535.0,-4.738555908203125,-14.502287864685059,15.870670318603516,29.81281280517578,83.38616180419922,-79.30348205566406
856539.0,-4.721344947814941,-14.505585670471191,15.914682388305664,29.789180755615234,83.35808563232422,-79.30445098876953
856543.0,-4.704139709472656,-14.508855819702148,15.958698272705078,29.765541076660156,83.33000183105469,-79.30541229248047
856547.0,-4.686941623687744,-14.512094497680664,16.002714157104492,29.741905212402344,83.30191040039062,-79.30635833740234
856551.0,-4.669751167297363,-14.515304565429688,16.04673194885254,29.718265533447266,83.27378845214844,-79.30730438232422
856555.0,-4.65256929397583,-14.518486022949219,16.09075164794922,29.69462776184082,83.24565887451172,-79.30823516845703
856559.0,-4.63539457321167,-14.521636009216309,16.134769439697266,29.670984268188477,83.2175064086914,-79.30915832519531
856563.0,-4.618229866027832,-14.524759292602539,16.178787231445312,29.6473445892334,83.18934631347656,-79.31007385253906
856567.0,-4.60107421875,-14.527850151062012,16.222803115844727,29.623703002929688,83.16117095947266,-79.31097412109375
856571.0,-4.583929061889648,-14.530911445617676,16.266817092895508,29.600067138671875,83.13298034667969,-79.31187438964844
856575.0,-4.566795349121094,-14.533944129943848,16.310827255249023,29.57642364501953,83.10477447509766,-79.31275939941406
856579.0,-4.5496721267700195,-14.536946296691895,16.354833602905273,29.55278778076172,83.0765609741211,-79.31362915039062
856583.0,-4.532560348510742,-14.539918899536133,16.398836135864258,29.529151916503906,83.04833221435547,-79.31450653076172
856587.0,-4.515460968017578,-14.542860984802246,16.442834854125977,29.505516052246094,83.02008819580078,-79.31536865234375
856591.0,-4.498373031616211,-14.545772552490234,16.486827850341797,29.481884002685547,82.99183654785156,-79.31622314453125
856595.0,-4.481297016143799,-14.548656463623047,16.53081512451172,29.458251953125,82.96357727050781,-79.31707000732422
856599.0,-4.464234352111816,-14.551507949829102,16.574796676635742,29.43462562561035,82.935302734375,-79.31790161132812
856603.0,-4.447183609008789,-14.554330825805664,16.618770599365234,29.410999298095703,82.90701293945312,-79.31873321533203
856607.0,-4.430147171020508,-14.557122230529785,16.662736892700195,29.387380599975586,82.87872314453125,-79.3195571899414
856611.0,-4.413124084472656,-14.559884071350098,16.706693649291992,29.363765716552734,82.85041809082031,-79.32037353515625
856615.0,-4.396114349365234,-14.562614440917969,16.75064468383789,29.340152740478516,82.82210540771484,-79.32117462158203
856619.0,-4.379119873046875,-14.565313339233398,16.794584274291992,29.316545486450195,82.79378509521484,-79.32197570800781
856623.0,-4.36214017868042,-14.56798267364502,16.838516235351562,29.292940139770508,82.76545715332031,-79.32276916503906
856627.0,-4.345175743103027,-14.5706205368042,16.88243865966797,29.26934242248535,82.73711395263672,-79.32354736328125
856631.0,-4.328225612640381,-14.573227882385254,16.926347732543945,29.245746612548828,82.70877075195312,-79.32433319091797
856635.0,-4.311291694641113,-14.57580280303955,16.97024917602539,29.222158432006836,82.680419921875,-79.32510375976562
856639.0,-4.294373989105225,-14.578349113464355,17.014137268066406,29.198577880859375,82.65206146240234,-79.32586669921875
856643.0,-4.277471542358398,-14.580862998962402,17.058012008666992,29.175003051757812,82.62369537353516,-79.32662200927734
856647.0,-4.260584831237793,-14.583345413208008,17.101877212524414,29.15143585205078,82.5953140258789,-79.32737731933594
856651.0,-4.243715286254883,-14.585797309875488,17.145729064941406,29.127870559692383,82.56693267822266,-79.32811737060547
856655.0,-4.226862907409668,-14.588216781616211,17.1895694732666,29.10431480407715,82.5385513305664,-79.328857421875
856659.0,-4.210028171539307,-14.590607643127441,17.233396530151367,29.08076286315918,82.5101547241211,-79.32958984375
856663.0,-4.193211555480957,-14.592966079711914,17.27720832824707,29.057220458984375,82.48175811767578,-79.33031463623047
856667.0,-4.176412105560303,-14.595293045043945,17.32101058959961,29.03368377685547,82.45335388183594,-79.3310317993164
856671.0,-4.159631729125977,-14.597591400146484,17.364795684814453,29.01015281677246,82.4249496459961,-79.33174896240234
856675.0,-4.14286994934082,-14.599857330322266,17.4085693359375,28.986629486083984,82.39653778076172,-79.33245086669922
856679.0,-4.126127243041992,-14.602092742919922,17.452327728271484,28.96311378479004,82.36811065673828,-79.33316040039062
856683.0,-4.109403610229492,-14.60429573059082,17.496070861816406,28.939603805541992,82.3396987915039,-79.33385467529297
856687.0,-4.0926995277404785,-14.60646915435791,17.53980255126953,28.916105270385742,82.31127166748047,-79.33454895019531
856691.0,-4.076015472412109,-14.608612060546875,17.58351707458496,28.89261245727539,82.28284454345703,-79.33523559570312
856695.0,-4.059350967407227,-14.610722541809082,17.627220153808594,28.869123458862305,82.25440216064453,-79.33592224121094
856699.0,-4.042707920074463,-14.612804412841797,17.67090606689453,28.84564781188965,82.22596740722656,-79.33659362792969
856703.0,-4.026085376739502,-14.614852905273438,17.714574813842773,28.822175979614258,82.1975326538086,-79.33727264404297
856707.0,-4.009483814239502,-14.61687183380127,17.758228302001953,28.79871368408203,82.16908264160156,-79.33794403076172
856711.0,-3.992903470993042,-14.61885929107666,17.80186653137207,28.7752628326416,82.14064025878906,-79.33860778808594
856715.0,-3.976344585418701,-14.620816230773926,17.845489501953125,28.75181770324707,82.11219024658203,-79.33926391601562
856719.0,-3.9598073959350586,-14.62274169921875,17.889095306396484,28.728384017944336,82.083740234375,-79.33992004394531
856723.0,-3.9432919025421143,-14.6246337890625,17.93268394470215,28.7049560546875,82.05528259277344,-79.340576171875
856727.0,-3.9267983436584473,-14.626497268676758,17.97625732421875,28.681535720825195,82.0268325805664,-79.34122467041016
856731.0,-3.910327672958374,-14.628327369689941,18.019813537597656,28.65812873840332,81.99837493896484,-79.34187316894531
856735.0,-3.8938798904418945,-14.630126953125,18.063352584838867,28.634729385375977,81.96991729736328,-79.34251403808594
856739.0,-3.8774545192718506,-14.631896018981934,18.10687255859375,28.611339569091797,81.94145202636719,-79.3431625366211
856743.0,-3.861052989959717,-14.63363265991211,18.150375366210938,28.587961196899414,81.91299438476562,-79.34379577636719
856747.0,-3.8446743488311768,-14.635339736938477,18.193862915039062,28.56458854675293,81.884521484375,-79.34443664550781
856751.0,-3.8283193111419678,-14.63701343536377,18.23733139038086,28.541227340698242,81.85606384277344,-79.3450698852539
856755.0,-3.8119888305664062,-14.638657569885254,18.280780792236328,28.517873764038086,81.82759857177734,-79.345703125
856759.0,-3.795682668685913,-14.640271186828613,18.324214935302734,28.49453353881836,81.79913330078125,-79.34632873535156
856763.0,-3.7794010639190674,-14.641852378845215,18.367630004882812,28.47119903564453,81.77066040039062,-79.34695434570312
856767.0,-3.7631447315216064,-14.643403053283691,18.411027908325195,28.447877883911133,81.74219512939453,-79.34757995605469
856771.0,-3.746912956237793,-14.644923210144043,18.454408645629883,28.424564361572266,81.71372985839844,-79.34819793701172
856775.0,-3.730706214904785,-14.646413803100586,18.497770309448242,28.401260375976562,81.68525695800781,-79.34881591796875
856779.0,-3.714524984359741,-14.647871971130371,18.541114807128906,28.377965927124023,81.65679168701172,-79.34943389892578
856783.0,-3.698368549346924,-14.649299621582031,18.584440231323242,28.35468292236328,81.6283187866211,-79.35005187988281
856787.0,-3.6822383403778076,-14.65069580078125,18.627748489379883,28.331409454345703,81.599853515625,-79.35066986083984
856791.0,-3.666133165359497,-14.65206241607666,18.671039581298828,28.30814552307129,81.5713882446289,-79.35128784179688
856795.0,-3.650054931640625,-14.653397560119629,18.714309692382812,28.28489112854004,81.54291534423828,-79.3519058227539
856799.0,-3.6340034008026123,-14.654704093933105,18.757564544677734,28.261648178100586,81.51445007324219,-79.3525161743164
856803.0,-3.617978572845459,-14.655977249145508,18.800798416137695,28.238414764404297,81.4859848022461,-79.35313415527344
856807.0,-3.6019814014434814,-14.657222747802734,18.84401512145996,28.21518898010254,81.45751190185547,-79.35374450683594
856811.0,-3.5860111713409424,-14.658434867858887,18.8872127532959,28.191978454589844,81.42904663085938,-79.35436248779297
856815.0,-3.570068120956421,-14.659618377685547,18.93039321899414,28.168773651123047,81.40058135986328,-79.35497283935547
856819.0,-3.554152488708496,-14.66076946258545,18.973554611206055,28.14558219909668,81.37212371826172,-79.3555908203125
856823.0,-3.538264751434326,-14.66188907623291,19.01669692993164,28.122400283813477,81.34365844726562,-79.35620880126953
856827.0,-3.522404909133911,-14.662980079650879,19.059818267822266,28.09922981262207,81.31520080566406,-79.35682678222656
856831.0,-3.506572961807251,-14.66403865814209,19.102924346923828,28.07607078552246,81.2867431640625,-79.3574447631836
856835.0,-3.490770101547241,-14.665068626403809,19.14600944519043,28.05291748046875,81.25829315185547,-79.35807037353516
856839.0,-3.4749960899353027,-14.66606616973877,19.189075469970703,28.0297794342041,81.22982788085938,-79.35868835449219
856843.0,-3.4592511653900146,-14.667034149169922,19.23212242126465,28.006649017333984,81.20137786865234,-79.35931396484375
856847.0,-3.443535327911377,-14.66797161102295,19.275150299072266,27.98353385925293,81.17293548583984,-79.35993957519531
856851.0,-3.4278488159179688,-14.668878555297852,19.318159103393555,27.960426330566406,81.14447784423828,-79.36056518554688
856855.0,-3.4121921062469482,-14.669754028320312,19.361148834228516,27.937332153320312,81.11603546142578,-79.36119842529297
856859.0,-3.3965654373168945,-14.670598983764648,19.40411949157715,27.91424560546875,81.08759307861328,-79.36182403564453
856863.0,-3.3809685707092285,-14.671415328979492,19.447071075439453,27.891172409057617,81.05915069580078,-79.36247253417969
856867.0,-3.3654024600982666,-14.672201156616211,19.490007400512695,27.868106842041016,81.03071594238281,-79.36310577392578
856871.0,-3.3498666286468506,-14.672957420349121,19.532920837402344,27.845054626464844,81.00228118896484,-79.3637466430664
856875.0,-3.3343617916107178,-14.673681259155273,19.575817108154297,27.822010040283203,80.97384643554688,-79.36438751220703
856879.0,-3.318887710571289,-14.674378395080566,19.618694305419922,27.798978805541992,80.9454116821289,-79.36503601074219
856883.0,-3.3034448623657227,-14.675042152404785,19.66155433654785,27.77596092224121,80.91698455810547,-79.36568450927734
856887.0,-3.2880337238311768,-14.675679206848145,19.70439338684082,27.752946853637695,80.88855743408203,-79.3663330078125
856891.0,-3.2726545333862305,-14.676285743713379,19.747215270996094,27.729948043823242,80.86014556884766,-79.36699676513672
856895.0,-3.257307291030884,-14.676860809326172,19.79001808166504,27.706958770751953,80.83172607421875,-79.36766052246094
856899.0,-3.241992473602295,-14.677409172058105,19.832801818847656,27.68398094177246,80.80331420898438,-79.36832427978516
856903.0,-3.226710796356201,-14.677926063537598,19.875566482543945,27.661012649536133,80.77489471435547,-79.3689956665039
856907.0,-3.2114615440368652,-14.678414344787598,19.91831398010254,27.6380558013916,80.74649047851562,-79.36967468261719
856911.0,-3.1962454319000244,-14.678872108459473,19.961042404174805,27.615108489990234,80.71808624267578,-79.370361328125
856915.0,-3.181062936782837,-14.679301261901855,20.003751754760742,27.592174530029297,80.68968963623047,-79.37104797363281
856919.0,-3.1659133434295654,-14.67970085144043,20.046443939208984,27.569252014160156,80.66129302978516,-79.37173461914062
856923.0,-3.1507976055145264,-14.680068969726562,20.089113235473633,27.546335220336914,80.63289642333984,-79.37244415283203
856927.0,-3.1357157230377197,-14.68040943145752,20.13176727294922,27.523433685302734,80.6045150756836,-79.3731460571289
856931.0,-3.1206676959991455,-14.680718421936035,20.174400329589844,27.500545501708984,80.57613372802734,-79.37385559082031
856935.0,-3.105654716491699,-14.680997848510742,20.21701431274414,27.477663040161133,80.5477523803711,-79.37458038330078
856939.0,-3.0906760692596436,-14.68125057220459,20.259611129760742,27.454792022705078,80.51937103271484,-79.37530517578125
856943.0,-3.075732469558716,-14.681472778320312,20.30219078063965,27.431936264038086,80.49100494384766,-79.37602996826172
856947.0,-3.060824155807495,-14.68166446685791,20.34474754333496,27.409088134765625,80.46263885498047,-79.37677001953125
856951.0,-3.0459513664245605,-14.681828498840332,20.38728904724121,27.386253356933594,80.43428039550781,-79.37752532958984
856955.0,-3.031113862991333,-14.681962966918945,20.429811477661133,27.363426208496094,80.40592193603516,-79.37828063964844
856959.0,-3.016312599182129,-14.682068824768066,20.472314834594727,27.34061050415039,80.37757873535156,-79.37903594970703
856963.0,-3.00154709815979,-14.682144165039062,20.514801025390625,27.31781005859375,80.34922790527344,-79.37981414794922
856967.0,-2.9868180751800537,-14.682193756103516,20.557268142700195,27.295015335083008,80.32088470458984,-79.3805923461914
856971.0,-2.972125768661499,-14.682212829589844,20.59971809387207,27.272233963012695,80.29255676269531,-79.38137817382812
856975.0,-2.9574697017669678,-14.682202339172363,20.642148971557617,27.24946403503418,80.26422119140625,-79.38217163085938
856979.0,-2.9428510665893555,-14.682164192199707,20.684560775756836,27.226703643798828,80.23589324951172,-79.38298797607422
856983.0,-2.928269863128662,-14.682098388671875,20.726957321166992,27.20395278930664,80.20757293701172,-79.38379669189453
856987.0,-2.913726329803467,-14.68200397491455,20.769332885742188,27.181211471557617,80.17926025390625,-79.3846206665039
856991.0,-2.8992207050323486,-14.681880950927734,20.811695098876953,27.158483505249023,80.15095520019531,-79.38545227050781
856995.0,-2.8847529888153076,-14.681729316711426,20.854034423828125,27.135766983032227,80.12265014648438,-79.38629913330078
856999.0,-2.8703246116638184,-14.681550025939941,20.896358489990234,27.113056182861328,80.09435272216797,-79.38714599609375
857003.0,-2.8559350967407227,-14.681341171264648,20.93866539001465,27.090360641479492,80.0660629272461,-79.38802337646484
857007.0,-2.8415844440460205,-14.681105613708496,20.980955123901367,27.06767463684082,80.03777313232422,-79.3888931274414
857011.0,-2.82727313041687,-14.680843353271484,21.023225784301758,27.044998168945312,80.00949096679688,-79.38977813720703
857015.0,-2.8130016326904297,-14.68055248260498,21.065479278564453,27.0223331451416,79.9812240600586,-79.39067840576172
857019.0,-2.7987701892852783,-14.680232048034668,21.10771369934082,26.99968147277832,79.95295715332031,-79.39158630371094
857023.0,-2.784578323364258,-14.679884910583496,21.149932861328125,26.97703742980957,79.92469787597656,-79.39250946044922
857027.0,-2.7704269886016846,-14.679509162902832,21.19213104248047,26.954404830932617,79.89643859863281,-79.39344024658203
857031.0,-2.7563164234161377,-14.679106712341309,21.23431396484375,26.931781768798828,79.86819458007812,-79.39439392089844
857035.0,-2.7422468662261963,-14.678674697875977,21.276479721069336,26.909170150756836,79.83995819091797,-79.39534759521484
857039.0,-2.7282185554504395,-14.678216934204102,21.318626403808594,26.88656997680664,79.81172180175781,-79.39632415771484
857043.0,-2.7142319679260254,-14.677729606628418,21.360755920410156,26.863981246948242,79.78349304199219,-79.39730834960938
857047.0,-2.700287103652954,-14.677216529846191,21.402870178222656,26.841400146484375,79.75527954101562,-79.39832305908203
857051.0,-2.6863842010498047,-14.676674842834473,21.444965362548828,26.81883430480957,79.7270736694336,-79.39933013916016
857055.0,-2.6725242137908936,-14.676106452941895,21.487045288085938,26.796276092529297,79.69886779785156,-79.40036010742188
857059.0,-2.6587061882019043,-14.675512313842773,21.529104232788086,26.773731231689453,79.67066955566406,-79.40140533447266
857063.0,-2.6449313163757324,-14.674888610839844,21.571149826049805,26.751192092895508,79.64248657226562,-79.40245819091797
857067.0,-2.631199359893799,-14.674238204956055,21.613178253173828,26.72866439819336,79.61429595947266,-79.40353393554688
857071.0,-2.617511034011841,-14.673562049865723,21.655187606811523,26.70615005493164,79.58612060546875,-79.40461730957031
857075.0,-2.6038663387298584,-14.672858238220215,21.697181701660156,26.68364143371582,79.55795288085938,-79.40572357177734
857079.0,-2.5902657508850098,-14.67212963104248,21.73916244506836,26.66114616394043,79.52980041503906,-79.4068374633789
857083.0,-2.576709508895874,-14.671374320983887,21.781124114990234,26.638662338256836,79.50164794921875,-79.40797424316406
857087.0,-2.5631980895996094,-14.6705904006958,21.82306671142578,26.616188049316406,79.4735107421875,-79.40911865234375
857091.0,-2.549731492996216,-14.669783592224121,21.86499786376953,26.59372329711914,79.44537353515625,-79.41028594970703
857095.0,-2.5363104343414307,-14.66894817352295,21.906911849975586,26.571269989013672,79.41725158691406,-79.41146850585938
857099.0,-2.522935628890991,-14.66808795928955,21.948806762695312,26.548826217651367,79.3891372680664,-79.41266632080078
857103.0,-2.5096068382263184,-14.667200088500977,21.990686416625977,26.526390075683594,79.36103057861328,-79.41388702392578
857107.0,-2.4963245391845703,-14.666287422180176,22.03255271911621,26.50396728515625,79.33292388916016,-79.41512298583984
857111.0,-2.483088970184326,-14.665349006652832,22.074399948120117,26.48155403137207,79.3048324584961,-79.41637420654297
857115.0,-2.4699008464813232,-14.664383888244629,22.116233825683594,26.459150314331055,79.27674865722656,-79.41764068603516
857119.0,-2.4567599296569824,-14.6633939743042,22.158050537109375,26.436756134033203,79.2486801147461,-79.41893768310547
857123.0,-2.443666696548462,-14.66237735748291,22.199851989746094,26.414371490478516,79.22061157226562,-79.42024230957031
857127.0,-2.4306211471557617,-14.661335945129395,22.241636276245117,26.392000198364258,79.19255828857422,-79.42156982421875
857131.0,-2.4176247119903564,-14.660268783569336,22.283405303955078,26.3696346282959,79.16451263427734,-79.42292785644531
857135.0,-2.404676675796509,-14.659175872802734,22.325159072875977,26.347280502319336,79.13648223876953,-79.42430114746094
857139.0,-2.391777992248535,-14.65805721282959,22.36689567565918,26.324934005737305,79.10845947265625,-79.42568969726562
857143.0,-2.3789288997650146,-14.656913757324219,22.408618927001953,26.302602767944336,79.0804443359375,-79.4271011352539
857147.0,-2.3661293983459473,-14.655745506286621,22.45032501220703,26.2802791595459,79.05244445800781,-79.42853546142578
857151.0,-2.3533802032470703,-14.654550552368164,22.492015838623047,26.257965087890625,79.02445983886719,-79.42999267578125
857155.0,-2.3406808376312256,-14.653332710266113,22.53369140625,26.235658645629883,78.99646759033203,-79.43146514892578
857159.0,-2.3280327320098877,-14.65208911895752,22.575353622436523,26.21336555480957,78.96849822998047,-79.43296813964844
857163.0,-2.3154354095458984,-14.6508207321167,22.617000579833984,26.19108009338379,78.94053649902344,-79.43449401855469
857167.0,-2.302889347076416,-14.649528503417969,22.658628463745117,26.168804168701172,78.91258239746094,-79.43602752685547
857171.0,-2.2903952598571777,-14.648211479187012,22.700246810913086,26.14653778076172,78.8846435546875,-79.4375991821289
857175.0,-2.2779533863067627,-14.646871566772461,22.741846084594727,26.12428092956543,78.8567123413086,-79.43919372558594
857179.0,-2.265563726425171,-14.645506858825684,22.783435821533203,26.102033615112305,78.82878875732422,-79.44080352783203
857183.0,-2.2532272338867188,-14.64411735534668,22.82500648498535,26.079797744750977,78.80088806152344,-79.44243621826172
857187.0,-2.240943670272827,-14.642704963684082,22.86656379699707,26.057567596435547,78.77298736572266,-79.44409942626953
857191.0,-2.2287142276763916,-14.641268730163574,22.90810775756836,26.03534698486328,78.74510955810547,-79.4457778930664
857195.0,-2.216538906097412,-14.639808654785156,22.949636459350586,26.013139724731445,78.71723175048828,-79.4474868774414
857199.0,-2.204418420791626,-14.638324737548828,22.99115562438965,25.990938186645508,78.68937683105469,-79.44921875
857203.0,-2.1923532485961914,-14.636818885803223,23.032655715942383,25.968748092651367,78.6615219116211,-79.45098114013672
857207.0,-2.1803438663482666,-14.63529109954834,23.074140548706055,25.946563720703125,78.63368225097656,-79.45277404785156
857211.0,-2.1683900356292725,-14.63373851776123,23.11561393737793,25.924392700195312,78.6058578491211,-79.45458221435547
857215.0,-2.1564931869506836,-14.632162094116211,23.157075881958008,25.9022274017334,78.57804107666016,-79.45642852783203
857219.0,-2.1446526050567627,-14.630563735961914,23.198518753051758,25.88007354736328,78.55024719238281,-79.45829010009766
857223.0,-2.132869243621826,-14.628942489624023,23.239952087402344,25.857927322387695,78.5224609375,-79.46018981933594
857227.0,-2.121143341064453,-14.627297401428223,23.281368255615234,25.835792541503906,78.49468994140625,-79.46211242675781
857231.0,-2.109475612640381,-14.625631332397461,23.32277488708496,25.81366539001465,78.46692657470703,-79.46406555175781
857235.0,-2.0978665351867676,-14.623942375183105,23.36416244506836,25.791545867919922,78.4391860961914,-79.46605682373047
857239.0,-2.0863163471221924,-14.62222957611084,23.40553855895996,25.769433975219727,78.41145324707031,-79.46807098388672
857243.0,-2.0748252868652344,-14.62049674987793,23.446903228759766,25.74733543395996,78.38373565673828,-79.4701156616211
857247.0,-2.06339430809021,-14.618741035461426,23.48825454711914,25.725244522094727,78.35603332519531,-79.47219848632812
857251.0,-2.052022933959961,-14.616963386535645,23.529590606689453,25.703161239624023,78.32835388183594,-79.47429656982422
857255.0,-2.040712356567383,-14.615163803100586,23.570913314819336,25.68108558654785,78.30067443847656,-79.47643280029297
857259.0,-2.0294625759124756,-14.613343238830566,23.612224578857422,25.659021377563477,78.27301025390625,-79.47859954833984
857263.0,-2.0182740688323975,-14.61150074005127,23.653522491455078,25.636962890625,78.24536895751953,-79.48080444335938
857267.0,-2.0071475505828857,-14.609638214111328,23.694805145263672,25.61491584777832,78.21773529052734,-79.4830322265625
857271.0,-1.99608314037323,-14.607756614685059,23.7360782623291,25.59287452697754,78.19012451171875,-79.48529815673828
857275.0,-1.9850811958312988,-14.605851173400879,23.7773380279541,25.570844650268555,78.16252136230469,-79.48759460449219
857279.0,-1.9741424322128296,-14.603926658630371,23.818584442138672,25.548818588256836,78.13493347167969,-79.48992156982422
857283.0,-1.96326744556427,-14.601981163024902,23.859821319580078,25.52680206298828,78.10736083984375,-79.49227905273438
857287.0,-1.9524565935134888,-14.600014686584473,23.901042938232422,25.50479507446289,78.07980346679688,-79.49467468261719
857291.0,-1.9417107105255127,-14.598027229309082,23.94225311279297,25.482797622680664,78.0522689819336,-79.49710083007812
857295.0,-1.931030035018921,-14.596020698547363,23.98345375061035,25.460805892944336,78.02474212646484,-79.49956512451172
857299.0,-1.9204155206680298,-14.593993186950684,24.02463722229004,25.43882179260254,77.99724578857422,-79.50206756591797
857303.0,-1.909867525100708,-14.591946601867676,24.065813064575195,25.416847229003906,77.9697494506836,-79.50460052490234
857307.0,-1.8993868827819824,-14.589879989624023,24.106975555419922,25.394878387451172,77.9422836303711,-79.50717163085938
857311.0,-1.8889738321304321,-14.587793350219727,24.14812469482422,25.3729190826416,77.91483306884766,-79.5097885131836
857315.0,-1.8786290884017944,-14.585688591003418,24.18926429748535,25.350969314575195,77.88739013671875,-79.51243591308594
857319.0,-1.868353009223938,-14.583565711975098,24.230390548706055,25.329023361206055,77.85997009277344,-79.51512145996094
857323.0,-1.8581459522247314,-14.5814208984375,24.27150535583496,25.307085037231445,77.83257293701172,-79.5178451538086
857327.0,-1.8480088710784912,-14.579258918762207,24.312610626220703,25.285160064697266,77.80519104003906,-79.52061462402344
857331.0,-1.8379420042037964,-14.577078819274902,24.353702545166016,25.263235092163086,77.77783966064453,-79.52342224121094
857335.0,-1.8279463052749634,-14.574880599975586,24.394784927368164,25.241323471069336,77.75049591064453,-79.52627563476562
857339.0,-1.8180220127105713,-14.572664260864258,24.435853958129883,25.219417572021484,77.72317504882812,-79.52916717529297
857343.0,-1.8081696033477783,-14.570429801940918,24.476911544799805,25.197519302368164,77.69586944580078,-79.53209686279297
857347.0,-1.7983899116516113,-14.568175315856934,24.51795768737793,25.175626754760742,77.66858673095703,-79.53507232666016
857351.0,-1.7886829376220703,-14.565906524658203,24.55899429321289,25.153743743896484,77.64131927490234,-79.5380859375
857355.0,-1.7790496349334717,-14.563616752624512,24.600019454956055,25.131864547729492,77.61408233642578,-79.54114532470703
857359.0,-1.7694902420043945,-14.561309814453125,24.641033172607422,25.10999298095703,77.58686065673828,-79.54425048828125
857363.0,-1.7600053548812866,-14.558985710144043,24.682035446166992,25.088132858276367,77.55965423583984,-79.5473861694336
857367.0,-1.7505955696105957,-14.556644439697266,24.7230281829834,25.066274642944336,77.53247833251953,-79.55057525634766
857371.0,-1.741261601448059,-14.554287910461426,24.764009475708008,25.044424057006836,77.50531005859375,-79.55380249023438
857375.0,-1.732003927230835,-14.55191421508789,24.804981231689453,25.022584915161133,77.4781723022461,-79.55708312988281
857379.0,-1.7228235006332397,-14.549525260925293,24.8459415435791,25.00074577331543,77.45105743408203,-79.5604019165039
857383.0,-1.713720679283142,-14.547122955322266,24.886892318725586,24.978918075561523,77.42395782470703,-79.56376647949219
857387.0,-1.7046962976455688,-14.544703483581543,24.927833557128906,24.95709228515625,77.39688110351562,-79.56717681884766
857391.0,-1.6957510709762573,-14.54227066040039,24.96876335144043,24.935277938842773,77.36982727050781,-79.57063293457031
857395.0,-1.686885952949524,-14.539819717407227,25.009681701660156,24.91346549987793,77.3427963256836,-79.57414245605469
857399.0,-1.678101658821106,-14.53735637664795,25.05059242248535,24.891660690307617,77.3157958984375,-79.57769775390625
857403.0,-1.6693990230560303,-14.53487491607666,25.091493606567383,24.869861602783203,77.28881072998047,-79.581298828125
857407.0,-1.6607784032821655,-14.532380104064941,25.132383346557617,24.84807014465332,77.26184844970703,-79.58495330810547
857411.0,-1.6522408723831177,-14.52987003326416,25.17326545715332,24.82628059387207,77.23492431640625,-79.58866119384766
857415.0,-1.6437872648239136,-14.52734661102295,25.214136123657227,24.804502487182617,77.20801544189453,-79.59242248535156
857419.0,-1.6354179382324219,-14.524808883666992,25.254995346069336,24.782726287841797,77.1811294555664,-79.59622955322266
857423.0,-1.627133846282959,-14.522257804870605,25.295848846435547,24.760957717895508,77.1542739868164,-79.60009002685547
857427.0,-1.6189355850219727,-14.519691467285156,25.336687088012695,24.73919105529785,77.12745666503906,-79.60401153564453
857431.0,-1.6108237504959106,-14.517112731933594,25.377519607543945,24.71743392944336,77.10065460205078,-79.60797882080078
857435.0,-1.6027995347976685,-14.514520645141602,25.41834259033203,24.695680618286133,77.0738754272461,-79.61201477050781
857439.0,-1.5948631763458252,-14.511917114257812,25.459156036376953,24.673934936523438,77.04712677001953,-79.61609649658203
857443.0,-1.5870156288146973,-14.50930118560791,25.499961853027344,24.652191162109375,77.02041625976562,-79.6202392578125
857447.0,-1.5792574882507324,-14.506670951843262,25.540754318237305,24.63045310974121,76.99372863769531,-79.62443542480469
857451.0,-1.5715893507003784,-14.504030227661133,25.581539154052734,24.608720779418945,76.9670639038086,-79.62869262695312
857455.0,-1.564011812210083,-14.501376152038574,25.622314453125,24.586992263793945,76.94043731689453,-79.63299560546875
857459.0,-1.5565258264541626,-14.498712539672852,25.663082122802734,24.565271377563477,76.91382598876953,-79.63735961914062
857463.0,-1.5491321086883545,-14.496034622192383,25.703840255737305,24.54355239868164,76.88725280761719,-79.64179229736328
857467.0,-1.5418310165405273,-14.493349075317383,25.744586944580078,24.521841049194336,76.86071014404297,-79.64627075195312
857471.0,-1.5346239805221558,-14.49065113067627,25.785327911376953,24.500133514404297,76.83418273925781,-79.65081024169922
857475.0,-1.5275113582611084,-14.487942695617676,25.826053619384766,24.47842788696289,76.80770111083984,-79.65541076660156
857479.0,-1.5204944610595703,-14.48522663116455,25.866775512695312,24.456727981567383,76.78125,-79.66007995605469
857483.0,-1.5135740041732788,-14.482497215270996,25.907485961914062,24.43503189086914,76.75482177734375,-79.66480255126953
857487.0,-1.5067509412765503,-14.47976016998291,25.94818878173828,24.413339614868164,76.72843170166016,-79.66958618164062
857491.0,-1.5000264644622803,-14.477014541625977,25.98888397216797,24.391653060913086,76.70207214355469,-79.67443084716797
857495.0,-1.4934014081954956,-14.474258422851562,26.029569625854492,24.36996841430664,76.67575073242188,-79.6793441772461
857499.0,-1.4868769645690918,-14.471494674682617,26.07024574279785,24.348285675048828,76.64945983886719,-79.68431854248047
857503.0,-1.4804542064666748,-14.46872329711914,26.110916137695312,24.326610565185547,76.62319946289062,-79.68936920166016
857507.0,-1.4741339683532715,-14.465943336486816,26.151575088500977,24.304933547973633,76.59698486328125,-79.6944808959961
857511.0,-1.4679174423217773,-14.463154792785645,26.192228317260742,24.283262252807617,76.57080078125,-79.69966125488281
857515.0,-1.4618055820465088,-14.460359573364258,26.232872009277344,24.261594772338867,76.54464721679688,-79.70491027832031
857519.0,-1.4557993412017822,-14.457557678222656,26.27350616455078,24.23992919921875,76.51853942871094,-79.7102279663086
857523.0,-1.449899673461914,-14.454750061035156,26.314132690429688,24.218265533447266,76.49246978759766,-79.71562194824219
857527.0,-1.4441075325012207,-14.451935768127441,26.35474967956543,24.196605682373047,76.4664306640625,-79.72108459472656
857531.0,-1.4384241104125977,-14.449113845825195,26.39535903930664,24.17494773864746,76.44043731689453,-79.72662353515625
857535.0,-1.4328500032424927,-14.446287155151367,26.435956954956055,24.153291702270508,76.41448211669922,-79.73223114013672
857539.0,-1.4273865222930908,-14.443456649780273,26.47654914855957,24.131637573242188,76.38858032226562,-79.73792266845703
857543.0,-1.4220342636108398,-14.440620422363281,26.517127990722656,24.1099853515625,76.36270141601562,-79.74368286132812
857547.0,-1.4167943000793457,-14.43777847290039,26.557701110839844,24.088336944580078,76.33686828613281,-79.74951934814453
857551.0,-1.4116674661636353,-14.434931755065918,26.5982666015625,24.066688537597656,76.31108093261719,-79.75543212890625
857555.0,-1.406654715538025,-14.432084083557129,26.638822555541992,24.0450439453125,76.28533172607422,-79.76142120361328
857559.0,-1.401757001876831,-14.429230690002441,26.67936897277832,24.023399353027344,76.25962829589844,-79.7674789428711
857563.0,-1.3969752788543701,-14.426374435424805,26.719907760620117,24.001758575439453,76.23396301269531,-79.77362823486328
857567.0,-1.3923108577728271,-14.423513412475586,26.76043701171875,23.980113983154297,76.20834350585938,-79.77983856201172
857571.0,-1.3877646923065186,-14.420652389526367,26.80095672607422,23.958473205566406,76.1827621459961,-79.78614044189453
857575.0,-1.3833378553390503,-14.4177885055542,26.84147071838379,23.93683624267578,76.15723419189453,-79.79251861572266
857579.0,-1.379032015800476,-14.414922714233398,26.88197135925293,23.915197372436523,76.13175201416016,-79.79898071289062
857583.0,-1.3748481273651123,-14.412055969238281,26.92246437072754,23.893558502197266,76.10630798339844,-79.80551147460938
857587.0,-1.3707877397537231,-14.409189224243164,26.962949752807617,23.871919631958008,76.08091735839844,-79.8121337890625
857591.0,-1.366852045059204,-14.406320571899414,27.00342559814453,23.85028076171875,76.05557250976562,-79.81884002685547
857595.0,-1.3630424737930298,-14.403453826904297,27.04389190673828,23.828643798828125,76.0302734375,-79.82563781738281
857599.0,-1.3593604564666748,-14.400586128234863,27.084348678588867,23.807004928588867,76.0050277709961,-79.83251190185547
857603.0,-1.3558076620101929,-14.397719383239746,27.12479591369629,23.785364151000977,75.9798355102539,-79.83948516845703
857607.0,-1.35238516330719,-14.394854545593262,27.165233612060547,23.763723373413086,75.95470428466797,-79.8465347290039
857611.0,-1.3490946292877197,-14.391992568969727,27.205663681030273,23.74207878112793,75.92961883544922,-79.85368347167969
857615.0,-1.3459372520446777,-14.389132499694824,27.24608039855957,23.720436096191406,75.90458679199219,-79.86093139648438
857619.0,-1.3429147005081177,-14.386274337768555,27.28649139404297,23.698793411254883,75.8796157836914,-79.8682632446289
857623.0,-1.340027928352356,-14.383419036865234,27.326889038085938,23.677143096923828,75.85470581054688,-79.87569427490234
857627.0,-1.3372787237167358,-14.380569458007812,27.367279052734375,23.655494689941406,75.82984924316406,-79.88322448730469
857631.0,-1.3346679210662842,-14.37772274017334,27.407657623291016,23.63384246826172,75.80504608154297,-79.8908462524414
857635.0,-1.3321973085403442,-14.37488079071045,27.44802474975586,23.6121883392334,75.78031158447266,-79.89856719970703
857639.0,-1.3298676013946533,-14.37204360961914,27.48838233947754,23.590530395507812,75.75563049316406,-79.90638732910156
857643.0,-1.3276803493499756,-14.36921215057373,27.528728485107422,23.568870544433594,75.73101043701172,-79.914306640625
857647.0,-1.3256367444992065,-14.366387367248535,27.569063186645508,23.547212600708008,75.70646667480469,-79.92233276367188
857651.0,-1.3237379789352417,-14.363568305969238,27.60938835144043,23.52554702758789,75.68196868896484,-79.93045043945312
857655.0,-1.3219852447509766,-14.360755920410156,27.649702072143555,23.503877639770508,75.65753173828125,-79.93866729736328
857659.0,-1.3203800916671753,-14.357952117919922,27.690004348754883,23.482208251953125,75.63317108154297,-79.94699096679688
857663.0,-1.318923830986023,-14.355155944824219,27.730295181274414,23.46053123474121,75.60887908935547,-79.9554214477539
857667.0,-1.3176180124282837,-14.352367401123047,27.770572662353516,23.438852310180664,75.58464050292969,-79.96394348144531
857671.0,-1.3164641857147217,-14.349589347839355,27.81083869934082,23.417171478271484,75.56046295166016,-79.97257232666016
857675.0,-1.3154640197753906,-14.346818923950195,27.851091384887695,23.395479202270508,75.53636932373047,-79.98130798339844
857679.0,-1.3146193027496338,-14.344059944152832,27.89133071899414,23.37378692626953,75.5123291015625,-79.99015045166016
857683.0,-1.3139317035675049,-14.341312408447266,27.931556701660156,23.352092742919922,75.48837280273438,-79.99910736083984
857687.0,-1.3134032487869263,-14.33857536315918,27.971771240234375,23.330387115478516,75.46448516845703,-80.00816345214844
857691.0,-1.313035488128662,-14.33584976196289,28.011972427368164,23.30867576599121,75.44066619873047,-80.017333984375
857695.0,-1.3128302097320557,-14.333136558532715,28.05215835571289,23.286962509155273,75.41693115234375,-80.02661895751953
857699.0,-1.3127899169921875,-14.330438613891602,28.092329025268555,23.265239715576172,75.39326477050781,-80.03601837158203
857703.0,-1.3129159212112427,-14.327753067016602,28.13248634338379,23.243507385253906,75.36968994140625,-80.04553985595703
857707.0,-1.3132106065750122,-14.325081825256348,28.172624588012695,23.221773147583008,75.34619140625,-80.05517578125
857711.0,-1.313675880432129,-14.32242488861084,28.212753295898438,23.20002555847168,75.3227767944336,-80.06493377685547
857715.0,-1.314313530921936,-14.319784164428711,28.25286102294922,23.178272247314453,75.2994384765625,-80.0748062133789
857719.0,-1.3151257038116455,-14.317160606384277,28.292951583862305,23.15650749206543,75.27619934082031,-80.0848159790039
857723.0,-1.316113829612732,-14.314553260803223,28.33302879333496,23.134737014770508,75.25304412841797,-80.0949478149414
857727.0,-1.3172801733016968,-14.311964988708496,28.373085021972656,23.112953186035156,75.22998046875,-80.10519409179688
857731.0,-1.3186259269714355,-14.309394836425781,28.41312599182129,23.091161727905273,75.2070083618164,-80.11558532714844
857735.0,-1.320152997970581,-14.306841850280762,28.453149795532227,23.069360733032227,75.18412017822266,-80.1260986328125
857739.0,-1.3218626976013184,-14.304309844970703,28.49315071105957,23.047550201416016,75.16133880615234,-80.1367416381836
857743.0,-1.3237571716308594,-14.301797866821289,28.53313636779785,23.025732040405273,75.13864135742188,-80.14750671386719
857747.0,-1.3258376121520996,-14.29930591583252,28.573097229003906,23.0039005279541,75.11603546142578,-80.15840911865234
857751.0,-1.3281059265136719,-14.296834945678711,28.613040924072266,22.982059478759766,75.0935287475586,-80.16944885253906
857755.0,-1.3305639028549194,-14.294387817382812,28.65296173095703,22.960205078125,75.07112884521484,-80.18061065673828
857759.0,-1.333212971687317,-14.291960716247559,28.692859649658203,22.938343048095703,75.048828125,-80.19190979003906
857763.0,-1.3360553979873657,-14.289559364318848,28.732742309570312,22.916467666625977,75.02661895751953,-80.20333862304688
857767.0,-1.3390930891036987,-14.287181854248047,28.77259635925293,22.894580841064453,75.0045166015625,-80.21491241455078
857771.0,-1.3423280715942383,-14.28482723236084,28.81242561340332,22.872682571411133,74.98250579833984,-80.22660827636719
857775.0,-1.3457624912261963,-14.282500267028809,28.852231979370117,22.85076904296875,74.96060943603516,-80.23845672607422
857779.0,-1.3493983745574951,-14.280198097229004,28.89201545715332,22.828842163085938,74.93882751464844,-80.25042724609375
857783.0,-1.3532383441925049,-14.277924537658691,28.931766510009766,22.806901931762695,74.91714477539062,-80.2625503540039
857787.0,-1.3572849035263062,-14.275679588317871,28.971494674682617,22.784948348999023,74.89557647705078,-80.27481079101562
857791.0,-1.3615398406982422,-14.27346134185791,29.011194229125977,22.762977600097656,74.87413024902344,-80.28721618652344
857795.0,-1.3660061359405518,-14.271273612976074,29.050865173339844,22.740989685058594,74.85279846191406,-80.29976654052734
857799.0,-1.3706861734390259,-14.269115447998047,29.09050750732422,22.718984603881836,74.83158874511719,-80.31246948242188
857803.0,-1.375581979751587,-14.266988754272461,29.13011932373047,22.696962356567383,74.81050872802734,-80.32532501220703
857807.0,-1.3806966543197632,-14.264894485473633,29.169696807861328,22.674922943115234,74.78955078125,-80.33834075927734
857811.0,-1.3860325813293457,-14.262831687927246,29.209239959716797,22.65286636352539,74.76872253417969,-80.35150146484375
857815.0,-1.3915921449661255,-14.260804176330566,29.24875259399414,22.630788803100586,74.7480239868164,-80.36482238769531
857819.0,-1.397377848625183,-14.258810997009277,29.288227081298828,22.60869026184082,74.72747039794922,-80.37830352783203
857823.0,-1.4033920764923096,-14.256852149963379,29.327667236328125,22.586572647094727,74.7070541381836,-80.39195251464844
857827.0,-1.4096367359161377,-14.254931449890137,29.367067337036133,22.564435958862305,74.68677520751953,-80.40574645996094
857831.0,-1.4161138534545898,-14.253046035766602,29.40643310546875,22.54227638244629,74.66664123535156,-80.41971588134766
857835.0,-1.4228253364562988,-14.251197814941406,29.445755004882812,22.520095825195312,74.64663696289062,-80.43385314941406
857839.0,-1.429773211479187,-14.2493896484375,29.48503875732422,22.497894287109375,74.62680053710938,-80.44815063476562
857843.0,-1.4369593858718872,-14.24761962890625,29.524282455444336,22.475671768188477,74.60710144042969,-80.46260833740234
857847.0,-1.4443857669830322,-14.245890617370605,29.563480377197266,22.453426361083984,74.5875473022461,-80.47723388671875
857851.0,-1.4520541429519653,-14.244200706481934,29.60263442993164,22.4311580657959,74.56814575195312,-80.49203491210938
857855.0,-1.4599666595458984,-14.242554664611816,29.64174461364746,22.40886688232422,74.54889678955078,-80.50699615478516
857859.0,-1.4681251049041748,-14.240949630737305,29.680805206298828,22.386552810668945,74.5298080444336,-80.52212524414062
857863.0,-1.4765318632125854,-14.239388465881348,29.719820022583008,22.364215850830078,74.51087188720703,-80.53742218017578
857867.0,-1.4851889610290527,-14.237871170043945,29.7587890625,22.34185218811035,74.4920883178711,-80.55288696289062
857871.0,-1.4940990209579468,-14.236398696899414,29.797700881958008,22.31946563720703,74.47347259521484,-80.56851959228516
857875.0,-1.5032641887664795,-14.234972953796387,29.83656120300293,22.29705238342285,74.45501708984375,-80.58433532714844
857879.0,-1.5126872062683105,-14.23359489440918,29.875370025634766,22.274612426757812,74.43673706054688,-80.6003189086914
857883.0,-1.522370457649231,-14.232263565063477,29.91411781311035,22.25214195251465,74.41861724853516,-80.6164779663086
857887.0,-1.5323163270950317,-14.230979919433594,29.95281219482422,22.229644775390625,74.40068054199219,-80.6328125
857891.0,-1.5425280332565308,-14.229747772216797,29.991443634033203,22.20711898803711,74.38291931152344,-80.64932250976562
857895.0,-1.5530074834823608,-14.22856616973877,30.030010223388672,22.184560775756836,74.36534881591797,-80.66602325439453
857899.0,-1.563757300376892,-14.227433204650879,30.068513870239258,22.161972045898438,74.34796142578125,-80.68289947509766
857903.0,-1.5747804641723633,-14.226353645324707,30.106950759887695,22.13934898376465,74.33076477050781,-80.69996643066406
857907.0,-1.5860798358917236,-14.225325584411621,30.145322799682617,22.11669158935547,74.31376647949219,-80.71721649169922
857911.0,-1.5976581573486328,-14.22435188293457,30.18362045288086,22.09400177001953,74.2969741821289,-80.73465728759766
857915.0,-1.6095178127288818,-14.223433494567871,30.221845626831055,22.071277618408203,74.28038024902344,-80.75228118896484
857919.0,-1.6216614246368408,-14.22257137298584,30.25999641418457,22.04851531982422,74.26399993896484,-80.77011108398438
857923.0,-1.6340911388397217,-14.221766471862793,30.298070907592773,22.02571678161621,74.24783325195312,-80.78812408447266
857927.0,-1.6468092203140259,-14.22101879119873,30.3360595703125,22.00288200378418,74.23188018798828,-80.80633544921875
857931.0,-1.659817099571228,-14.220329284667969,30.373973846435547,21.980010986328125,74.21614074707031,-80.82473754882812
857935.0,-1.6731164455413818,-14.219698905944824,30.411800384521484,21.95709991455078,74.20062255859375,-80.84334564208984
857939.0,-1.686708927154541,-14.219128608703613,30.449542999267578,21.934152603149414,74.1853256225586,-80.86213684082031
857943.0,-1.7005962133407593,-14.218620300292969,30.487197875976562,21.911165237426758,74.17025756835938,-80.8811264038086
857947.0,-1.7147797346115112,-14.218172073364258,30.524765014648438,21.888139724731445,74.15541076660156,-80.90032196044922
857951.0,-1.7292609214782715,-14.217784881591797,30.562238693237305,21.865074157714844,74.14079284667969,-80.9197006225586
857955.0,-1.7440414428710938,-14.217462539672852,30.599620819091797,21.84197235107422,74.12640380859375,-80.93927764892578
857959.0,-1.759122610092163,-14.217204093933105,30.63690948486328,21.818828582763672,74.11224365234375,-80.95904541015625
857963.0,-1.7745059728622437,-14.217008590698242,30.67409324645996,21.795642852783203,74.09833526611328,-80.97901916503906
857967.0,-1.7901932001113892,-14.216879844665527,30.711181640625,21.772415161132812,74.08464813232422,-80.99918365478516
857971.0,-1.8061859607696533,-14.216817855834961,30.7481632232666,21.7491455078125,74.07121276855469,-81.01953125
857975.0,-1.8224856853485107,-14.216821670532227,30.7850399017334,21.725833892822266,74.0580062866211,-81.04009246826172
857979.0,-1.839094638824463,-14.216893196105957,30.821809768676758,21.702476501464844,74.04505920410156,-81.06084442138672
857983.0,-1.8560140132904053,-14.217033386230469,30.85845947265625,21.679073333740234,74.03235626220703,-81.08179473876953
857987.0,-1.8732459545135498,-14.217243194580078,30.895002365112305,21.655622482299805,74.0199203491211,-81.1029281616211
857991.0,-1.8907923698425293,-14.217521667480469,30.93142318725586,21.632123947143555,74.00774383544922,-81.12427520751953
857995.0,-1.9086543321609497,-14.217869758605957,30.96772003173828,21.608577728271484,73.99584197998047,-81.14582061767578
857999.0,-1.9268335103988647,-14.218287467956543,31.003894805908203,21.584980010986328,73.98419952392578,-81.16755676269531
858003.0,-1.9453320503234863,-14.21877670288086,31.039941787719727,21.561328887939453,73.97284698486328,-81.18950653076172
858007.0,-1.9641515016555786,-14.21933650970459,31.075851440429688,21.537628173828125,73.96177673339844,-81.21165466308594
858011.0,-1.9832940101623535,-14.219968795776367,31.111631393432617,21.513872146606445,73.95098876953125,-81.23400115966797
858015.0,-2.002760648727417,-14.220675468444824,31.147268295288086,21.490062713623047,73.94049835205078,-81.25655364990234
858019.0,-2.0225534439086914,-14.221455574035645,31.18276023864746,21.466196060180664,73.93030548095703,-81.27931213378906
858023.0,-2.042673110961914,-14.222310066223145,31.218111038208008,21.442272186279297,73.92040252685547,-81.30227661132812
858027.0,-2.0631206035614014,-14.22323989868164,31.25331687927246,21.418296813964844,73.91081237792969,-81.325439453125
858031.0,-2.0838959217071533,-14.224244117736816,31.288366317749023,21.394262313842773,73.90151977539062,-81.34880065917969
858035.0,-2.10499906539917,-14.225323677062988,31.323265075683594,21.37017059326172,73.89254760742188,-81.37236785888672
858039.0,-2.1264307498931885,-14.226479530334473,31.358009338378906,21.346025466918945,73.88387298583984,-81.39613342285156
858043.0,-2.14819073677063,-14.227712631225586,31.392587661743164,21.321821212768555,73.8755111694336,-81.42010498046875
858047.0,-2.170278787612915,-14.229022026062012,31.427011489868164,21.297557830810547,73.86746215820312,-81.44426727294922
858051.0,-2.192694902420044,-14.230408668518066,31.461273193359375,21.273239135742188,73.85972595214844,-81.46863555908203
858055.0,-2.2154386043548584,-14.23187255859375,31.49536895751953,21.24886131286621,73.85231018066406,-81.49319458007812
858059.0,-2.2385096549987793,-14.233412742614746,31.529294967651367,21.22442626953125,73.84519958496094,-81.51793670654297
858063.0,-2.2619073390960693,-14.235031127929688,31.56304931640625,21.199932098388672,73.83840942382812,-81.54288482666016
858067.0,-2.2856318950653076,-14.23672866821289,31.596633911132812,21.175378799438477,73.8319320678711,-81.5680160522461
858071.0,-2.3096823692321777,-14.238503456115723,31.63003921508789,21.15076446533203,73.82579040527344,-81.59334564208984
858075.0,-2.3340582847595215,-14.240357398986816,31.663265228271484,21.1260929107666,73.81995391845703,-81.61885833740234
858079.0,-2.358759641647339,-14.242287635803223,31.69631004333496,21.101356506347656,73.814453125,-81.6445541381836
858083.0,-2.3837852478027344,-14.24429702758789,31.729162216186523,21.076560974121094,73.80928039550781,-81.67044067382812
858087.0,-2.409135341644287,-14.246384620666504,31.761831283569336,21.051700592041016,73.80442810058594,-81.6965103149414
858091.0,-2.4348089694976807,-14.248550415039062,31.7943058013916,21.026775360107422,73.7999267578125,-81.7227554321289
858095.0,-2.4608051776885986,-14.250792503356934,31.82658576965332,21.001785278320312,73.79576110839844,-81.74919128417969
858099.0,-2.4871230125427246,-14.253110885620117,31.858667373657227,20.976728439331055,73.79193115234375,-81.77581024169922
858103.0,-2.5137624740600586,-14.25550651550293,31.89054298400879,20.95160484313965,73.7884521484375,-81.80260467529297
858107.0,-2.540722608566284,-14.257978439331055,31.922210693359375,20.926414489746094,73.78532409667969,-81.82958221435547
858111.0,-2.5680031776428223,-14.260525703430176,31.953670501708984,20.901155471801758,73.78254699707031,-81.85673522949219
858115.0,-2.5956037044525146,-14.263151168823242,31.984914779663086,20.875829696655273,73.7801284790039,-81.88407135009766
858119.0,-2.623523235321045,-14.265852928161621,32.01594543457031,20.850431442260742,73.77806091308594,-81.91157531738281
858123.0,-2.6517605781555176,-14.268631935119629,32.0467529296875,20.82496452331543,73.77635955810547,-81.93925476074219
858127.0,-2.680314064025879,-14.271484375,32.07734680175781,20.799428939819336,73.77501678466797,-81.96710205078125
858131.0,-2.709181785583496,-14.2744140625,32.10771179199219,20.77382469177246,73.77403259277344,-81.99512481689453
858135.0,-2.738361120223999,-14.27741813659668,32.137855529785156,20.74814796447754,73.7734146118164,-82.0233154296875
858139.0,-2.767850637435913,-14.280495643615723,32.167762756347656,20.722402572631836,73.77315521240234,-82.0516586303711
858143.0,-2.7976481914520264,-14.283647537231445,32.19744873046875,20.696590423583984,73.77325439453125,-82.0801773071289
858147.0,-2.8277511596679688,-14.286872863769531,32.22690200805664,20.670705795288086,73.77371215820312,-82.10885620117188
858151.0,-2.85815691947937,-14.290173530578613,32.25613021850586,20.64475440979004,73.7745361328125,-82.13768768310547
858155.0,-2.8888635635375977,-14.293543815612793,32.285118103027344,20.61873435974121,73.77571868896484,-82.16667938232422
858159.0,-2.919868230819702,-14.296987533569336,32.313873291015625,20.5926456451416,73.7772445678711,-82.1958236694336
858163.0,-2.9511680603027344,-14.300503730773926,32.3423957824707,20.56648826599121,73.77912902832031,-82.2251205444336
858167.0,-2.9827606678009033,-14.304088592529297,32.37068557739258,20.54026222229004,73.7813720703125,-82.25455474853516
858171.0,-3.0146431922912598,-14.307745933532715,32.39873123168945,20.513967514038086,73.7839584350586,-82.28413391113281
858175.0,-3.0468132495880127,-14.311470985412598,32.42654037475586,20.487606048583984,73.78690338134766,-82.3138656616211
858179.0,-3.079267740249634,-14.315263748168945,32.45410919189453,20.461172103881836,73.79019165039062,-82.34374237060547
858183.0,-3.112003803253174,-14.319125175476074,32.481441497802734,20.43467140197754,73.79383850097656,-82.37374877929688
858187.0,-3.145019292831421,-14.323052406311035,32.50851821899414,20.40810203552246,73.79782104492188,-82.40390014648438
858191.0,-3.1783108711242676,-14.327044486999512,32.53535461425781,20.381460189819336,73.80216979980469,-82.43417358398438
858195.0,-3.2118759155273438,-14.331101417541504,32.561946868896484,20.354751586914062,73.80685424804688,-82.46459197998047
858199.0,-3.245710611343384,-14.335220336914062,32.58828353881836,20.327970504760742,73.81190490722656,-82.49512481689453
858203.0,-3.279813051223755,-14.339400291442871,32.6143798828125,20.301118850708008,73.81729125976562,-82.52580261230469
858207.0,-3.314180612564087,-14.343640327453613,32.64020919799805,20.27419662475586,73.82302856445312,-82.55660247802734
858211.0,-3.3488106727600098,-14.347939491271973,32.665802001953125,20.247203826904297,73.8291244506836,-82.58751678466797
858215.0,-3.3837006092071533,-14.352298736572266,32.69112777709961,20.220138549804688,73.8355712890625,-82.6185531616211
858219.0,-3.4188485145568848,-14.356714248657227,32.71620178222656,20.193004608154297,73.84235382080078,-82.64971923828125
858223.0,-3.4542508125305176,-14.361189842224121,32.74101257324219,20.16579818725586,73.8494873046875,-82.68099212646484
858227.0,-3.4899051189422607,-14.36571979522705,32.76557540893555,20.138521194458008,73.85697174072266,-82.7123794555664
858231.0,-3.5258071422576904,-14.370305061340332,32.78987503051758,20.111175537109375,73.86479949951172,-82.74388122558594
858235.0,-3.5619540214538574,-14.374944686889648,32.81391525268555,20.083757400512695,73.87296295166016,-82.77549743652344
858239.0,-3.598341703414917,-14.379634857177734,32.837703704833984,20.056272506713867,73.8814697265625,-82.80721282958984
858243.0,-3.6349682807922363,-14.384378433227539,32.861228942871094,20.028717041015625,73.89031219482422,-82.83903503417969
858247.0,-3.67182993888855,-14.389171600341797,32.884498596191406,20.001094818115234,73.89948272705078,-82.8709487915039
858251.0,-3.7089226245880127,-14.39401626586914,32.90751266479492,19.973403930664062,73.90898895263672,-82.90298461914062
858255.0,-3.746243953704834,-14.398909568786621,32.930274963378906,19.945646286010742,73.91881561279297,-82.93511199951172
858259.0,-3.783789873123169,-14.403849601745605,32.95277786254883,19.91781997680664,73.92897033691406,-82.96732330322266
858263.0,-3.8215579986572266,-14.40883731842041,32.97502517700195,19.889928817749023,73.93944549560547,-82.99964141845703
858267.0,-3.859544038772583,-14.413869857788086,32.99701690673828,19.861970901489258,73.95022583007812,-83.03205108642578
858271.0,-3.897745370864868,-14.41894817352295,33.01875686645508,19.83395004272461,73.9613265991211,-83.06454467773438
858275.0,-3.9361581802368164,-14.424068450927734,33.04024124145508,19.80586051940918,73.97274017333984,-83.09712982177734
858279.0,-3.9747796058654785,-14.429232597351074,33.06147384643555,19.777706146240234,73.98445892333984,-83.12979125976562
858283.0,-4.013606548309326,-14.43443489074707,33.08245086669922,19.74948501586914,73.99649047851562,-83.16254425048828
858287.0,-4.052635669708252,-14.439679145812988,33.10317611694336,19.721200942993164,74.0088119506836,-83.19538116455078
858291.0,-4.091863632202148,-14.444960594177246,33.12364959716797,19.692852020263672,74.02143859863281,-83.22828674316406
858295.0,-4.131287574768066,-14.450279235839844,33.143863677978516,19.664438247680664,74.03437042236328,-83.26128387451172
858299.0,-4.17090368270874,-14.455633163452148,33.1638298034668,19.63595962524414,74.04759979248047,-83.29434967041016
858303.0,-4.2107086181640625,-14.461020469665527,33.18354034423828,19.60741424560547,74.06111145019531,-83.3274917602539
858307.0,-4.250701904296875,-14.466440200805664,33.2030029296875,19.57880401611328,74.0749282836914,-83.36070251464844
858311.0,-4.290877819061279,-14.471892356872559,33.222206115722656,19.550132751464844,74.08903503417969,-83.39398193359375
858315.0,-4.331235408782959,-14.477373123168945,33.24115753173828,19.52139663696289,74.10343170166016,-83.42733764648438
858319.0,-4.371771335601807,-14.482885360717773,33.25986099243164,19.49259376525879,74.11811065673828,-83.46075439453125
858323.0,-4.4124836921691895,-14.488424301147461,33.2783088684082,19.463729858398438,74.13307189941406,-83.4942398071289
858327.0,-4.453368663787842,-14.493992805480957,33.296504974365234,19.434803009033203,74.1483154296875,-83.52779388427734
858331.0,-4.4944233894348145,-14.499587059020996,33.314456939697266,19.405811309814453,74.1638412475586,-83.5614013671875
858335.0,-4.53564453125,-14.505204200744629,33.332157135009766,19.376760482788086,74.17964172363281,-83.5950698852539
858339.0,-4.577028751373291,-14.510846138000488,33.349613189697266,19.347644805908203,74.1957015991211,-83.62879943847656
858343.0,-4.618574619293213,-14.516511917114258,33.366817474365234,19.318471908569336,74.21204376220703,-83.66259002685547
858347.0,-4.660277366638184,-14.522199630737305,33.38378143310547,19.289236068725586,74.2286376953125,-83.69642639160156
858351.0,-4.7021355628967285,-14.527908325195312,33.4005012512207,19.25994110107422,74.24549865722656,-83.7303237915039
858355.0,-4.74414587020874,-14.533637046813965,33.4169807434082,19.230587005615234,74.26261901855469,-83.76427459716797
858359.0,-4.7863054275512695,-14.539386749267578,33.43321990966797,19.201175689697266,74.27998352050781,-83.79827117919922
858363.0,-4.828611373901367,-14.545150756835938,33.44921875,19.17170524597168,74.29759979248047,-83.83232116699219
858367.0,-4.871061325073242,-14.550934791564941,33.464988708496094,19.142179489135742,74.31546783447266,-83.86642456054688
858371.0,-4.9136528968811035,-14.556735038757324,33.48051452636719,19.11259651184082,74.33357238769531,-83.90056610107422
858375.0,-4.9563822746276855,-14.56254768371582,33.49580764770508,19.08295249938965,74.35192108154297,-83.93476867675781
858379.0,-4.9992475509643555,-14.568377494812012,33.510868072509766,19.053255081176758,74.3705062866211,-83.96900177001953
858383.0,-5.042246341705322,-14.574216842651367,33.52569580078125,19.023502349853516,74.38932800292969,-84.00328063964844
858387.0,-5.085375785827637,-14.580070495605469,33.5402946472168,18.99369239807129,74.40837860107422,-84.03760528564453
858391.0,-5.128633499145508,-14.585933685302734,33.55466079711914,18.96382713317871,74.42765045166016,-84.07197570800781
858395.0,-5.172017574310303,-14.591806411743164,33.56879806518555,18.93390655517578,74.44715881347656,-84.10636901855469
858399.0,-5.215523719787598,-14.597685813903809,33.582706451416016,18.9039306640625,74.46688079833984,-84.14082336425781
858403.0,-5.259150981903076,-14.603572845458984,33.59638214111328,18.873899459838867,74.48683166503906,-84.17530059814453
858407.0,-5.302896976470947,-14.609465599060059,33.60983657836914,18.843814849853516,74.50699615478516,-84.2098159790039
858411.0,-5.34675931930542,-14.615362167358398,33.62306594848633,18.81367301940918,74.52738189697266,-84.24436950683594
858415.0,-5.390736103057861,-14.62126350402832,33.63606643676758,18.783479690551758,74.54798126220703,-84.2789535522461
858419.0,-5.434825420379639,-14.627167701721191,33.648841857910156,18.753232955932617,74.56877899169922,-84.31358337402344
858423.0,-5.479024887084961,-14.633074760437012,33.66139602661133,18.722930908203125,74.58979797363281,-84.3482437133789
858427.0,-5.523332595825195,-14.638980865478516,33.673728942871094,18.692575454711914,74.61101531982422,-84.38292694091797
858431.0,-5.567745685577393,-14.644888877868652,33.68584442138672,18.662168502807617,74.63243865966797,-84.41764068603516
858435.0,-5.6122612953186035,-14.650796890258789,33.69773483276367,18.631710052490234,74.65406036376953,-84.45238494873047
858439.0,-5.656879901885986,-14.656702995300293,33.709415435791016,18.601200103759766,74.6758804321289,-84.48716735839844
858443.0,-5.701596736907959,-14.662606239318848,33.72087478637695,18.570640563964844,74.69789123535156,-84.52197265625
858447.0,-5.746410369873047,-14.66850757598877,33.73212432861328,18.540029525756836,74.7200927734375,-84.55680847167969
858451.0,-5.791319370269775,-14.674405097961426,33.743167877197266,18.509368896484375,74.74247741699219,-84.59166717529297
858455.0,-5.836321830749512,-14.6802978515625,33.75399398803711,18.47865867614746,74.76504516601562,-84.62654876708984
858459.0,-5.881415367126465,-14.686185836791992,33.76461410522461,18.44790267944336,74.78780364990234,-84.66146087646484
858463.0,-5.926598072052002,-14.692068099975586,33.775028228759766,18.417095184326172,74.81073760986328,-84.69639587402344
858467.0,-5.97186803817749,-14.697943687438965,33.78523635864258,18.386241912841797,74.8338394165039,-84.73136138916016
858471.0,-6.017223358154297,-14.703812599182129,33.79524230957031,18.35533905029297,74.85711669921875,-84.7663345336914
858475.0,-6.0626630783081055,-14.709672927856445,33.805049896240234,18.324392318725586,74.88056182861328,-84.80133819580078
858479.0,-6.108184337615967,-14.715524673461914,33.81465148925781,18.29339599609375,74.9041748046875,-84.83636474609375
858483.0,-6.153785228729248,-14.721366882324219,33.824058532714844,18.26235580444336,74.92794799804688,-84.87141418457031
858487.0,-6.199465274810791,-14.727197647094727,33.8332633972168,18.23126983642578,74.95188903808594,-84.90648651123047
858491.0,-6.245221138000488,-14.733016967773438,33.84226989746094,18.200136184692383,74.9759750366211,-84.94157409667969
858495.0,-6.291052341461182,-14.738824844360352,33.8510856628418,18.168956756591797,75.00022888183594,-84.97667694091797
858499.0,-6.336956024169922,-14.744616508483887,33.85969924926758,18.137733459472656,75.02464294433594,-85.01181030273438
858503.0,-6.382930755615234,-14.750394821166992,33.868125915527344,18.106462478637695,75.0491943359375,-85.04695892333984
858507.0,-6.428976535797119,-14.756159782409668,33.87635040283203,18.075149536132812,75.07390594482422,-85.08211517333984
858511.0,-6.475090503692627,-14.761906623840332,33.88439178466797,18.043790817260742,75.09877014160156,-85.11730194091797
858515.0,-6.521271228790283,-14.767637252807617,33.89223861694336,18.012386322021484,75.12377166748047,-85.15249633789062
858519.0,-6.567518711090088,-14.773350715637207,33.89989471435547,17.980941772460938,75.14891815185547,-85.18771362304688
858523.0,-6.61383056640625,-14.779047012329102,33.90736389160156,17.94944953918457,75.17420196533203,-85.22293853759766
858527.0,-6.660205841064453,-14.784723281860352,33.914642333984375,17.91791534423828,75.19963073730469,-85.25818634033203
858531.0,-6.706641674041748,-14.790382385253906,33.92173767089844,17.886337280273438,75.22518920898438,-85.29345703125
858535.0,-6.753138542175293,-14.7960205078125,33.92864990234375,17.854719161987305,75.25089263916016,-85.32872772216797
858539.0,-6.7996931076049805,-14.80163860321045,33.93537902832031,17.823055267333984,75.27671813964844,-85.36402893066406
858543.0,-6.846304416656494,-14.807235717773438,33.94192886352539,17.79135513305664,75.30268096923828,-85.39932250976562
858547.0,-6.892972469329834,-14.812812805175781,33.948299407958984,17.759611129760742,75.32876586914062,-85.43464660644531
858551.0,-6.939693927764893,-14.818367004394531,33.954490661621094,17.727827072143555,75.35498046875,-85.46997833251953
858555.0,-6.986469745635986,-14.823899269104004,33.96050262451172,17.696001052856445,75.38130187988281,-85.50532531738281
858559.0,-7.033297061920166,-14.8294095993042,33.966346740722656,17.664138793945312,75.40775299072266,-85.54067993164062
858563.0,-7.080174446105957,-14.834894180297852,33.972015380859375,17.632234573364258,75.434326171875,-85.5760498046875
858567.0,-7.127101898193359,-14.84035873413086,33.977516174316406,17.600290298461914,75.46101379394531,-85.61143493652344
858571.0,-7.174077987670898,-14.845797538757324,33.98284149169922,17.568309783935547,75.48780822753906,-85.64682006835938
858575.0,-7.221100807189941,-14.851211547851562,33.987998962402344,17.536291122436523,75.51470947265625,-85.6822280883789
858579.0,-7.26816987991333,-14.856598854064941,33.99299240112305,17.50423240661621,75.5417251586914,-85.71764373779297
858583.0,-7.315282821655273,-14.86196231842041,33.99781799316406,17.472137451171875,75.56884765625,-85.7530746459961
858587.0,-7.36244010925293,-14.867297172546387,34.00247573852539,17.440006256103516,75.59606170654297,-85.78851318359375
858591.0,-7.409640312194824,-14.872605323791504,34.00697326660156,17.407835006713867,75.62339782714844,-85.82396697998047
858595.0,-7.456881523132324,-14.877885818481445,34.01129913330078,17.375625610351562,75.65081787109375,-85.85942840576172
858599.0,-7.5041632652282715,-14.883135795593262,34.015464782714844,17.343381881713867,75.67835235595703,-85.8948974609375
858603.0,-7.55148458480835,-14.888358116149902,34.01947021484375,17.311100006103516,75.70597839355469,-85.93038177490234
858607.0,-7.598844051361084,-14.893549919128418,34.0233154296875,17.27878189086914,75.73368835449219,-85.96586608886719
858611.0,-7.646241664886475,-14.898710250854492,34.027000427246094,17.246427536010742,75.76151275634766,-86.0013656616211
858615.0,-7.693674564361572,-14.903841972351074,34.0305290222168,17.214035034179688,75.78941345214844,-86.03688049316406
858619.0,-7.741142749786377,-14.908940315246582,34.03389358520508,17.181608200073242,75.8174057006836,-86.07239532470703
858623.0,-7.788646697998047,-14.914008140563965,34.037105560302734,17.149147033691406,75.84549713134766,-86.10792541503906
858627.0,-7.836184024810791,-14.919042587280273,34.0401611328125,17.116647720336914,75.87366485595703,-86.14346313476562
858631.0,-7.883752822875977,-14.92404556274414,34.043060302734375,17.08411407470703,75.90191650390625,-86.17900848388672
858635.0,-7.931354999542236,-14.929014205932617,34.04581069946289,17.051546096801758,75.93025207519531,-86.21456909179688
858639.0,-7.9789862632751465,-14.933951377868652,34.04840850830078,17.018945693969727,75.95867156982422,-86.25012969970703
858643.0,-8.02664852142334,-14.93885326385498,34.05085372924805,16.98630714416504,75.98717498779297,-86.28569793701172
858647.0,-8.074338912963867,-14.943721771240234,34.05315017700195,16.953636169433594,76.01575469970703,-86.32128143310547
858651.0,-8.122057914733887,-14.948556900024414,34.0552978515625,16.92093276977539,76.04439544677734,-86.35687255859375
858655.0,-8.169804573059082,-14.953357696533203,34.057308197021484,16.88819694519043,76.07312774658203,-86.39247131347656
858659.0,-8.217578887939453,-14.958123207092285,34.059165954589844,16.855430603027344,76.1019287109375,-86.4280776977539
858663.0,-8.265378952026367,-14.962852478027344,34.06087875366211,16.822628021240234,76.13079071044922,-86.46368408203125
858667.0,-8.313204765319824,-14.967547416687012,34.06245422363281,16.789794921875,76.15972900390625,-86.49930572509766
858671.0,-8.361056327819824,-14.972207069396973,34.06388854980469,16.75693130493164,76.18873596191406,-86.5349349975586
858675.0,-8.408930778503418,-14.976829528808594,34.06517791748047,16.724035263061523,76.21781158447266,-86.57056427001953
858679.0,-8.456830024719238,-14.981415748596191,34.06633377075195,16.69110679626465,76.2469482421875,-86.60620880126953
858683.0,-8.504751205444336,-14.985962867736816,34.06734848022461,16.65814781188965,76.27613830566406,-86.64186096191406
858687.0,-8.552693367004395,-14.990473747253418,34.0682258605957,16.625158309936523,76.3053970336914,-86.67752075195312
858691.0,-8.600658416748047,-14.994948387145996,34.06896209716797,16.592140197753906,76.334716796875,-86.71318054199219
858695.0,-8.648640632629395,-14.999381065368652,34.06956481933594,16.5590877532959,76.36408996582031,-86.74886322021484
858699.0,-8.69664478302002,-15.003775596618652,34.07003402709961,16.5260066986084,76.3935317993164,-86.78453826904297
858703.0,-8.744668006896973,-15.008131980895996,34.07036590576172,16.49289321899414,76.42301177978516,-86.82022094726562
858707.0,-8.792709350585938,-15.012447357177734,34.070560455322266,16.45975112915039,76.45254516601562,-86.85592651367188
858711.0,-8.840767860412598,-15.016722679138184,34.07062911987305,16.42658042907715,76.48214721679688,-86.8916244506836
858715.0,-8.888843536376953,-15.020956993103027,34.070560455322266,16.393375396728516,76.51179504394531,-86.92733001708984
858719.0,-8.936936378479004,-15.025151252746582,34.07036209106445,16.360143661499023,76.5414810180664,-86.96305847167969
858723.0,-8.985044479370117,-15.029303550720215,34.07003402709961,16.32688331604004,76.57122039794922,-86.998779296875
858727.0,-9.03316879272461,-15.033415794372559,34.069576263427734,16.293590545654297,76.60101318359375,-87.03451538085938
858731.0,-9.081307411193848,-15.03748607635498,34.06898880004883,16.260269165039062,76.630859375,-87.07025909423828
858735.0,-9.129460334777832,-15.04151439666748,34.06827163696289,16.22692108154297,76.66073608398438,-87.10599517822266
858739.0,-9.177627563476562,-15.045499801635742,34.06742858886719,16.193544387817383,76.69066619873047,-87.14175415039062
858743.0,-9.225807189941406,-15.049444198608398,34.066463470458984,16.160137176513672,76.72062683105469,-87.1775131225586
858747.0,-9.27400016784668,-15.053345680236816,34.065372467041016,16.1267032623291,76.7506332397461,-87.21328735351562
858751.0,-9.32220458984375,-15.05720329284668,34.06416320800781,16.093242645263672,76.78067779541016,-87.24905395507812
858755.0,-9.370420455932617,-15.061019897460938,34.062828063964844,16.05975341796875,76.8107681274414,-87.28483581542969
858759.0,-9.418647766113281,-15.064791679382324,34.061370849609375,16.0262393951416,76.84088897705078,-87.32063293457031
858763.0,-9.466885566711426,-15.068519592285156,34.05979537963867,15.992698669433594,76.87104034423828,-87.3564224243164
858767.0,-9.51513385772705,-15.07220458984375,34.058101654052734,15.95913028717041,76.90123748779297,-87.39222717285156
858771.0,-9.563393592834473,-15.075846672058105,34.0562858581543,15.92553424835205,76.93145751953125,-87.42803192138672
858775.0,-9.611663818359375,-15.07944393157959,34.05435562133789,15.891912460327148,76.96171569824219,-87.46385192871094
858779.0,-9.659941673278809,-15.082999229431152,34.052310943603516,15.858264923095703,76.99201202392578,-87.49967956542969
858783.0,-9.708229064941406,-15.086508750915527,34.050148010253906,15.824590682983398,77.02232360839844,-87.53550720214844
858787.0,-9.756522178649902,-15.089972496032715,34.04787063598633,15.790891647338867,77.05266571044922,-87.57135009765625
858791.0,-9.804824829101562,-15.093393325805664,34.04547882080078,15.757165908813477,77.08304595947266,-87.6072006225586
858795.0,-9.853133201599121,-15.096765518188477,34.042972564697266,15.72341537475586,77.11344146728516,-87.6430435180664
858799.0,-9.901449203491211,-15.100093841552734,34.040348052978516,15.689638137817383,77.14386749267578,-87.67890930175781
858803.0,-9.9497709274292,-15.103373527526855,34.03761672973633,15.655835151672363,77.17431640625,-87.71477508544922
858807.0,-9.99809741973877,-15.106609344482422,34.03477096557617,15.622007369995117,77.20478820800781,-87.75064849853516
858811.0,-10.046430587768555,-15.109795570373535,34.03181457519531,15.588152885437012,77.23528289794922,-87.78652954101562
858815.0,-10.094767570495605,-15.112936019897461,34.028743743896484,15.55427360534668,77.26579284667969,-87.82242584228516
858819.0,-10.143110275268555,-15.116029739379883,34.02556610107422,15.520370483398438,77.29632568359375,-87.85832214355469
858823.0,-10.191455841064453,-15.119074821472168,34.022274017333984,15.486441612243652,77.3268814086914,-87.89422607421875
858827.0,-10.23980712890625,-15.12207317352295,34.01887512207031,15.452488899230957,77.3574447631836,-87.93013763427734
858831.0,-10.28816032409668,-15.12502384185791,34.01536560058594,15.418510437011719,77.38803100585938,-87.96605682373047
858835.0,-10.336517333984375,-15.127924919128418,34.01175308227539,15.38450813293457,77.41864013671875,-88.00198364257812
858839.0,-10.384876251220703,-15.130780220031738,34.008033752441406,15.350480079650879,77.44925689697266,-88.03791809082031
858843.0,-10.433239936828613,-15.133584976196289,34.00421142578125,15.316431045532227,77.47988891601562,-88.07386016845703
858847.0,-10.481603622436523,-15.136344909667969,34.00027847290039,15.282357215881348,77.51053619384766,-88.10981750488281
858851.0,-10.529970169067383,-15.139053344726562,33.996246337890625,15.248259544372559,77.54119873046875,-88.1457748413086
858855.0,-10.578338623046875,-15.141715049743652,33.99211120605469,15.214140892028809,77.5718765258789,-88.18173217773438
858859.0,-10.626708030700684,-15.144327163696289,33.98787307739258,15.179996490478516,77.60255432128906,-88.21770477294922
858863.0,-10.675077438354492,-15.146892547607422,33.98353576660156,15.145830154418945,77.63323974609375,-88.2536849975586
858867.0,-10.723448753356934,-15.149407386779785,33.97909164428711,15.111641883850098,77.6639404296875,-88.2896728515625
858871.0,-10.771820068359375,-15.151874542236328,33.974552154541016,15.077430725097656,77.69465637207031,-88.32566833496094
858875.0,-10.8201904296875,-15.154293060302734,33.969913482666016,15.043196678161621,77.7253646850586,-88.36166381835938
858879.0,-10.868560791015625,-15.156661033630371,33.965179443359375,15.008942604064941,77.75608825683594,-88.3976821899414
858883.0,-10.916930198669434,-15.158980369567871,33.9603385925293,14.974663734436035,77.78681182861328,-88.43370056152344
858887.0,-10.965299606323242,-15.161247253417969,33.95541000366211,14.940364837646484,77.81754302978516,-88.46971893310547
858891.0,-11.013667106628418,-15.16346549987793,33.95037841796875,14.906041145324707,77.84827423095703,-88.50575256347656
858895.0,-11.062033653259277,-15.165634155273438,33.945247650146484,14.871697425842285,77.87901306152344,-88.54180145263672
858899.0,-11.11039924621582,-15.16775131225586,33.94002151489258,14.83733081817627,77.90975189208984,-88.57785034179688
858903.0,-11.158761978149414,-15.169817924499512,33.9347038269043,14.802943229675293,77.94048309326172,-88.61390686035156
858907.0,-11.207123756408691,-15.171833038330078,33.929290771484375,14.768532752990723,77.97122192382812,-88.64997863769531
858911.0,-11.25548267364502,-15.173796653747559,33.92377853393555,14.734099388122559,78.001953125,-88.68604278564453
858915.0,-11.303836822509766,-15.17570686340332,33.91817092895508,14.699645042419434,78.0326919555664,-88.72212982177734
858919.0,-11.352190017700195,-15.177566528320312,33.912471771240234,14.665170669555664,78.06342315673828,-88.75821685791016
858923.0,-11.400538444519043,-15.179376602172852,33.90667724609375,14.6306734085083,78.09414672851562,-88.79431915283203
858927.0,-11.448884963989258,-15.181132316589355,33.90079116821289,14.596153259277344,78.12487030029297,-88.83042907714844
858931.0,-11.49722671508789,-15.182836532592773,33.894813537597656,14.561613082885742,78.15558624267578,-88.86653900146484
858935.0,-11.545564651489258,-15.184489250183105,33.88874053955078,14.527054786682129,78.1863021850586,-88.90266418457031
858939.0,-11.593897819519043,-15.186089515686035,33.8825798034668,14.492473602294922,78.21701049804688,-88.93879699707031
858943.0,-11.642227172851562,-15.187636375427246,33.8763313293457,14.457871437072754,78.24771118164062,-88.97493743896484
858947.0,-11.690552711486816,-15.189133644104004,33.8699951171875,14.423249244689941,78.27841186523438,-89.0110855102539
858951.0,-11.738872528076172,-15.190576553344727,33.86356735229492,14.388606071472168,78.30909729003906,-89.04724884033203
858955.0,-11.787187576293945,-15.191967964172363,33.857051849365234,14.353944778442383,78.33976745605469,-89.08340454101562
858959.0,-11.83549690246582,-15.19330883026123,33.85044860839844,14.319262504577637,78.37043762207031,-89.11957550048828
858963.0,-11.883801460266113,-15.194594383239746,33.8437614440918,14.284561157226562,78.4011001586914,-89.15576171875
858967.0,-11.932101249694824,-15.195829391479492,33.83698654174805,14.249839782714844,78.43174743652344,-89.19194793701172
858971.0,-11.98039436340332,-15.197011947631836,33.83012390136719,14.215099334716797,78.46238708496094,-89.22814178466797
858975.0,-12.028681755065918,-15.198141098022461,33.823177337646484,14.180340766906738,78.49300384521484,-89.26435089111328
858979.0,-12.076963424682617,-15.199216842651367,33.81614685058594,14.145561218261719,78.52362060546875,-89.30056762695312
858983.0,-12.125238418579102,-15.200239181518555,33.80903625488281,14.110761642456055,78.5542221069336,-89.3367919921875
858987.0,-12.173505783081055,-15.20120906829834,33.80183792114258,14.075942993164062,78.58480072021484,-89.37301635742188
858991.0,-12.221766471862793,-15.20212459564209,33.7945556640625,14.041107177734375,78.61537170410156,-89.40926361083984
858995.0,-12.270020484924316,-15.202986717224121,33.78718948364258,14.00624942779541,78.64591979980469,-89.44551086425781
858999.0,-12.318267822265625,-15.203794479370117,33.779747009277344,13.971373558044434,78.67646026611328,-89.48177337646484
859003.0,-12.366506576538086,-15.204549789428711,33.772212982177734,13.936479568481445,78.70697784423828,-89.51803588867188
859007.0,-12.414737701416016,-15.205249786376953,33.76460266113281,13.901565551757812,78.73748016357422,-89.55431365966797
859011.0,-12.462961196899414,-15.205893516540527,33.75690460205078,13.866631507873535,78.76795196533203,-89.59059143066406
859015.0,-12.511177062988281,-15.206483840942383,33.74913024902344,13.831679344177246,78.79841613769531,-89.62688446044922
859019.0,-12.5593843460083,-15.207018852233887,33.741275787353516,13.796708106994629,78.828857421875,-89.66319274902344
859023.0,-12.607582092285156,-15.207498550415039,33.733333587646484,13.761717796325684,78.85928344726562,-89.69950103759766
859027.0,-12.655773162841797,-15.207923889160156,33.72531509399414,13.726710319519043,78.88968658447266,-89.7358169555664
859031.0,-12.70395565032959,-15.208293914794922,33.71722412109375,13.691682815551758,78.9200668334961,-89.77214813232422
859035.0,-12.752129554748535,-15.208608627319336,33.709041595458984,13.656638145446777,78.95042419433594,-89.80848693847656
859039.0,-12.800294876098633,-15.208869934082031,33.70079040527344,13.621575355529785,78.98075103759766,-89.8448257446289
859043.0,-12.848450660705566,-15.209074020385742,33.69245910644531,13.586493492126465,79.01107025146484,-89.88118743896484
859047.0,-12.896597862243652,-15.209224700927734,33.68404769897461,13.551393508911133,79.04135131835938,-89.91754913330078
859051.0,-12.944734573364258,-15.209320068359375,33.675559997558594,13.516277313232422,79.07162475585938,-89.95391845703125
859055.0,-12.9928617477417,-15.209359169006348,33.6670036315918,13.481142044067383,79.10186004638672,-89.99030303955078
859059.0,-13.04097843170166,-15.209345817565918,33.65836715698242,13.445991516113281,79.13208770751953,-90.02669525146484
859063.0,-13.089086532592773,-15.20927619934082,33.64965057373047,13.410820960998535,79.16227722167969,-90.06309509277344
859067.0,-13.13718318939209,-15.209151268005371,33.640865325927734,13.375635147094727,79.19244384765625,-90.09950256347656
859071.0,-13.185270309448242,-15.208971977233887,33.63200378417969,13.340432167053223,79.22258758544922,-90.13591766357422
859075.0,-13.233346939086914,-15.208736419677734,33.62307357788086,13.305211067199707,79.25270080566406,-90.1723403930664
859079.0,-13.281414031982422,-15.20844554901123,33.61406707763672,13.269973754882812,79.28279113769531,-90.20877838134766
859083.0,-13.32947063446045,-15.208097457885742,33.604984283447266,13.234718322753906,79.31285095214844,-90.2452163696289
859087.0,-13.37751579284668,-15.207695960998535,33.59583282470703,13.199447631835938,79.34288024902344,-90.28166961669922
859091.0,-13.425548553466797,-15.207237243652344,33.586605072021484,13.164158821105957,79.37287902832031,-90.31812286376953
859095.0,-13.473572731018066,-15.206721305847168,33.57730484008789,13.128851890563965,79.40284729003906,-90.35459899902344
