rparak/ABB_EGM_Python/src/EGM_Results/CRB15000/result_desired_abs_joint_v100_z100.txt
Time,Joint_1,Joint_2,Joint_3,Joint_4,Joint_5,Joint_6
2057457.0,-6.478979587554932,-14.031691551208496,11.459031105041504,32.17593002319336,86.11853790283203,-79.14385986328125
2057461.0,-6.478979587554932,-14.031691551208496,11.459031105041504,32.17593002319336,86.11853790283203,-79.14385986328125
2057465.0,-6.478979587554932,-14.031691551208496,11.459031105041504,32.17593002319336,86.11853790283203,-79.14385986328125
2057469.0,-6.478979587554932,-14.031691551208496,11.459031105041504,32.17593002319336,86.11853790283203,-79.14385986328125
2057473.0,-6.478979587554932,-14.031691551208496,11.459031105041504,32.17593002319336,86.11853790283203,-79.14385986328125
2057477.0,-6.478979587554932,-14.031691551208496,11.459031105041504,32.17593002319336,86.11853790283203,-79.14385986328125
2057481.0,-6.478979587554932,-14.031691551208496,11.459031105041504,32.17593002319336,86.11853790283203,-79.14385986328125
2057485.0,-6.478979587554932,-14.031691551208496,11.459031105041504,32.17593002319336,86.11853790283203,-79.14385986328125
2057489.0,-6.478979587554932,-14.031691551208496,11.459031105041504,32.17593002319336,86.11853790283203,-79.14385986328125
2057493.0,-6.478979587554932,-14.031691551208496,11.459031105041504,32.17593002319336,86.11853790283203,-79.14385986328125
2057497.0,-6.478979587554932,-14.031691551208496,11.459031105041504,32.17593002319336,86.11853790283203,-79.14385986328125
2057501.0,-6.478979587554932,-14.031691551208496,11.459031105041504,32.17593002319336,86.11853790283203,-79.14385986328125
2057505.0,-6.478979587554932,-14.031691551208496,11.459031105041504,32.17593002319336,86.11853790283203,-79.14385986328125
2057509.0,-6.478979587554932,-14.031691551208496,11.459031105041504,32.17593002319336,86.11853790283203,-79.14385986328125
2057513.0,-6.478979587554932,-14.031691551208496,11.459031105041504,32.17593002319336,86.11853790283203,-79.14385986328125
2057517.0,-6.478979587554932,-14.031691551208496,11.459031105041504,32.17593002319336,86.11853790283203,-79.14385986328125
2057521.0,-6.478979587554932,-14.031691551208496,11.459031105041504,32.17593002319336,86.11853790283203,-79.14385986328125
2057525.0,-6.478979587554932,-14.031691551208496,11.459031105041504,32.17593002319336,86.11853790283203,-79.14385986328125
2057529.0,-6.478979587554932,-14.031691551208496,11.459031105041504,32.17593002319336,86.11853790283203,-79.14385986328125
2057533.0,-6.478979587554932,-14.031691551208496,11.459031105041504,32.17593002319336,86.11853790283203,-79.14385986328125
2057537.0,-6.478979587554932,-14.031691551208496,11.459031105041504,32.17593002319336,86.11853790283203,-79.14385986328125
2057541.0,-6.478979587554932,-14.031691551208496,11.459031105041504,32.17593002319336,86.11853790283203,-79.14385986328125
2057545.0,-6.478979587554932,-14.031691551208496,11.459031105041504,32.17593002319336,86.11853790283203,-79.14385986328125
2057549.0,-6.478979587554932,-14.031691551208496,11.459031105041504,32.17593002319336,86.11853790283203,-79.14385986328125
2057553.0,-6.478904724121094,-14.031652450561523,11.459097862243652,32.17591857910156,86.11854553222656,-79.14385986328125
2057557.0,-6.4784321784973145,-14.031416893005371,11.459529876708984,32.175838470458984,86.1185531616211,-79.14385986328125
2057561.0,-6.47695255279541,-14.030713081359863,11.460948944091797,32.17554473876953,86.11854553222656,-79.14388275146484
2057565.0,-6.47384786605835,-14.029342651367188,11.464133262634277,32.17478561401367,86.11831665039062,-79.14391326904297
2057569.0,-6.468871593475342,-14.027413368225098,11.46975326538086,32.173194885253906,86.11748504638672,-79.1440200805664
2057573.0,-6.462124347686768,-14.025314331054688,11.478368759155273,32.17030334472656,86.11540222167969,-79.14423370361328
2057577.0,-6.453828811645508,-14.023568153381348,11.490560531616211,32.16558074951172,86.1113052368164,-79.1446304321289
2057581.0,-6.4444074630737305,-14.022809982299805,11.506767272949219,32.158485412597656,86.10437774658203,-79.14527130126953
2057585.0,-6.434633255004883,-14.023799896240234,11.526992797851562,32.148616790771484,86.09390258789062,-79.14619445800781
2057589.0,-6.4252238273620605,-14.027108192443848,11.550992012023926,32.13578796386719,86.0794448852539,-79.14743041992188
2057593.0,-6.416156768798828,-14.032702445983887,11.578746795654297,32.12001419067383,86.06105041503906,-79.14900207519531
2057597.0,-6.406710147857666,-14.0399751663208,11.610450744628906,32.10152053833008,86.03915405273438,-79.1508560180664
2057601.0,-6.396145820617676,-14.048179626464844,11.646055221557617,32.08073043823242,86.0145263671875,-79.15293884277344
2057605.0,-6.384062767028809,-14.056690216064453,11.68510913848877,32.05817413330078,85.98796081542969,-79.15518951416016
2057609.0,-6.370232105255127,-14.064988136291504,11.727048873901367,32.034385681152344,85.96022033691406,-79.15754699707031
2057613.0,-6.35454797744751,-14.072694778442383,11.771344184875488,32.00981521606445,85.93191528320312,-79.15997314453125
2057617.0,-6.337284088134766,-14.07973861694336,11.817346572875977,31.98480224609375,85.90343475341797,-79.16242218017578
2057621.0,-6.319060325622559,-14.086328506469727,11.864297866821289,31.959592819213867,85.87493896484375,-79.16487121582031
2057625.0,-6.300468921661377,-14.092730522155762,11.91159725189209,31.934314727783203,85.8464584350586,-79.16732025146484
2057629.0,-6.281809329986572,-14.099084854125977,11.958959579467773,31.909029006958008,85.81797790527344,-79.16978454589844
2057633.0,-6.263149261474609,-14.105423927307129,12.006317138671875,31.883747100830078,85.78948974609375,-79.17222595214844
2057637.0,-6.244494438171387,-14.111749649047852,12.053666114807129,31.858470916748047,85.7610092163086,-79.17467498779297
2057641.0,-6.225841999053955,-14.118058204650879,12.10099983215332,31.833200454711914,85.73252868652344,-79.1771011352539
2057645.0,-6.207193374633789,-14.124349594116211,12.148317337036133,31.807939529418945,85.70405578613281,-79.17951965332031
2057649.0,-6.188549041748047,-14.130620956420898,12.195612907409668,31.782684326171875,85.67557525634766,-79.18193054199219
2057653.0,-6.169909954071045,-14.13686752319336,12.24288558959961,31.7574405670166,85.64708709716797,-79.18431854248047
2057657.0,-6.151278018951416,-14.143088340759277,12.290131568908691,31.732208251953125,85.61859893798828,-79.18669128417969
2057661.0,-6.132654666900635,-14.14927864074707,12.337347984313965,31.70699119567871,85.5901107788086,-79.18904113769531
2057665.0,-6.114039897918701,-14.155434608459473,12.384532928466797,31.681787490844727,85.5616226196289,-79.19137573242188
2057669.0,-6.095434188842773,-14.161554336547852,12.431686401367188,31.656599044799805,85.53312683105469,-79.19368743896484
2057673.0,-6.076837539672852,-14.167634963989258,12.478805541992188,31.63142204284668,85.50462341308594,-79.19596099853516
2057677.0,-6.058248996734619,-14.173678398132324,12.525887489318848,31.60626792907715,85.47611999511719,-79.19822692871094
2057681.0,-6.03966760635376,-14.179679870605469,12.572933197021484,31.581125259399414,85.44761657714844,-79.20044708251953
2057685.0,-6.021094799041748,-14.185640335083008,12.619939804077148,31.55600357055664,85.41909790039062,-79.20265197753906
2057689.0,-6.002530097961426,-14.19156265258789,12.666908264160156,31.530895233154297,85.39057922363281,-79.20482635498047
2057693.0,-5.983972549438477,-14.197442054748535,12.713839530944824,31.50580596923828,85.362060546875,-79.20696258544922
2057697.0,-5.965423583984375,-14.203283309936523,12.760733604431152,31.480735778808594,85.33352661132812,-79.20909118652344
2057701.0,-5.946882724761963,-14.209083557128906,12.807589530944824,31.455678939819336,85.30498504638672,-79.211181640625
2057705.0,-5.92834997177124,-14.214844703674316,12.854410171508789,31.430639266967773,85.27645874023438,-79.21324920654297
2057709.0,-5.909825801849365,-14.220568656921387,12.901198387145996,31.40561294555664,85.24790954589844,-79.21528625488281
2057713.0,-5.8913116455078125,-14.226256370544434,12.947956085205078,31.38060188293457,85.2193603515625,-79.2173080444336
2057717.0,-5.872806549072266,-14.231907844543457,12.994682312011719,31.355602264404297,85.19081115722656,-79.21929931640625
2057721.0,-5.854310512542725,-14.237524032592773,13.0413818359375,31.330617904663086,85.16226196289062,-79.22128295898438
2057725.0,-5.835824966430664,-14.243109703063965,13.088054656982422,31.30564308166504,85.13370513916016,-79.2232437133789
2057729.0,-5.817348480224609,-14.248662948608398,13.134703636169434,31.280681610107422,85.10514068603516,-79.22518157958984
2057733.0,-5.7988810539245605,-14.254182815551758,13.181328773498535,31.2557315826416,85.07658386230469,-79.22711181640625
2057737.0,-5.780422687530518,-14.259673118591309,13.22793197631836,31.230791091918945,85.04801940917969,-79.22901153564453
2057741.0,-5.761974334716797,-14.265130996704102,13.27451229095459,31.205860137939453,85.01945495605469,-79.23091125488281
2057745.0,-5.743536472320557,-14.27055835723877,13.32106876373291,31.180944442749023,84.99089050292969,-79.2327880859375
2057749.0,-5.725109577178955,-14.27595329284668,13.36760139465332,31.156034469604492,84.96232604980469,-79.23465728759766
2057753.0,-5.706693649291992,-14.281315803527832,13.414111137390137,31.13113784790039,84.93375396728516,-79.23650360107422
2057757.0,-5.68828821182251,-14.286645889282227,13.460593223571777,31.10625648498535,84.90518188476562,-79.23833465576172
2057761.0,-5.669895172119141,-14.29194164276123,13.507046699523926,31.08138656616211,84.8766098022461,-79.24015045166016
2057765.0,-5.65151309967041,-14.297201156616211,13.553471565246582,31.056528091430664,84.84803009033203,-79.241943359375
2057769.0,-5.633143424987793,-14.302424430847168,13.599864959716797,31.03169059753418,84.8194580078125,-79.24372100830078
2057773.0,-5.614784240722656,-14.307608604431152,13.646224975585938,31.00686264038086,84.7908706665039,-79.24547576904297
2057777.0,-5.596436977386475,-14.31275463104248,13.692549705505371,30.982051849365234,84.76228332519531,-79.24720764160156
2057781.0,-5.578102111816406,-14.31786060333252,13.738838195800781,30.957258224487305,84.73370361328125,-79.24891662597656
2057785.0,-5.559778690338135,-14.32292652130127,13.785091400146484,30.932485580444336,84.7051010131836,-79.25060272216797
2057789.0,-5.541467666625977,-14.327954292297363,13.831307411193848,30.90772247314453,84.676513671875,-79.25226593017578
2057793.0,-5.523169040679932,-14.332940101623535,13.877487182617188,30.882984161376953,84.64791870117188,-79.25390625
2057797.0,-5.504881858825684,-14.337886810302734,13.923629760742188,30.858259201049805,84.61931610107422,-79.2555160522461
2057801.0,-5.486606121063232,-14.342796325683594,13.969738960266113,30.833547592163086,84.59071350097656,-79.25711059570312
2057805.0,-5.468342304229736,-14.34766674041748,14.015815734863281,30.808856964111328,84.5621109008789,-79.25868225097656
2057809.0,-5.450090408325195,-14.352499961853027,14.061860084533691,30.784177780151367,84.53349304199219,-79.26023864746094
2057813.0,-5.431849956512451,-14.35729694366455,14.10787582397461,30.759511947631836,84.5048828125,-79.26177215576172
2057817.0,-5.41362190246582,-14.362060546875,14.153861999511719,30.734861373901367,84.47626495361328,-79.2632827758789
2057821.0,-5.3954057693481445,-14.366788864135742,14.199823379516602,30.710222244262695,84.4476547241211,-79.26478576660156
2057825.0,-5.37720251083374,-14.371488571166992,14.245759010314941,30.685590744018555,84.41902923583984,-79.26626586914062
2057829.0,-5.359010696411133,-14.376152992248535,14.291672706604004,30.66097640991211,84.39041137695312,-79.26773071289062
2057833.0,-5.340831756591797,-14.380789756774902,14.337564468383789,30.636369705200195,84.3617935180664,-79.2691879272461
2057837.0,-5.322665214538574,-14.385394096374512,14.383434295654297,30.611770629882812,84.33316802978516,-79.2706298828125
2057841.0,-5.304511547088623,-14.38996696472168,14.42928409576416,30.587188720703125,84.30455017089844,-79.27206420898438
2057845.0,-5.286370754241943,-14.394509315490723,14.475109100341797,30.56261444091797,84.27592468261719,-79.27348327636719
2057849.0,-5.26824426651001,-14.399022102355957,14.520912170410156,30.538049697875977,84.24729919433594,-79.27488708496094
2057853.0,-5.250132083892822,-14.403501510620117,14.566693305969238,30.513498306274414,84.21867370605469,-79.27627563476562
2057857.0,-5.232034683227539,-14.407949447631836,14.612446784973145,30.488956451416016,84.19004821777344,-79.27765655517578
2057861.0,-5.213951110839844,-14.412362098693848,14.658177375793457,30.46442985534668,84.16142272949219,-79.27902221679688
2057865.0,-5.195882320404053,-14.416740417480469,14.703874588012695,30.43992042541504,84.1327896118164,-79.28038024902344
2057869.0,-5.177828788757324,-14.421080589294434,14.749544143676758,30.415420532226562,84.10415649414062,-79.28170013427734
2057873.0,-5.1597900390625,-14.425385475158691,14.795180320739746,30.39093780517578,84.07552337646484,-79.28302001953125
2057877.0,-5.1417670249938965,-14.42965030670166,14.840784072875977,30.366472244262695,84.04689025878906,-79.28430938720703
2057881.0,-5.123758792877197,-14.433876991271973,14.886353492736816,30.342023849487305,84.01825714111328,-79.28559875488281
2057885.0,-5.105765342712402,-14.438063621520996,14.931888580322266,30.317590713500977,83.98963165283203,-79.28684997558594
2057889.0,-5.087786674499512,-14.44221305847168,14.977387428283691,30.29317283630371,83.96098327636719,-79.28809356689453
2057893.0,-5.069822788238525,-14.44632339477539,15.022852897644043,30.26877212524414,83.93234252929688,-79.28931427001953
2057897.0,-5.05187463760376,-14.450393676757812,15.068284034729004,30.244388580322266,83.90370178222656,-79.29051208496094
2057901.0,-5.033941745758057,-14.454425811767578,15.11368179321289,30.220022201538086,83.87506103515625,-79.29170227050781
2057905.0,-5.016023635864258,-14.458422660827637,15.159048080444336,30.1956729888916,83.8464126586914,-79.2928695678711
2057909.0,-4.998119831085205,-14.462381362915039,15.204386711120605,30.17133331298828,83.81776428222656,-79.29402160644531
2057913.0,-4.980231761932373,-14.466306686401367,15.24969482421875,30.147010803222656,83.78912353515625,-79.29515838623047
2057917.0,-4.962358474731445,-14.470196723937988,15.294978141784668,30.122697830200195,83.76046752929688,-79.29627990722656
2057921.0,-4.944499969482422,-14.474055290222168,15.340237617492676,30.098400115966797,83.73181915283203,-79.29739379882812
2057925.0,-4.926656723022461,-14.477884292602539,15.38547420501709,30.074111938476562,83.70317077636719,-79.29849243164062
2057929.0,-4.9088287353515625,-14.481679916381836,15.430688858032227,30.049833297729492,83.67451477050781,-79.29956817626953
2057933.0,-4.891018390655518,-14.48544692993164,15.475882530212402,30.025562286376953,83.6458740234375,-79.30065155029297
2057937.0,-4.873224258422852,-14.489182472229004,15.521053314208984,30.00130844116211,83.61721801757812,-79.30171203613281
2057941.0,-4.855447292327881,-14.492889404296875,15.566207885742188,29.977062225341797,83.58856964111328,-79.30276489257812
2057945.0,-4.837685585021973,-14.496564865112305,15.611340522766113,29.95282554626465,83.5599136352539,-79.30381774902344
2057949.0,-4.819940567016602,-14.50020980834961,15.656450271606445,29.92860221862793,83.53126525878906,-79.30484771728516
2057953.0,-4.802213191986084,-14.503823280334473,15.7015380859375,29.90438461303711,83.50260925292969,-79.30587005615234
2057957.0,-4.784502983093262,-14.507404327392578,15.746602058410645,29.880186080932617,83.47395324707031,-79.30689239501953
2057961.0,-4.766809463500977,-14.510953903198242,15.791638374328613,29.85599708557129,83.4453125,-79.30789184570312
2057965.0,-4.749134540557861,-14.514466285705566,15.836648941040039,29.83182144165039,83.41665649414062,-79.30889129638672
2057969.0,-4.7314772605896,-14.5179443359375,15.881629943847656,29.807659149169922,83.38800811767578,-79.30986785888672
2057973.0,-4.713839530944824,-14.521385192871094,15.926580429077148,29.78351402282715,83.3593521118164,-79.31083679199219
2057977.0,-4.696220874786377,-14.524786949157715,15.9714994430542,29.759387969970703,83.33069610595703,-79.31179809570312
2057981.0,-4.678620338439941,-14.52815055847168,16.01638412475586,29.735273361206055,83.30204772949219,-79.31272888183594
2057985.0,-4.661038398742676,-14.531478881835938,16.061237335205078,29.711179733276367,83.27339172363281,-79.31365203857422
2057989.0,-4.643474578857422,-14.534765243530273,16.106060028076172,29.68709945678711,83.24474334716797,-79.31456756591797
2057993.0,-4.625929355621338,-14.538017272949219,16.15084457397461,29.663036346435547,83.2160873413086,-79.31546020507812
2057997.0,-4.608402729034424,-14.541228294372559,16.195600509643555,29.638988494873047,83.18743896484375,-79.31635284423828
2058001.0,-4.59089469909668,-14.544403076171875,16.240325927734375,29.614959716796875,83.15877532958984,-79.31721496582031
2058005.0,-4.5734052658081055,-14.5475435256958,16.28502082824707,29.590940475463867,83.130126953125,-79.31807708740234
2058009.0,-4.555934906005859,-14.55064582824707,16.329687118530273,29.566940307617188,83.10147094726562,-79.31891632080078
2058013.0,-4.538482666015625,-14.553715705871582,16.37432861328125,29.542949676513672,83.07282257080078,-79.31975555419922
2058017.0,-4.521049976348877,-14.556754112243652,16.4189453125,29.518972396850586,83.0441665649414,-79.32057189941406
2058021.0,-4.503634929656982,-14.559759140014648,16.463537216186523,29.49500846862793,83.0155029296875,-79.3213882446289
2058025.0,-4.486239910125732,-14.562735557556152,16.50811195373535,29.471050262451172,82.98685455322266,-79.32219696044922
2058029.0,-4.4688615798950195,-14.565680503845215,16.552661895751953,29.44710350036621,82.95819854736328,-79.32299041748047
2058033.0,-4.451503753662109,-14.568596839904785,16.59719467163086,29.423171997070312,82.92955017089844,-79.32378387451172
2058037.0,-4.434164047241211,-14.57148265838623,16.64171028137207,29.399248123168945,82.90089416503906,-79.3245620727539
2058041.0,-4.416843891143799,-14.574339866638184,16.686203002929688,29.37533187866211,82.87223815917969,-79.3253402709961
2058045.0,-4.399543762207031,-14.577167510986328,16.73067855834961,29.35142707824707,82.84358978271484,-79.32610321044922
2058049.0,-4.382263660430908,-14.57996654510498,16.77513313293457,29.32753562927246,82.81494140625,-79.32686614990234
2058053.0,-4.365002632141113,-14.582732200622559,16.81956672668457,29.303653717041016,82.78628540039062,-79.32762145996094
2058057.0,-4.347762584686279,-14.585468292236328,16.863975524902344,29.279781341552734,82.75763702392578,-79.328369140625
2058061.0,-4.3305439949035645,-14.58816909790039,16.908361434936523,29.255924224853516,82.72899627685547,-79.32911682128906
2058065.0,-4.313346862792969,-14.590838432312012,16.952716827392578,29.23208236694336,82.70034790039062,-79.32984924316406
2058069.0,-4.29617166519165,-14.59347152709961,16.99704933166504,29.208251953125,82.67169952392578,-79.33057403564453
2058073.0,-4.279019355773926,-14.59606647491455,17.041351318359375,29.184438705444336,82.64305877685547,-79.33129119873047
2058077.0,-4.261889457702637,-14.598626136779785,17.085622787475586,29.160642623901367,82.61441040039062,-79.33199310302734
2058081.0,-4.2447829246521,-14.601149559020996,17.129863739013672,29.136859893798828,82.58577728271484,-79.33269500732422
2058085.0,-4.227698802947998,-14.60363483428955,17.174072265625,29.11309051513672,82.55712890625,-79.33338165283203
2058089.0,-4.210638046264648,-14.606082916259766,17.218252182006836,29.08934211730957,82.52849578857422,-79.33406066894531
2058093.0,-4.193599224090576,-14.60849380493164,17.26239776611328,29.06560707092285,82.4998550415039,-79.33473205566406
2058097.0,-4.176583766937256,-14.610867500305176,17.306516647338867,29.041889190673828,82.47122192382812,-79.33539581298828
2058101.0,-4.159590721130371,-14.61320686340332,17.350605010986328,29.018184661865234,82.44258117675781,-79.33604431152344
2058105.0,-4.142620086669922,-14.615509033203125,17.39466667175293,28.994495391845703,82.41394805908203,-79.33668518066406
2058109.0,-4.125670433044434,-14.617777824401855,17.438701629638672,28.970821380615234,82.38532257080078,-79.33732604980469
2058113.0,-4.108743190765381,-14.620015144348145,17.48271369934082,28.947158813476562,82.356689453125,-79.33795166015625
2058117.0,-4.091836452484131,-14.62221908569336,17.526700973510742,28.92350959777832,82.32805633544922,-79.33857727050781
2058121.0,-4.074953079223633,-14.624394416809082,17.570669174194336,28.899866104125977,82.29942321777344,-79.33919525146484
2058125.0,-4.058090686798096,-14.62653923034668,17.61461639404297,28.876237869262695,82.27079010009766,-79.33979797363281
2058129.0,-4.041250705718994,-14.628655433654785,17.658544540405273,28.852617263793945,82.2421646118164,-79.34040832519531
2058133.0,-4.024434566497803,-14.630742073059082,17.70245361328125,28.829010009765625,82.21353149414062,-79.34101104736328
2058137.0,-4.007640838623047,-14.632801055908203,17.74634552001953,28.805408477783203,82.18490600585938,-79.34160614013672
2058141.0,-3.990870237350464,-14.634831428527832,17.79022216796875,28.781816482543945,82.15628814697266,-79.34220123291016
2058145.0,-3.9741225242614746,-14.636831283569336,17.834077835083008,28.758235931396484,82.1276626586914,-79.34278869628906
2058149.0,-3.957397937774658,-14.638803482055664,17.877914428710938,28.73466682434082,82.09903717041016,-79.34337615966797
2058153.0,-3.9406964778900146,-14.640746116638184,17.921730041503906,28.71110725402832,82.07042694091797,-79.34396362304688
2058157.0,-3.9240198135375977,-14.642655372619629,17.96552276611328,28.687559127807617,82.04180908203125,-79.34454345703125
2058161.0,-3.9073667526245117,-14.644535064697266,18.009294509887695,28.664026260375977,82.01319122314453,-79.34512329101562
2058165.0,-3.890740156173706,-14.646379470825195,18.053041458129883,28.640504837036133,81.98458862304688,-79.345703125
2058169.0,-3.8741400241851807,-14.648191452026367,18.09676170349121,28.61699867248535,81.95597076416016,-79.34627532958984
2058173.0,-3.857567071914673,-14.649967193603516,18.14045524597168,28.593505859375,81.9273681640625,-79.34683990478516
2058177.0,-3.8410212993621826,-14.65170669555664,18.184118270874023,28.570030212402344,81.89876556396484,-79.34740447998047
2058181.0,-3.824502944946289,-14.653409004211426,18.227754592895508,28.54656982421875,81.87016296386719,-79.34796905517578
2058185.0,-3.8080122470855713,-14.655077934265137,18.271360397338867,28.523120880126953,81.84156036376953,-79.34851837158203
2058189.0,-3.791548728942871,-14.656708717346191,18.314937591552734,28.499692916870117,81.8129653930664,-79.34907531738281
2058193.0,-3.7751121520996094,-14.658305168151855,18.358484268188477,28.47627830505371,81.78437805175781,-79.34962463378906
2058197.0,-3.7587027549743652,-14.65986442565918,18.402002334594727,28.452878952026367,81.75578308105469,-79.35015869140625
2058201.0,-3.7423205375671387,-14.66139030456543,18.44549560546875,28.42949676513672,81.7271957397461,-79.35070037841797
2058205.0,-3.725963830947876,-14.662880897521973,18.488964080810547,28.406124114990234,81.6986083984375,-79.35124969482422
2058209.0,-3.7096333503723145,-14.664339065551758,18.53240966796875,28.382768630981445,81.67002868652344,-79.35177612304688
2058213.0,-3.6933279037475586,-14.665766716003418,18.575828552246094,28.35942268371582,81.64144897460938,-79.35231018066406
2058217.0,-3.6770472526550293,-14.66716194152832,18.619226455688477,28.33608627319336,81.61286926269531,-79.35282897949219
2058221.0,-3.6607918739318848,-14.66853141784668,18.662609100341797,28.312763214111328,81.58429718017578,-79.35336303710938
2058225.0,-3.644562005996704,-14.669870376586914,18.705970764160156,28.28944969177246,81.55571746826172,-79.3538818359375
2058229.0,-3.62835955619812,-14.671181678771973,18.749317169189453,28.266145706176758,81.52714538574219,-79.35440826416016
2058233.0,-3.6121840476989746,-14.672465324401855,18.792646408081055,28.242849349975586,81.49857330322266,-79.35492706298828
2058237.0,-3.5960357189178467,-14.67371940612793,18.835956573486328,28.21956443786621,81.47000885009766,-79.35545349121094
2058241.0,-3.5799143314361572,-14.674946784973145,18.879253387451172,28.1962890625,81.44144439697266,-79.35597229003906
2058245.0,-3.56381893157959,-14.6761474609375,18.922531127929688,28.173023223876953,81.41287994384766,-79.35649108886719
2058249.0,-3.547750473022461,-14.677318572998047,18.965789794921875,28.149765014648438,81.38432312011719,-79.35700988769531
2058253.0,-3.5317084789276123,-14.678462982177734,19.009029388427734,28.12652015686035,81.35576629638672,-79.35753631591797
2058257.0,-3.515695095062256,-14.679574012756348,19.052249908447266,28.103286743164062,81.32720947265625,-79.35806274414062
2058261.0,-3.4997105598449707,-14.680655479431152,19.095449447631836,28.08006477355957,81.29866027832031,-79.35859680175781
2058265.0,-3.483757257461548,-14.681705474853516,19.138622283935547,28.056854248046875,81.27011108398438,-79.35911560058594
2058269.0,-3.4678356647491455,-14.682719230651855,19.181774139404297,28.033662796020508,81.24156951904297,-79.35964965820312
2058273.0,-3.451946258544922,-14.683701515197754,19.224897384643555,28.010482788085938,81.2130355834961,-79.36018371582031
2058277.0,-3.436089038848877,-14.684647560119629,19.267995834350586,27.98731803894043,81.18449401855469,-79.36071014404297
2058281.0,-3.420264720916748,-14.685561180114746,19.311067581176758,27.96416664123535,81.15597534179688,-79.36124420166016
2058285.0,-3.4044718742370605,-14.68643856048584,19.354110717773438,27.94103240966797,81.12744140625,-79.36178588867188
2058289.0,-3.38871169090271,-14.687280654907227,19.397127151489258,27.917911529541016,81.09893035888672,-79.3623275756836
2058293.0,-3.372983932495117,-14.688089370727539,19.44011878967285,27.894805908203125,81.07040405273438,-79.36286163330078
2058297.0,-3.357288122177124,-14.688862800598145,19.483081817626953,27.87171173095703,81.04190063476562,-79.3634033203125
2058301.0,-3.3416242599487305,-14.689604759216309,19.52602195739746,27.8486385345459,81.01339721679688,-79.36395263671875
2058305.0,-3.325991630554199,-14.690313339233398,19.568939208984375,27.82557487487793,80.98489379882812,-79.36449432373047
2058309.0,-3.3103890419006348,-14.690990447998047,19.611833572387695,27.802520751953125,80.95639038085938,-79.36504364013672
2058313.0,-3.294816255569458,-14.691636085510254,19.654708862304688,27.779481887817383,80.92789459228516,-79.3656005859375
2058317.0,-3.2792727947235107,-14.692254066467285,19.69756317138672,27.756452560424805,80.89940643310547,-79.36614990234375
2058321.0,-3.263758420944214,-14.692845344543457,19.740400314331055,27.733434677124023,80.87091064453125,-79.36670684814453
2058325.0,-3.2482738494873047,-14.693408966064453,19.783222198486328,27.710424423217773,80.8424301147461,-79.36725616455078
2058329.0,-3.2328197956085205,-14.693944931030273,19.826026916503906,27.687423706054688,80.8139419555664,-79.36781311035156
2058333.0,-3.2173962593078613,-14.694454193115234,19.868816375732422,27.664432525634766,80.78546142578125,-79.36837005615234
2058337.0,-3.2020037174224854,-14.694938659667969,19.911590576171875,27.641450881958008,80.7569808959961,-79.36892700195312
2058341.0,-3.1866416931152344,-14.695394515991211,19.954347610473633,27.61847686767578,80.728515625,-79.36949920654297
2058345.0,-3.1713099479675293,-14.695823669433594,19.997089385986328,27.59551239013672,80.70004272460938,-79.37007141113281
2058349.0,-3.1560099124908447,-14.696226119995117,20.03981590270996,27.572559356689453,80.67157745361328,-79.37064361572266
2058353.0,-3.1407418251037598,-14.696599960327148,20.0825252532959,27.54961395263672,80.64311218261719,-79.37123107910156
2058357.0,-3.125507354736328,-14.69694709777832,20.125215530395508,27.526681900024414,80.61466217041016,-79.37181854248047
2058361.0,-3.1103086471557617,-14.69726276397705,20.167884826660156,27.50376319885254,80.5862045288086,-79.37242126464844
2058365.0,-3.0951461791992188,-14.697547912597656,20.210533142089844,27.480854034423828,80.5577621459961,-79.3730239868164
2058369.0,-3.0800211429595947,-14.697798728942871,20.253156661987305,27.45796012878418,80.52932739257812,-79.3736343383789
2058373.0,-3.064934253692627,-14.698019027709961,20.295759201049805,27.435081481933594,80.50089263916016,-79.37425231933594
2058377.0,-3.0498855113983154,-14.698206901550293,20.338336944580078,27.412212371826172,80.47246551513672,-79.3748779296875
2058381.0,-3.03487491607666,-14.698360443115234,20.380887985229492,27.389362335205078,80.44404602050781,-79.37551879882812
2058385.0,-3.019901990890503,-14.698481559753418,20.42341423034668,27.36652183532715,80.41563415527344,-79.37615966796875
2058389.0,-3.004967451095581,-14.698570251464844,20.46591567993164,27.343698501586914,80.38722229003906,-79.37681579589844
2058393.0,-2.9900708198547363,-14.698625564575195,20.508394241333008,27.32088851928711,80.35882568359375,-79.37747955322266
2058397.0,-2.9752118587493896,-14.698647499084473,20.55084991455078,27.298091888427734,80.33042907714844,-79.3781509399414
2058401.0,-2.960390329360962,-14.698638916015625,20.59328269958496,27.27530860900879,80.30204010009766,-79.37883758544922
2058405.0,-2.945605516433716,-14.698599815368652,20.635692596435547,27.25253677368164,80.27366638183594,-79.3795166015625
2058409.0,-2.930856227874756,-14.698529243469238,20.678083419799805,27.229778289794922,80.24528503417969,-79.38020324707031
2058413.0,-2.916141986846924,-14.698431968688965,20.720457077026367,27.207033157348633,80.21691131591797,-79.38091278076172
2058417.0,-2.9014618396759033,-14.698307991027832,20.76280975341797,27.184295654296875,80.18854522705078,-79.3816146850586
2058421.0,-2.8868160247802734,-14.698155403137207,20.805150985717773,27.16156768798828,80.1601791381836,-79.38232421875
2058425.0,-2.8722047805786133,-14.697978019714355,20.847475051879883,27.13884735107422,80.13182067871094,-79.38304138183594
2058429.0,-2.8576276302337646,-14.697776794433594,20.889785766601562,27.116138458251953,80.10346984863281,-79.3837661743164
2058433.0,-2.843086004257202,-14.697549819946289,20.93208122253418,27.093435287475586,80.07511901855469,-79.3844985961914
2058437.0,-2.8285796642303467,-14.697295188903809,20.974365234375,27.070743560791016,80.04676818847656,-79.3852310180664
2058441.0,-2.814108371734619,-14.69701862335205,21.016633987426758,27.048057556152344,80.01842498779297,-79.385986328125
2058445.0,-2.7996737957000732,-14.696714401245117,21.058887481689453,27.02538299560547,79.99009704589844,-79.38673400878906
2058449.0,-2.785275936126709,-14.696386337280273,21.10112762451172,27.002714157104492,79.96176147460938,-79.38750457763672
2058453.0,-2.770916700363159,-14.696029663085938,21.14335060119629,26.980058670043945,79.93344116210938,-79.38829040527344
2058457.0,-2.7565972805023193,-14.695647239685059,21.185556411743164,26.957412719726562,79.90512084960938,-79.38908386230469
2058461.0,-2.7423198223114014,-14.695236206054688,21.22774314880371,26.934782028198242,79.87681579589844,-79.38988494873047
2058465.0,-2.728085517883301,-14.694795608520508,21.26991081237793,26.912158966064453,79.8485107421875,-79.39070129394531
2058469.0,-2.713895797729492,-14.69432544708252,21.31205940246582,26.889549255371094,79.82022094726562,-79.39154815673828
2058473.0,-2.6997506618499756,-14.69382381439209,21.354185104370117,26.86695098876953,79.79193878173828,-79.39239501953125
2058477.0,-2.6856508255004883,-14.693290710449219,21.39628791809082,26.84436798095703,79.76365661621094,-79.39325714111328
2058481.0,-2.671595573425293,-14.692728996276855,21.438369750976562,26.82179832458496,79.73539733886719,-79.3941421508789
2058485.0,-2.657585620880127,-14.692132949829102,21.48042869567871,26.799243927001953,79.70713806152344,-79.3950424194336
2058489.0,-2.643620252609253,-14.691510200500488,21.522464752197266,26.77669906616211,79.67889404296875,-79.39595794677734
2058493.0,-2.629699945449829,-14.690852165222168,21.564477920532227,26.75417137145996,79.6506576538086,-79.39688873291016
2058497.0,-2.615823984146118,-14.690166473388672,21.60647201538086,26.731653213500977,79.62242126464844,-79.3978271484375
2058501.0,-2.601991653442383,-14.68945026397705,21.648447036743164,26.70914649963379,79.59420013427734,-79.39878845214844
2058505.0,-2.5882022380828857,-14.688706398010254,21.690399169921875,26.686655044555664,79.56597900390625,-79.39976501464844
2058509.0,-2.5744543075561523,-14.687933921813965,21.732337951660156,26.66417121887207,79.53777313232422,-79.40074920654297
2058513.0,-2.5607473850250244,-14.68713665008545,21.774259567260742,26.641698837280273,79.50956726074219,-79.4017562866211
2058517.0,-2.5470807552337646,-14.68631362915039,21.816164016723633,26.61923599243164,79.48137664794922,-79.40276336669922
2058521.0,-2.5334537029266357,-14.685466766357422,21.858057022094727,26.596784591674805,79.45318603515625,-79.4037857055664
2058525.0,-2.519866943359375,-14.684596061706543,21.899934768676758,26.574338912963867,79.42500305175781,-79.40482330322266
2058529.0,-2.5063211917877197,-14.683699607849121,21.941801071166992,26.55190086364746,79.3968276977539,-79.4058609008789
2058533.0,-2.492816209793091,-14.682781219482422,21.983652114868164,26.529470443725586,79.36865234375,-79.40692901611328
2058537.0,-2.4793524742126465,-14.681838035583496,22.025493621826172,26.50705337524414,79.34049224853516,-79.40798950195312
2058541.0,-2.465930223464966,-14.680871963500977,22.06732177734375,26.484638214111328,79.31232452392578,-79.4090805053711
2058545.0,-2.4525508880615234,-14.679880142211914,22.10913848876953,26.462234497070312,79.28417205810547,-79.4101791381836
2058549.0,-2.4392151832580566,-14.67886734008789,22.150941848754883,26.43984031677246,79.25603485107422,-79.41130065917969
2058553.0,-2.4259250164031982,-14.677828788757324,22.192731857299805,26.41745376586914,79.22789764404297,-79.41242980957031
2058557.0,-2.4126827716827393,-14.676765441894531,22.23450469970703,26.395078659057617,79.19978332519531,-79.41358947753906
2058561.0,-2.3994903564453125,-14.675676345825195,22.27625846862793,26.372711181640625,79.17166900634766,-79.41476440429688
2058565.0,-2.3863492012023926,-14.674559593200684,22.31800079345703,26.350357055664062,79.1435546875,-79.41596221923828
2058569.0,-2.373260736465454,-14.673415184020996,22.35972023010254,26.328014373779297,79.11547088623047,-79.41718292236328
2058573.0,-2.3602254390716553,-14.67224407196045,22.40142250061035,26.305681228637695,79.0873794555664,-79.41842651367188
2058577.0,-2.347243309020996,-14.671041488647461,22.443105697631836,26.283363342285156,79.05931854248047,-79.41970825195312
2058581.0,-2.3343148231506348,-14.669814109802246,22.48476791381836,26.261056900024414,79.03126525878906,-79.4209976196289
2058585.0,-2.321439504623413,-14.66855525970459,22.526409149169922,26.2387638092041,79.00321960449219,-79.42232513427734
2058589.0,-2.308617115020752,-14.667269706726074,22.56803321838379,26.216482162475586,78.97518157958984,-79.42367553710938
2058593.0,-2.2958483695983887,-14.665956497192383,22.609636306762695,26.194211959838867,78.94717407226562,-79.42504119873047
2058597.0,-2.2831320762634277,-14.6646146774292,22.651222229003906,26.171958923339844,78.91915893554688,-79.42643737792969
2058601.0,-2.2704670429229736,-14.663247108459473,22.692790985107422,26.14971160888672,78.89116668701172,-79.4278564453125
2058605.0,-2.257852077484131,-14.66185188293457,22.734342575073242,26.127473831176758,78.86317443847656,-79.4292984008789
2058609.0,-2.245286226272583,-14.660432815551758,22.77587890625,26.105247497558594,78.83519744873047,-79.43074798583984
2058613.0,-2.2327685356140137,-14.658989906311035,22.817401885986328,26.083030700683594,78.8072280883789,-79.43223571777344
2058617.0,-2.2202980518341064,-14.657523155212402,22.858909606933594,26.060823440551758,78.77926635742188,-79.43373107910156
2058621.0,-2.2078745365142822,-14.656035423278809,22.900407791137695,26.03862190246582,78.7513198852539,-79.43523406982422
2058625.0,-2.195498466491699,-14.654524803161621,22.941892623901367,26.01643180847168,78.72337341308594,-79.436767578125
2058629.0,-2.1831703186035156,-14.652993202209473,22.983366012573242,25.994247436523438,78.69544219970703,-79.43831634521484
2058633.0,-2.1708908081054688,-14.651440620422363,23.024829864501953,25.972070693969727,78.66751098632812,-79.43988037109375
2058637.0,-2.1586599349975586,-14.649866104125977,23.0662841796875,25.949899673461914,78.63958740234375,-79.44146728515625
2058641.0,-2.1464786529541016,-14.648269653320312,23.107725143432617,25.9277400970459,78.61167907714844,-79.44306945800781
2058645.0,-2.134347677230835,-14.64665412902832,23.14915657043457,25.90558624267578,78.58377838134766,-79.4447021484375
2058649.0,-2.12226939201355,-14.64501667022705,23.19057846069336,25.883438110351562,78.55589294433594,-79.44635772705078
2058653.0,-2.110245943069458,-14.643357276916504,23.23198699951172,25.861299514770508,78.52801513671875,-79.44803619384766
2058657.0,-2.0982794761657715,-14.64167308807373,23.27338218688965,25.839168548583984,78.50015258789062,-79.44974517822266
2058661.0,-2.0863726139068604,-14.639967918395996,23.314762115478516,25.817049026489258,78.47230529785156,-79.45148468017578
2058665.0,-2.0745277404785156,-14.638237953186035,23.356128692626953,25.794939041137695,78.44446563720703,-79.45326232910156
2058669.0,-2.0627458095550537,-14.636484146118164,23.397478103637695,25.77284049987793,78.41664123535156,-79.45506286621094
2058673.0,-2.0510270595550537,-14.634703636169434,23.438812255859375,25.750751495361328,78.38884735107422,-79.45690155029297
2058677.0,-2.039372682571411,-14.63290023803711,23.480127334594727,25.728670120239258,78.3610610961914,-79.45877838134766
2058681.0,-2.0277817249298096,-14.63106918334961,23.52142906188965,25.706605911254883,78.33328247070312,-79.460693359375
2058685.0,-2.0162546634674072,-14.629217147827148,23.562711715698242,25.68454933166504,78.30553436279297,-79.462646484375
2058689.0,-2.004791498184204,-14.627336502075195,23.60397720336914,25.662504196166992,78.27780151367188,-79.46463775634766
2058693.0,-1.9933913946151733,-14.625432968139648,23.645225524902344,25.640470504760742,78.25008392333984,-79.4666519165039
2058697.0,-1.9820536375045776,-14.623503684997559,23.686458587646484,25.618446350097656,78.22238159179688,-79.46870422363281
2058701.0,-1.9707770347595215,-14.621551513671875,23.727680206298828,25.596435546875,78.19468688964844,-79.47079467773438
2058705.0,-1.959559679031372,-14.619577407836914,23.768884658813477,25.574430465698242,78.1670150756836,-79.47290802001953
2058709.0,-1.9484009742736816,-14.61758041381836,23.810077667236328,25.55243492126465,78.13935089111328,-79.47505187988281
2058713.0,-1.9372988939285278,-14.615561485290527,23.85125732421875,25.53045082092285,78.11170196533203,-79.47722625732422
2058717.0,-1.9262529611587524,-14.61352252960205,23.892425537109375,25.50847053527832,78.08405303955078,-79.47941589355469
2058721.0,-1.9152634143829346,-14.61146354675293,23.93358612060547,25.486499786376953,78.05643463134766,-79.48163604736328
2058725.0,-1.9043303728103638,-14.609387397766113,23.974735260009766,25.46453285217285,78.02881622314453,-79.48387908935547
2058729.0,-1.8934545516967773,-14.607292175292969,24.015872955322266,25.442575454711914,78.00120544433594,-79.48615264892578
2058733.0,-1.8826366662979126,-14.605177879333496,24.057004928588867,25.420623779296875,77.9736099243164,-79.48844146728516
2058737.0,-1.8718769550323486,-14.603048324584961,24.098125457763672,25.3986759185791,77.94602966308594,-79.49076843261719
2058741.0,-1.86117684841156,-14.600900650024414,24.139240264892578,25.376737594604492,77.91845703125,-79.49311828613281
2058745.0,-1.8505377769470215,-14.598735809326172,24.18034553527832,25.354801177978516,77.89089965820312,-79.49549865722656
2058749.0,-1.8399618864059448,-14.596551895141602,24.2214412689209,25.332876205444336,77.86335754394531,-79.49791717529297
2058753.0,-1.8294525146484375,-14.594350814819336,24.26252555847168,25.310955047607422,77.83583068847656,-79.50037384033203
2058757.0,-1.819012999534607,-14.59212875366211,24.303600311279297,25.289043426513672,77.8083267211914,-79.50286865234375
2058761.0,-1.8086456060409546,-14.589888572692871,24.344661712646484,25.267141342163086,77.78083801269531,-79.50540161132812
2058765.0,-1.7983534336090088,-14.587626457214355,24.385711669921875,25.245243072509766,77.75337219238281,-79.50798797607422
2058769.0,-1.7881370782852173,-14.585343360900879,24.42675018310547,25.223356246948242,77.7259292602539,-79.51061248779297
2058773.0,-1.7779978513717651,-14.583039283752441,24.467771530151367,25.20147705078125,77.69850158691406,-79.51329040527344
2058777.0,-1.7679357528686523,-14.580716133117676,24.508779525756836,25.179611206054688,77.67110443115234,-79.51602172851562
2058781.0,-1.757951021194458,-14.578372955322266,24.549776077270508,25.157751083374023,77.64373016357422,-79.51880645751953
2058785.0,-1.748043417930603,-14.576009750366211,24.590757369995117,25.135902404785156,77.61637878417969,-79.5216293334961
2058789.0,-1.7382127046585083,-14.573624610900879,24.631725311279297,25.114063262939453,77.58905029296875,-79.52450561523438
2058793.0,-1.7284584045410156,-14.571218490600586,24.672679901123047,25.09222984313965,77.56173706054688,-79.52742767333984
2058797.0,-1.7187790870666504,-14.568792343139648,24.713621139526367,25.070409774780273,77.53445434570312,-79.5303955078125
2058801.0,-1.7091729640960693,-14.56634521484375,24.75455093383789,25.048593521118164,77.50719451904297,-79.53340911865234
2058805.0,-1.6996384859085083,-14.563880920410156,24.795469284057617,25.02678871154785,77.47994232177734,-79.53646087646484
2058809.0,-1.690173625946045,-14.56139850616455,24.836374282836914,25.004989624023438,77.45271301269531,-79.53955078125
2058813.0,-1.6807774305343628,-14.558897972106934,24.87727165222168,24.983198165893555,77.42549896240234,-79.54267883300781
2058817.0,-1.671449065208435,-14.55638313293457,24.91815757751465,24.96141242980957,77.39830780029297,-79.54583740234375
2058821.0,-1.6621884107589722,-14.553853988647461,24.95903778076172,24.939634323120117,77.3711166381836,-79.54902648925781
2058825.0,-1.6529964208602905,-14.551308631896973,24.999906539916992,24.91786003112793,77.34394836425781,-79.55226135253906
2058829.0,-1.643873691558838,-14.548748970031738,25.040771484375,24.896093368530273,77.31680297851562,-79.5555191040039
2058833.0,-1.6348210573196411,-14.546175956726074,25.081628799438477,24.87432861328125,77.28965759277344,-79.55880737304688
2058837.0,-1.6258392333984375,-14.543586730957031,25.12247657775879,24.852571487426758,77.26254272460938,-79.56214904785156
2058841.0,-1.6169296503067017,-14.540984153747559,25.163318634033203,24.8308162689209,77.23543548583984,-79.56552124023438
2058845.0,-1.6080950498580933,-14.538368225097656,25.204153060913086,24.809066772460938,77.20835876464844,-79.56893920898438
2058849.0,-1.5993385314941406,-14.535740852355957,25.24498176574707,24.787321090698242,77.1812973022461,-79.5724105834961
2058853.0,-1.5906637907028198,-14.533097267150879,25.28580093383789,24.765583038330078,77.15425872802734,-79.57592010498047
2058857.0,-1.5820748805999756,-14.530440330505371,25.32661247253418,24.74384880065918,77.12725830078125,-79.5794906616211
2058861.0,-1.5735752582550049,-14.5277681350708,25.367412567138672,24.72212028503418,77.10026550292969,-79.58311462402344
2058865.0,-1.5651679039001465,-14.525080680847168,25.408205032348633,24.700401306152344,77.07331848144531,-79.58680725097656
2058869.0,-1.5568541288375854,-14.522380828857422,25.448986053466797,24.678688049316406,77.04639434814453,-79.59056091308594
2058873.0,-1.5486350059509277,-14.51966381072998,25.489757537841797,24.656978607177734,77.01950073242188,-79.5943832397461
2058877.0,-1.5405107736587524,-14.51693344116211,25.530515670776367,24.635276794433594,76.99264526367188,-79.5982666015625
2058881.0,-1.532481074333191,-14.514189720153809,25.571264266967773,24.613582611083984,76.9658203125,-79.60221862792969
2058885.0,-1.5245462656021118,-14.511430740356445,25.612003326416016,24.591894149780273,76.93902587890625,-79.60624694824219
2058889.0,-1.5167057514190674,-14.508657455444336,25.652727127075195,24.570215225219727,76.91226959228516,-79.6103286743164
2058893.0,-1.5089586973190308,-14.505868911743164,25.693445205688477,24.548542022705078,76.88553619384766,-79.6144790649414
2058897.0,-1.5013030767440796,-14.50306510925293,25.734148025512695,24.526872634887695,76.85883331298828,-79.61868286132812
2058901.0,-1.4937368631362915,-14.500248908996582,25.774845123291016,24.50521469116211,76.83216094970703,-79.62295532226562
2058905.0,-1.486257553100586,-14.497416496276855,25.81553077697754,24.483558654785156,76.80551147460938,-79.62726593017578
2058909.0,-1.4788634777069092,-14.494573593139648,25.856204986572266,24.461912155151367,76.77888488769531,-79.63163757324219
2058913.0,-1.4715533256530762,-14.491718292236328,25.896873474121094,24.440265655517578,76.75228118896484,-79.63605499267578
2058917.0,-1.4643261432647705,-14.488851547241211,25.93753433227539,24.41862678527832,76.7257080078125,-79.64051818847656
2058921.0,-1.4571822881698608,-14.485976219177246,25.978187561035156,24.39699363708496,76.69915008544922,-79.64502716064453
2058925.0,-1.4501228332519531,-14.483088493347168,26.01883316040039,24.3753604888916,76.67261505126953,-79.64957427978516
2058929.0,-1.4431489706039429,-14.480192184448242,26.059471130371094,24.353734970092773,76.64610290527344,-79.6541748046875
2058933.0,-1.4362612962722778,-14.477288246154785,26.100107192993164,24.332111358642578,76.6196060180664,-79.6588134765625
2058937.0,-1.429461121559143,-14.474374771118164,26.14073371887207,24.31049156188965,76.5931396484375,-79.66350555419922
2058941.0,-1.4227511882781982,-14.471454620361328,26.18135643005371,24.28887176513672,76.56671142578125,-79.66826629638672
2058945.0,-1.4161345958709717,-14.468524932861328,26.221973419189453,24.267255783081055,76.54029846191406,-79.6730728149414
2058949.0,-1.4096158742904663,-14.46558952331543,26.262582778930664,24.24563980102539,76.513916015625,-79.67794799804688
2058953.0,-1.4031997919082642,-14.462647438049316,26.303186416625977,24.224029541015625,76.48757934570312,-79.68289184570312
2058957.0,-1.396891713142395,-14.459696769714355,26.34378433227539,24.20241928100586,76.4612808227539,-79.68790435791016
2058961.0,-1.3906956911087036,-14.456741333007812,26.384374618530273,24.18081283569336,76.43500518798828,-79.69300079345703
2058965.0,-1.3846150636672974,-14.453776359558105,26.424955368041992,24.159208297729492,76.4087905883789,-79.69818115234375
2058969.0,-1.378651738166809,-14.4508056640625,26.465532302856445,24.13760757446289,76.38260650634766,-79.70343780517578
2058973.0,-1.3728065490722656,-14.447827339172363,26.50609588623047,24.116010665893555,76.35647583007812,-79.70879364013672
2058977.0,-1.3670798540115356,-14.444844245910645,26.546653747558594,24.09441566467285,76.33039093017578,-79.7142333984375
2058981.0,-1.36147141456604,-14.441851615905762,26.587202072143555,24.072824478149414,76.3043441772461,-79.71975708007812
2058985.0,-1.3559812307357788,-14.438852310180664,26.62774085998535,24.05123519897461,76.27835083007812,-79.72537994384766
2058989.0,-1.3506088256835938,-14.435845375061035,26.66826820373535,24.029651641845703,76.25241088867188,-79.7310791015625
2058993.0,-1.3453525304794312,-14.432831764221191,26.708789825439453,24.008071899414062,76.22650146484375,-79.73686218261719
2058997.0,-1.3402098417282104,-14.429811477661133,26.749300003051758,23.986495971679688,76.20064544677734,-79.74272918701172
2059001.0,-1.3351776599884033,-14.426785469055176,26.789804458618164,23.964923858642578,76.17481994628906,-79.74866485595703
2059005.0,-1.3302537202835083,-14.423752784729004,26.830297470092773,23.943355560302734,76.1490249633789,-79.75466918945312
2059009.0,-1.3254356384277344,-14.420713424682617,26.870784759521484,23.92178726196289,76.12327575683594,-79.76074981689453
2059013.0,-1.3207217454910278,-14.417672157287598,26.9112606048584,23.900224685668945,76.09756469726562,-79.76689147949219
2059017.0,-1.31611168384552,-14.414624214172363,26.951732635498047,23.878660202026367,76.0718765258789,-79.77308654785156
2059021.0,-1.3116064071655273,-14.411574363708496,26.99219512939453,23.85710334777832,76.04621124267578,-79.77935028076172
2059025.0,-1.3072068691253662,-14.408523559570312,27.032649993896484,23.835546493530273,76.02059173583984,-79.7856674194336
2059029.0,-1.3029148578643799,-14.405468940734863,27.073101043701172,23.81399154663086,75.99500274658203,-79.79203796386719
2059033.0,-1.2987313270568848,-14.402413368225098,27.113544464111328,23.792434692382812,75.96943664550781,-79.7984848022461
2059037.0,-1.2946585416793823,-14.399356842041016,27.153982162475586,23.770875930786133,75.94391632080078,-79.80500030517578
2059041.0,-1.2906999588012695,-14.396300315856934,27.194416046142578,23.749319076538086,75.91844177246094,-79.81158447265625
2059045.0,-1.2868608236312866,-14.393243789672852,27.234844207763672,23.727758407592773,75.89300537109375,-79.81824493408203
2059049.0,-1.283146619796753,-14.390192985534668,27.275266647338867,23.70619773864746,75.86761474609375,-79.82499694824219
2059053.0,-1.2795640230178833,-14.387141227722168,27.3156795501709,23.684635162353516,75.84227752685547,-79.83184814453125
2059057.0,-1.2761197090148926,-14.384093284606934,27.356088638305664,23.663066864013672,75.81700897216797,-79.83878326416016
2059061.0,-1.2728188037872314,-14.381049156188965,27.39649200439453,23.64150047302246,75.79178619384766,-79.84583282470703
2059065.0,-1.2696653604507446,-14.378005981445312,27.4368839263916,23.619932174682617,75.7666244506836,-79.85298919677734
2059069.0,-1.2666616439819336,-14.374970436096191,27.47726821899414,23.59836196899414,75.74153900146484,-79.86026000976562
2059073.0,-1.2638084888458252,-14.371933937072754,27.51764488220215,23.5767879486084,75.71652221679688,-79.8676528930664
2059077.0,-1.261106252670288,-14.368905067443848,27.558012008666992,23.55521011352539,75.69156646728516,-79.87516021728516
2059081.0,-1.2585546970367432,-14.365877151489258,27.598369598388672,23.533634185791016,75.66667938232422,-79.88278198242188
2059085.0,-1.2561534643173218,-14.362854957580566,27.63871955871582,23.512052536010742,75.64186096191406,-79.8905258178711
2059089.0,-1.2539018392562866,-14.359835624694824,27.67905616760254,23.4904727935791,75.61710357666016,-79.89837646484375
2059093.0,-1.2517971992492676,-14.356820106506348,27.71938705444336,23.468889236450195,75.5924301147461,-79.90634155273438
2059097.0,-1.2498362064361572,-14.353806495666504,27.759706497192383,23.447307586669922,75.56780242919922,-79.9144058227539
2059101.0,-1.2480149269104004,-14.350797653198242,27.800016403198242,23.425724029541016,75.54322814941406,-79.92257690429688
2059105.0,-1.2463306188583374,-14.347792625427246,27.840316772460938,23.404138565063477,75.51871490478516,-79.93083190917969
2059109.0,-1.2447805404663086,-14.344792366027832,27.88060760498047,23.38255500793457,75.49425506591797,-79.93917846679688
2059113.0,-1.2433629035949707,-14.341797828674316,27.920886993408203,23.360971450805664,75.46984100341797,-79.94759368896484
2059117.0,-1.2420777082443237,-14.338807106018066,27.961156845092773,23.339385986328125,75.44547271728516,-79.95610046386719
2059121.0,-1.2409265041351318,-14.33582592010498,28.001419067382812,23.317800521850586,75.42115783691406,-79.96468353271484
2059125.0,-1.2399109601974487,-14.33285140991211,28.041671752929688,23.296213150024414,75.39688110351562,-79.97335052490234
2059129.0,-1.2390329837799072,-14.329885482788086,28.0819149017334,23.274621963500977,75.3726577758789,-79.98208618164062
2059133.0,-1.2382946014404297,-14.326930046081543,28.122150421142578,23.25302505493164,75.34848022460938,-79.99091339111328
2059137.0,-1.2376991510391235,-14.323984146118164,28.162376403808594,23.231422424316406,75.32437133789062,-79.99983978271484
2059141.0,-1.2372517585754395,-14.321049690246582,28.202594757080078,23.209814071655273,75.30032348632812,-80.00885772705078
2059145.0,-1.23695969581604,-14.318129539489746,28.2428035736084,23.188196182250977,75.2763442993164,-80.01799011230469
2059149.0,-1.236830711364746,-14.315221786499023,28.283002853393555,23.16657257080078,75.25244140625,-80.02723693847656
2059153.0,-1.2368741035461426,-14.312331199645996,28.323190689086914,23.14493751525879,75.2286148071289,-80.03660583496094
2059157.0,-1.2370977401733398,-14.309456825256348,28.36336898803711,23.123294830322266,75.20487976074219,-80.04610443115234
2059161.0,-1.2375086545944214,-14.306600570678711,28.403533935546875,23.101642608642578,75.18122863769531,-80.05574798583984
2059165.0,-1.2381112575531006,-14.30376148223877,28.443683624267578,23.07997703552246,75.15768432617188,-80.06553649902344
2059169.0,-1.2389085292816162,-14.300942420959473,28.48382568359375,23.058303833007812,75.13423156738281,-80.07546997070312
2059173.0,-1.239901065826416,-14.298141479492188,28.523948669433594,23.036619186401367,75.11088562011719,-80.08556365966797
2059177.0,-1.2410893440246582,-14.295358657836914,28.56406021118164,23.014923095703125,75.08765411376953,-80.09581756591797
2059181.0,-1.2424731254577637,-14.292594909667969,28.604156494140625,22.993221282958984,75.06451416015625,-80.1062240600586
2059185.0,-1.2440515756607056,-14.289849281311035,28.644235610961914,22.971506118774414,75.0414810180664,-80.11678314208984
2059189.0,-1.2458232641220093,-14.28712272644043,28.684301376342773,22.94978141784668,75.01854705810547,-80.12748718261719
2059193.0,-1.2477842569351196,-14.28441333770752,28.724349975585938,22.928049087524414,74.99571990966797,-80.13833618164062
2059197.0,-1.2499300241470337,-14.281722068786621,28.76438331604004,22.90631103515625,74.97296905517578,-80.14932250976562
2059201.0,-1.252255916595459,-14.279048919677734,28.804401397705078,22.884565353393555,74.9503173828125,-80.16043090820312
2059205.0,-1.2547577619552612,-14.276392936706543,28.844402313232422,22.86281394958496,74.92774200439453,-80.17166137695312
2059209.0,-1.2574326992034912,-14.27375602722168,28.88438606262207,22.8410587310791,74.90524291992188,-80.18299865722656
2059213.0,-1.2602791786193848,-14.271137237548828,28.924348831176758,22.819297790527344,74.88282012939453,-80.19445037841797
2059217.0,-1.2632973194122314,-14.268540382385254,28.964298248291016,22.797529220581055,74.86046600341797,-80.20600128173828
2059221.0,-1.2664896249771118,-14.265962600708008,29.004230499267578,22.775754928588867,74.83818817138672,-80.21765899658203
2059225.0,-1.269858717918396,-14.263408660888672,29.044143676757812,22.75397300720215,74.81597900390625,-80.22941589355469
2059229.0,-1.2734066247940063,-14.260878562927246,29.08403778076172,22.732179641723633,74.79385375976562,-80.24127960205078
2059233.0,-1.2771368026733398,-14.25837230682373,29.123920440673828,22.710376739501953,74.77181243896484,-80.25326538085938
2059237.0,-1.281054139137268,-14.255892753601074,29.16377830505371,22.688556671142578,74.7498550415039,-80.26537322998047
2059241.0,-1.28516685962677,-14.253440856933594,29.2036190032959,22.666723251342773,74.7280044555664,-80.2776107788086
2059245.0,-1.2894840240478516,-14.251018524169922,29.243438720703125,22.644868850708008,74.70626831054688,-80.28998565673828
2059249.0,-1.2940174341201782,-14.248628616333008,29.283233642578125,22.622997283935547,74.68464660644531,-80.30252838134766
2059253.0,-1.2987785339355469,-14.246273040771484,29.323009490966797,22.601104736328125,74.66315460205078,-80.31522369384766
2059257.0,-1.3037781715393066,-14.243953704833984,29.362754821777344,22.57918930053711,74.64179992675781,-80.3281021118164
2059261.0,-1.3090248107910156,-14.24167251586914,29.402475357055664,22.5572509765625,74.6205825805664,-80.34115600585938
2059265.0,-1.314523458480835,-14.23943042755127,29.442163467407227,22.53529167175293,74.59952545166016,-80.35440826416016
2059269.0,-1.320277452468872,-14.237227439880371,29.481822967529297,22.5133056640625,74.57862091064453,-80.36785888671875
2059273.0,-1.3262877464294434,-14.235061645507812,29.52145004272461,22.49129867553711,74.55789184570312,-80.38151550292969
2059277.0,-1.3325539827346802,-14.23293685913086,29.561044692993164,22.469266891479492,74.53731536865234,-80.39537048339844
2059281.0,-1.339076280593872,-14.230850219726562,29.600608825683594,22.44721221923828,74.51689910888672,-80.40943145751953
2059285.0,-1.3458532094955444,-14.228802680969238,29.640138626098633,22.425134658813477,74.49665069580078,-80.42369079589844
2059289.0,-1.3528817892074585,-14.226792335510254,29.67963409423828,22.403039932250977,74.4765625,-80.43812561035156
2059293.0,-1.3601562976837158,-14.224820137023926,29.71909523010254,22.380924224853516,74.45661926269531,-80.45276641845703
2059297.0,-1.3676705360412598,-14.222886085510254,29.75852394104004,22.358789443969727,74.43680572509766,-80.46755981445312
2059301.0,-1.3754180669784546,-14.220988273620605,29.797916412353516,22.336641311645508,74.41714477539062,-80.4825210571289
2059305.0,-1.3833938837051392,-14.219127655029297,29.8372745513916,22.31447982788086,74.39759826660156,-80.49764251708984
2059309.0,-1.3915939331054688,-14.217303276062012,29.87660026550293,22.29230308532715,74.378173828125,-80.51290130615234
2059313.0,-1.4000166654586792,-14.215518951416016,29.9158878326416,22.27011489868164,74.3588638305664,-80.52828979492188
2059317.0,-1.4086625576019287,-14.213772773742676,29.955137252807617,22.247913360595703,74.33966064453125,-80.5438232421875
2059321.0,-1.4175351858139038,-14.212069511413574,29.994348526000977,22.225696563720703,74.3205795288086,-80.55947875976562
2059325.0,-1.4266374111175537,-14.210407257080078,30.033523559570312,22.203460693359375,74.3016128540039,-80.57527160644531
2059329.0,-1.4359722137451172,-14.208789825439453,30.072656631469727,22.18120765686035,74.28276824951172,-80.59120178222656
2059333.0,-1.445543646812439,-14.207218170166016,30.11174964904785,22.158926010131836,74.26406860351562,-80.60728454589844
2059337.0,-1.455359935760498,-14.20569133758545,30.150798797607422,22.136615753173828,74.2455062866211,-80.62351989746094
2059341.0,-1.465431571006775,-14.204216003417969,30.189802169799805,22.114276885986328,74.22711181640625,-80.63993072509766
2059345.0,-1.4757720232009888,-14.20279312133789,30.228750228881836,22.091899871826172,74.2088851928711,-80.65652465820312
2059349.0,-1.4863954782485962,-14.201425552368164,30.267648696899414,22.069486618041992,74.19085693359375,-80.67330932617188
2059353.0,-1.4973175525665283,-14.200115203857422,30.306486129760742,22.04703712463379,74.17303466796875,-80.69031524658203
2059357.0,-1.508551001548767,-14.198868751525879,30.345260620117188,22.02454376220703,74.1554183959961,-80.70753479003906
2059361.0,-1.5201057195663452,-14.197684288024902,30.383970260620117,22.00200653076172,74.13804626464844,-80.72499084472656
2059365.0,-1.5319879055023193,-14.196565628051758,30.422609329223633,21.97942543029785,74.12090301513672,-80.74269104003906
2059369.0,-1.5442004203796387,-14.195510864257812,30.4611759185791,21.956802368164062,74.10401916503906,-80.7606430053711
2059373.0,-1.5567439794540405,-14.194519996643066,30.499670028686523,21.934133529663086,74.08738708496094,-80.77883911132812
2059377.0,-1.5696182250976562,-14.193594932556152,30.538089752197266,21.911418914794922,74.0710220336914,-80.79730224609375
2059381.0,-1.582822322845459,-14.192731857299805,30.576431274414062,21.88866424560547,74.0549087524414,-80.81600189208984
2059385.0,-1.5963537693023682,-14.191933631896973,30.61469841003418,21.865867614746094,74.0390396118164,-80.83495330810547
2059389.0,-1.6102073192596436,-14.191198348999023,30.652889251708984,21.843034744262695,74.02342224121094,-80.85413360595703
2059393.0,-1.6243749856948853,-14.190526962280273,30.691001892089844,21.820165634155273,74.00802612304688,-80.87353515625
2059397.0,-1.638847827911377,-14.189915657043457,30.72903823852539,21.797266006469727,73.99285125732422,-80.89315795898438
2059401.0,-1.6536166667938232,-14.18936538696289,30.766996383666992,21.774337768554688,73.9778823852539,-80.9129638671875
2059405.0,-1.668674111366272,-14.188876152038574,30.80488395690918,21.751384735107422,73.9631118774414,-80.9329605102539
2059409.0,-1.6840146780014038,-14.188448905944824,30.842697143554688,21.728404998779297,73.94851684570312,-80.95313262939453
2059413.0,-1.6996350288391113,-14.188082695007324,30.880430221557617,21.705402374267578,73.9341049194336,-80.97346496582031
2059417.0,-1.715536117553711,-14.187780380249023,30.9180908203125,21.682373046875,73.91987609863281,-80.99395751953125
2059421.0,-1.7317204475402832,-14.187542915344238,30.95566749572754,21.65931510925293,73.90580749511719,-81.01460266113281
2059425.0,-1.7481906414031982,-14.187372207641602,30.993165969848633,21.636228561401367,73.89192962646484,-81.03541564941406
2059429.0,-1.7649497985839844,-14.18726921081543,31.030574798583984,21.613100051879883,73.87824249267578,-81.05638885498047
2059433.0,-1.7820030450820923,-14.187235832214355,31.067890167236328,21.589929580688477,73.8647689819336,-81.0775375366211
2059437.0,-1.7993601560592651,-14.187272071838379,31.105112075805664,21.566709518432617,73.85151672363281,-81.098876953125
2059441.0,-1.817034363746643,-14.187382698059082,31.142234802246094,21.543437957763672,73.83851623535156,-81.12039947509766
2059445.0,-1.8350411653518677,-14.187569618225098,31.17923927307129,21.520103454589844,73.82579803466797,-81.14215087890625
2059449.0,-1.8533978462219238,-14.187837600708008,31.216127395629883,21.4967098236084,73.8133544921875,-81.16413116455078
2059453.0,-1.8721213340759277,-14.188189506530762,31.252885818481445,21.473249435424805,73.80123901367188,-81.18634796142578
2059457.0,-1.891225814819336,-14.188629150390625,31.28951072692871,21.44972038269043,73.7894515991211,-81.20881652832031
2059461.0,-1.9107215404510498,-14.189159393310547,31.325990676879883,21.42612075805664,73.77801513671875,-81.2315673828125
2059465.0,-1.9306142330169678,-14.189777374267578,31.362316131591797,21.402446746826172,73.76695251464844,-81.25457763671875
2059469.0,-1.9509062767028809,-14.190485000610352,31.398496627807617,21.37870216369629,73.75625610351562,-81.27787017822266
2059473.0,-1.9715970754623413,-14.191280364990234,31.43451499938965,21.354881286621094,73.74595642089844,-81.30146026611328
2059477.0,-1.9926856756210327,-14.192164421081543,31.47037696838379,21.330991744995117,73.73603820800781,-81.3253173828125
2059481.0,-2.0141701698303223,-14.193136215209961,31.506074905395508,21.30703353881836,73.72650146484375,-81.34945678710938
2059485.0,-2.036045789718628,-14.194195747375488,31.54161834716797,21.283008575439453,73.71733856201172,-81.37386322021484
2059489.0,-2.0583043098449707,-14.195343971252441,31.577003479003906,21.25892448425293,73.70852661132812,-81.39852905273438
2059493.0,-2.080934524536133,-14.196576118469238,31.61223030090332,21.234786987304688,73.70005798339844,-81.42342376708984
2059497.0,-2.1039233207702637,-14.197895050048828,31.647306442260742,21.21059799194336,73.69190216064453,-81.44855499267578
2059501.0,-2.127258062362671,-14.199296951293945,31.682228088378906,21.186365127563477,73.68405151367188,-81.47389221191406
2059505.0,-2.1509270668029785,-14.20078182220459,31.717012405395508,21.162090301513672,73.67648315429688,-81.49942016601562
2059509.0,-2.1749210357666016,-14.202346801757812,31.75164794921875,21.137775421142578,73.66918182373047,-81.525146484375
2059513.0,-2.1992335319519043,-14.203996658325195,31.786136627197266,21.11342430114746,73.66214752197266,-81.55103302001953
2059517.0,-2.223863363265991,-14.205730438232422,31.820478439331055,21.089033126831055,73.65535736083984,-81.57708740234375
2059521.0,-2.248809576034546,-14.207550048828125,31.854677200317383,21.06459617614746,73.64881134033203,-81.60330200195312
2059525.0,-2.2740724086761475,-14.209455490112305,31.88871955871582,21.040111541748047,73.64252471923828,-81.62967681884766
2059529.0,-2.2996532917022705,-14.211446762084961,31.92259979248047,21.015567779541016,73.63651275634766,-81.65621948242188
2059533.0,-2.3255558013916016,-14.21352481842041,31.956310272216797,20.990964889526367,73.63079833984375,-81.68292999267578
2059537.0,-2.3517894744873047,-14.215688705444336,31.98984718322754,20.966289520263672,73.62539672851562,-81.70982360839844
2059541.0,-2.3783652782440186,-14.217942237854004,32.023193359375,20.9415340423584,73.6203384399414,-81.73689270019531
2059545.0,-2.4052982330322266,-14.220287322998047,32.05633544921875,20.916696548461914,73.61564636230469,-81.7641830444336
2059549.0,-2.4326038360595703,-14.222724914550781,32.089256286621094,20.89177131652832,73.61134338378906,-81.79167938232422
2059553.0,-2.460296869277954,-14.225259780883789,32.121952056884766,20.86675262451172,73.60748291015625,-81.81940460205078
2059557.0,-2.488389015197754,-14.227892875671387,32.154396057128906,20.841638565063477,73.60405731201172,-81.84736633300781
2059561.0,-2.5168886184692383,-14.230624198913574,32.18659591674805,20.816421508789062,73.60110473632812,-81.87557220458984
2059565.0,-2.5457990169525146,-14.233455657958984,32.2185173034668,20.791107177734375,73.59864807128906,-81.9040298461914
2059569.0,-2.575120687484741,-14.236381530761719,32.25017547607422,20.76569175720215,73.59669494628906,-81.93274688720703
2059573.0,-2.6048521995544434,-14.23940372467041,32.28156280517578,20.740175247192383,73.59524536132812,-81.96170043945312
2059577.0,-2.634991407394409,-14.24251937866211,32.31267166137695,20.714561462402344,73.59429931640625,-81.99092102050781
2059581.0,-2.665534019470215,-14.245731353759766,32.343505859375,20.688854217529297,73.59385681152344,-82.02037811279297
2059585.0,-2.6964733600616455,-14.249039649963379,32.37406921386719,20.663063049316406,73.59388732910156,-82.05006408691406
2059589.0,-2.727797746658325,-14.25244426727295,32.40435791015625,20.637191772460938,73.59437561035156,-82.0799789428711
2059593.0,-2.759492874145508,-14.255941390991211,32.43439483642578,20.611248016357422,73.59529876708984,-82.1100845336914
2059597.0,-2.7915427684783936,-14.259529113769531,32.46417236328125,20.585237503051758,73.59662628173828,-82.14038848876953
2059601.0,-2.82392954826355,-14.26320743560791,32.49370574951172,20.559167861938477,73.59834289550781,-82.17086791992188
2059605.0,-2.856637954711914,-14.26697063446045,32.523006439208984,20.533042907714844,73.60041046142578,-82.20150756835938
2059609.0,-2.889652967453003,-14.270820617675781,32.552085876464844,20.50687026977539,73.60281372070312,-82.23229217529297
2059613.0,-2.9229650497436523,-14.27475357055664,32.5809440612793,20.48064422607422,73.60552978515625,-82.26321411132812
2059617.0,-2.9565672874450684,-14.278772354125977,32.60957717895508,20.454368591308594,73.60855102539062,-82.29426574707031
2059621.0,-2.99045467376709,-14.28287410736084,32.63799285888672,20.428043365478516,73.61186981201172,-82.325439453125
2059625.0,-3.024622678756714,-14.28706169128418,32.66618347167969,20.401657104492188,73.61547088623047,-82.35673522949219
2059629.0,-3.0590691566467285,-14.29133129119873,32.69413757324219,20.375205993652344,73.61939239501953,-82.38813781738281
2059633.0,-3.0937929153442383,-14.29568099975586,32.721858978271484,20.34868621826172,73.6236343383789,-82.41967010498047
2059637.0,-3.1287972927093506,-14.300108909606934,32.749324798583984,20.322086334228516,73.62821197509766,-82.45132446289062
2059641.0,-3.164088010787964,-14.304612159729004,32.77653121948242,20.295400619506836,73.63316345214844,-82.48310852050781
2059645.0,-3.1996726989746094,-14.309192657470703,32.80345916748047,20.268625259399414,73.63850402832031,-82.5150146484375
2059649.0,-3.2355611324310303,-14.313848495483398,32.83008575439453,20.24175453186035,73.64427185058594,-82.54707336425781
2059653.0,-3.271760940551758,-14.318577766418457,32.85641098022461,20.21478271484375,73.65046691894531,-82.57927703857422
2059657.0,-3.308279275894165,-14.323384284973145,32.88240432739258,20.187705993652344,73.65715026855469,-82.61162567138672
2059661.0,-3.3451192378997803,-14.328261375427246,32.908058166503906,20.160524368286133,73.66432189941406,-82.64413452148438
2059665.0,-3.3822824954986572,-14.333211898803711,32.93336486816406,20.13323402404785,73.67198944091797,-82.67678833007812
2059669.0,-3.419766664505005,-14.33823013305664,32.95832443237305,20.1058349609375,73.68019104003906,-82.70960998535156
2059673.0,-3.4575698375701904,-14.343318939208984,32.98292541503906,20.078330993652344,73.68888854980469,-82.74256896972656
2059677.0,-3.495689630508423,-14.348472595214844,33.007171630859375,20.05072784423828,73.6981201171875,-82.77568817138672
2059681.0,-3.534121036529541,-14.353697776794434,33.031070709228516,20.023025512695312,73.70783996582031,-82.80895233154297
2059685.0,-3.5728557109832764,-14.358992576599121,33.05461502075195,19.9952335357666,73.71803283691406,-82.84234619140625
2059689.0,-3.6118838787078857,-14.364357948303223,33.07782745361328,19.967357635498047,73.72869110107422,-82.87586975097656
2059693.0,-3.651191234588623,-14.369789123535156,33.10071563720703,19.939407348632812,73.7397689819336,-82.90950012207031
2059697.0,-3.6907615661621094,-14.375288963317871,33.123294830322266,19.91139030456543,73.75125122070312,-82.94324493408203
2059701.0,-3.7305784225463867,-14.380852699279785,33.14558410644531,19.88330841064453,73.76310729980469,-82.97708129882812
2059705.0,-3.7706267833709717,-14.386473655700684,33.16759490966797,19.85517120361328,73.77530670166016,-83.01100158691406
2059709.0,-3.8108925819396973,-14.39215087890625,33.18933868408203,19.826980590820312,73.78783416748047,-83.04499816894531
2059713.0,-3.851365327835083,-14.3978853225708,33.21083068847656,19.79874038696289,73.80064392089844,-83.0790786743164
2059717.0,-3.8920364379882812,-14.403675079345703,33.23208236694336,19.77045249938965,73.81373596191406,-83.11320495605469
2059721.0,-3.9328994750976562,-14.409520149230957,33.253089904785156,19.742115020751953,73.82708740234375,-83.14740753173828
2059725.0,-3.973947048187256,-14.415420532226562,33.27385711669922,19.713727951049805,73.84068298339844,-83.18164825439453
2059729.0,-4.015176296234131,-14.421369552612305,33.29438400268555,19.68528175354004,73.85453796386719,-83.21595764160156
2059733.0,-4.056581497192383,-14.4273681640625,33.31466293334961,19.65677833557129,73.86864471435547,-83.25030517578125
2059737.0,-4.098160743713379,-14.433408737182617,33.33469009399414,19.628206253051758,73.88302612304688,-83.28472900390625
2059741.0,-4.139915466308594,-14.439488410949707,33.35445785522461,19.599563598632812,73.8976821899414,-83.31918334960938
2059745.0,-4.181847095489502,-14.445600509643555,33.37394714355469,19.57084846496582,73.91264343261719,-83.35371398925781
2059749.0,-4.223957538604736,-14.451743125915527,33.393150329589844,19.542055130004883,73.92791748046875,-83.3882827758789
2059753.0,-4.266251087188721,-14.45791244506836,33.41205596923828,19.51317596435547,73.94354248046875,-83.42292022705078
2059757.0,-4.3087286949157715,-14.464107513427734,33.43064880371094,19.48421287536621,73.95951843261719,-83.4576187133789
2059761.0,-4.35139274597168,-14.470324516296387,33.44892120361328,19.45516014099121,73.97586059570312,-83.49238586425781
2059765.0,-4.394241809844971,-14.4765625,33.46686553955078,19.4260196685791,73.99258422851562,-83.5271987915039
2059769.0,-4.437274932861328,-14.482818603515625,33.48447799682617,19.396785736083984,74.00968170166016,-83.56207275390625
2059773.0,-4.480490207672119,-14.489091873168945,33.50176239013672,19.367469787597656,74.02717590332031,-83.59700775146484
2059777.0,-4.523885250091553,-14.495386123657227,33.518714904785156,19.33806800842285,74.04503631591797,-83.63199615478516
2059781.0,-4.567457675933838,-14.501700401306152,33.53533935546875,19.308584213256836,74.06326293945312,-83.66703033447266
2059785.0,-4.61120080947876,-14.508035659790039,33.5516471862793,19.279027938842773,74.08184814453125,-83.70211791992188
2059789.0,-4.655108451843262,-14.514396667480469,33.56764602661133,19.249401092529297,74.10075378417969,-83.73723602294922
2059793.0,-4.699172019958496,-14.520777702331543,33.58335876464844,19.219711303710938,74.11997985839844,-83.77240753173828
2059797.0,-4.743381023406982,-14.527182579040527,33.59878921508789,19.18996238708496,74.13948822021484,-83.80760955810547
2059801.0,-4.787726402282715,-14.533607482910156,33.61396408081055,19.1601619720459,74.15926361083984,-83.84283447265625
2059805.0,-4.8321990966796875,-14.540050506591797,33.62889099121094,19.130311965942383,74.17928314208984,-83.87809753417969
2059809.0,-4.876791000366211,-14.54651165008545,33.643585205078125,19.10041618347168,74.19953918457031,-83.91337585449219
2059813.0,-4.92149543762207,-14.552993774414062,33.65806579589844,19.070478439331055,74.22000122070312,-83.94867706298828
2059817.0,-4.96630859375,-14.559491157531738,33.67232894897461,19.04050064086914,74.24064636230469,-83.98400115966797
2059821.0,-5.011225700378418,-14.566010475158691,33.68638610839844,19.010480880737305,74.261474609375,-84.01934814453125
2059825.0,-5.056243896484375,-14.57254695892334,33.70023727416992,18.980417251586914,74.282470703125,-84.05470275878906
2059829.0,-5.101359844207764,-14.579100608825684,33.71388244628906,18.950313568115234,74.30364990234375,-84.090087890625
2059833.0,-5.146570205688477,-14.585663795471191,33.72732162475586,18.920162200927734,74.32498931884766,-84.12548065185547
2059837.0,-5.191873073577881,-14.592236518859863,33.74054718017578,18.88995933532715,74.34651184082031,-84.16089630126953
2059841.0,-5.237268924713135,-14.598812103271484,33.7535514831543,18.85970115661621,74.36821746826172,-84.19632720947266
2059845.0,-5.28275728225708,-14.605384826660156,33.76632308959961,18.829387664794922,74.39012908935547,-84.23178100585938
2059849.0,-5.328339576721191,-14.61195182800293,33.77885818481445,18.799013137817383,74.4122543334961,-84.26725006103516
2059853.0,-5.374015808105469,-14.618509292602539,33.79114532470703,18.768573760986328,74.43460083007812,-84.302734375
2059857.0,-5.419787406921387,-14.625054359436035,33.80316925048828,18.738069534301758,74.4571762084961,-84.33824157714844
2059861.0,-5.465655326843262,-14.631585121154785,33.8149299621582,18.707496643066406,74.4800033569336,-84.3737564086914
2059865.0,-5.511618137359619,-14.638103485107422,33.826416015625,18.676855087280273,74.50306701660156,-84.40929412841797
2059869.0,-5.557674407958984,-14.644601821899414,33.8376350402832,18.64614486694336,74.52639770507812,-84.4448471069336
2059873.0,-5.603823661804199,-14.65108585357666,33.84857940673828,18.615365982055664,74.54995727539062,-84.48041534423828
2059877.0,-5.650064945220947,-14.657551765441895,33.8592529296875,18.584524154663086,74.57376861572266,-84.51599884033203
2059881.0,-5.6963958740234375,-14.664006233215332,33.869667053222656,18.553619384765625,74.59780883789062,-84.55158996582031
2059885.0,-5.742813587188721,-14.67044734954834,33.87982177734375,18.522659301757812,74.62207794189453,-84.58718872070312
2059889.0,-5.789315223693848,-14.6768798828125,33.88972854614258,18.491641998291016,74.64656066894531,-84.62279510498047
2059893.0,-5.835894584655762,-14.683300018310547,33.89939880371094,18.46057891845703,74.67122650146484,-84.65841674804688
2059897.0,-5.8825483322143555,-14.689711570739746,33.90885543823242,18.429466247558594,74.69609069824219,-84.69403839111328
2059901.0,-5.929269313812256,-14.696115493774414,33.91809844970703,18.398311614990234,74.72112274169922,-84.72966766357422
2059905.0,-5.976054668426514,-14.702509880065918,33.92715072631836,18.36712074279785,74.7463150024414,-84.76528930664062
2059909.0,-6.022899150848389,-14.708897590637207,33.93601608276367,18.33588981628418,74.77164459228516,-84.8009262084961
2059913.0,-6.069801330566406,-14.715277671813965,33.9447135925293,18.30462646484375,74.79711151123047,-84.83656311035156
2059917.0,-6.116757869720459,-14.721650123596191,33.95323181152344,18.273332595825195,74.82269287109375,-84.87220764160156
2059921.0,-6.163768291473389,-14.728017807006836,33.96159362792969,18.24200439453125,74.84838104248047,-84.90785217285156
2059925.0,-6.210829257965088,-14.73437786102295,33.96978759765625,18.210643768310547,74.87418365478516,-84.9435043334961
2059929.0,-6.257939338684082,-14.740730285644531,33.977813720703125,18.179248809814453,74.90009307861328,-84.97915649414062
2059933.0,-6.305097579956055,-14.747068405151367,33.985679626464844,18.147817611694336,74.92610168457031,-85.01481628417969
2059937.0,-6.352302074432373,-14.75339126586914,33.993370056152344,18.11634635925293,74.95223236083984,-85.05049133300781
2059941.0,-6.3995537757873535,-14.75969409942627,34.00088119506836,18.0848331451416,74.97847747802734,-85.08616638183594
2059945.0,-6.446852684020996,-14.765973091125488,34.008209228515625,18.053274154663086,75.00484466552734,-85.1218490600586
2059949.0,-6.494197845458984,-14.772224426269531,34.015342712402344,18.021671295166016,75.03134155273438,-85.15753173828125
2059953.0,-6.541589260101318,-14.778443336486816,34.022274017333984,17.990018844604492,75.05799102783203,-85.1932144165039
2059957.0,-6.589028835296631,-14.784629821777344,34.02899169921875,17.95831298828125,75.08477783203125,-85.22891998291016
2059961.0,-6.636515140533447,-14.79078197479248,34.03550338745117,17.92655372619629,75.11170959472656,-85.26461029052734
2059965.0,-6.684046745300293,-14.796895980834961,34.04179000854492,17.894744873046875,75.1387939453125,-85.3003158569336
2059969.0,-6.731624603271484,-14.802973747253418,34.0478630065918,17.86288070678711,75.16603088378906,-85.33602142333984
2059973.0,-6.779247283935547,-14.809015274047852,34.053714752197266,17.830965042114258,75.19342041015625,-85.3717269897461
2059977.0,-6.826914310455322,-14.815020561218262,34.05935287475586,17.798999786376953,75.22096252441406,-85.40744018554688
2059981.0,-6.874625205993652,-14.820991516113281,34.06478500366211,17.766986846923828,75.24864196777344,-85.44314575195312
2059985.0,-6.922377586364746,-14.826930046081543,34.07000732421875,17.734926223754883,75.2764663696289,-85.4788589477539
2059989.0,-6.970170021057129,-14.832839965820312,34.07503890991211,17.70282554626465,75.30440521240234,-85.51457214355469
2059993.0,-7.01800012588501,-14.83872127532959,34.07988739013672,17.67068862915039,75.33247375488281,-85.55027770996094
2059997.0,-7.065865993499756,-14.844575881958008,34.08456802368164,17.638511657714844,75.36064147949219,-85.58598327636719
2060001.0,-7.113763809204102,-14.85040283203125,34.089073181152344,17.606304168701172,75.388916015625,-85.62169647216797
2060005.0,-7.1616926193237305,-14.856205940246582,34.09343719482422,17.574064254760742,75.41728973388672,-85.65740203857422
2060009.0,-7.20965051651001,-14.86198616027832,34.097652435302734,17.54179573059082,75.44574737548828,-85.69310760498047
2060013.0,-7.257636070251465,-14.867742538452148,34.10173034667969,17.509502410888672,75.47428131103516,-85.72881317138672
2060017.0,-7.3056488037109375,-14.873477935791016,34.105674743652344,17.477182388305664,75.50288391113281,-85.76451873779297
2060021.0,-7.353686332702637,-14.879191398620605,34.10948944091797,17.444835662841797,75.53155517578125,-85.80022430419922
2060025.0,-7.4017486572265625,-14.88488483428955,34.1131706237793,17.412464141845703,75.56028747558594,-85.8359375
2060029.0,-7.449835300445557,-14.89055061340332,34.11671829223633,17.380064010620117,75.58907318115234,-85.87164306640625
2060033.0,-7.497944355010986,-14.896190643310547,34.120140075683594,17.34763526916504,75.61793518066406,-85.90735626220703
2060037.0,-7.546074867248535,-14.901799201965332,34.123416900634766,17.315176010131836,75.6468505859375,-85.94307708740234
2060041.0,-7.5942277908325195,-14.907374382019043,34.126548767089844,17.28268051147461,75.67584228515625,-85.97879791259766
2060045.0,-7.6424031257629395,-14.912912368774414,34.12953186035156,17.250152587890625,75.70490264892578,-86.01453399658203
2060049.0,-7.69059944152832,-14.918408393859863,34.132347106933594,17.21758460998535,75.73403930664062,-86.05026245117188
2060053.0,-7.73881721496582,-14.923861503601074,34.135009765625,17.184980392456055,75.76325988769531,-86.08599090576172
2060057.0,-7.787055969238281,-14.929268836975098,34.13749313354492,17.152332305908203,75.79255676269531,-86.12173461914062
2060061.0,-7.8353166580200195,-14.934627532958984,34.13980484008789,17.11964225769043,75.82194519042969,-86.15747833251953
2060065.0,-7.883598327636719,-14.939937591552734,34.141944885253906,17.086912155151367,75.85142517089844,-86.1932144165039
2060069.0,-7.931898593902588,-14.945199012756348,34.14390563964844,17.05413818359375,75.8809814453125,-86.22895812988281
2060073.0,-7.980219841003418,-14.950409889221191,34.14568328857422,17.02132225036621,75.91063690185547,-86.26470947265625
2060077.0,-8.028558731079102,-14.95557689666748,34.147300720214844,16.988468170166016,75.94036865234375,-86.30046081542969
2060081.0,-8.07691764831543,-14.96069622039795,34.148738861083984,16.95557403564453,75.97017669677734,-86.3362045288086
2060085.0,-8.125293731689453,-14.965774536132812,34.150020599365234,16.922645568847656,76.00006866455078,-86.37195587158203
2060089.0,-8.173686981201172,-14.970809936523438,34.151145935058594,16.88968276977539,76.030029296875,-86.40770721435547
2060093.0,-8.222095489501953,-14.97580623626709,34.15212631225586,16.856691360473633,76.06005859375,-86.44346618652344
2060097.0,-8.270519256591797,-14.980765342712402,34.1529655456543,16.82366943359375,76.09014892578125,-86.47920227050781
2060101.0,-8.318957328796387,-14.985688209533691,34.153682708740234,16.79062271118164,76.12029266357422,-86.51496124267578
2060105.0,-8.367408752441406,-14.99057674407959,34.15427017211914,16.757549285888672,76.1504898071289,-86.55070495605469
2060109.0,-8.415874481201172,-14.995430946350098,34.154747009277344,16.724454879760742,76.18073272705078,-86.58645629882812
2060113.0,-8.464349746704102,-15.000256538391113,34.155113220214844,16.69133758544922,76.21102905273438,-86.62220001220703
2060117.0,-8.512838363647461,-15.005049705505371,34.15536880493164,16.658201217651367,76.24134826660156,-86.657958984375
2060121.0,-8.561335563659668,-15.009810447692871,34.155521392822266,16.62504005432129,76.2717056274414,-86.69371032714844
2060125.0,-8.609843254089355,-15.014540672302246,34.15557098388672,16.591861724853516,76.30208587646484,-86.72946166992188
2060129.0,-8.658360481262207,-15.01923656463623,34.15550994873047,16.558658599853516,76.33250427246094,-86.76522827148438
2060133.0,-8.706884384155273,-15.023896217346191,34.15533447265625,16.525432586669922,76.36295318603516,-86.80098724365234
2060137.0,-8.75541877746582,-15.028514862060547,34.155052185058594,16.49217987060547,76.39344024658203,-86.83676147460938
2060141.0,-8.803959846496582,-15.03309154510498,34.154640197753906,16.458900451660156,76.42395782470703,-86.8725357055664
2060145.0,-8.852510452270508,-15.03762149810791,34.15410614013672,16.42559051513672,76.45450592041016,-86.90830993652344
2060149.0,-8.901068687438965,-15.04210376739502,34.153438568115234,16.392250061035156,76.48509216308594,-86.94409942626953
2060153.0,-8.949633598327637,-15.04653263092041,34.15263748168945,16.358875274658203,76.5157241821289,-86.97988891601562
2060157.0,-8.99820613861084,-15.050909042358398,34.151695251464844,16.325468063354492,76.54639434814453,-87.01568603515625
2060161.0,-9.046784400939941,-15.055229187011719,34.150604248046875,16.29202651977539,76.57710266113281,-87.0514907836914
2060165.0,-9.095369338989258,-15.059494972229004,34.14937210083008,16.2585506439209,76.60785675048828,-87.0873031616211
2060169.0,-9.14395809173584,-15.063702583312988,34.14798355102539,16.225038528442383,76.63865661621094,-87.12311553955078
2060173.0,-9.19255256652832,-15.067854881286621,34.146461486816406,16.191492080688477,76.66949462890625,-87.15892791748047
2060177.0,-9.2411527633667,-15.071952819824219,34.14479446411133,16.157913208007812,76.70037841796875,-87.19475555419922
2060181.0,-9.289758682250977,-15.075998306274414,34.14299011230469,16.124303817749023,76.73129272460938,-87.23058319091797
2060185.0,-9.338367462158203,-15.079992294311523,34.141048431396484,16.09066390991211,76.76225280761719,-87.26641082763672
2060189.0,-9.386983871459961,-15.083940505981445,34.13898849487305,16.056997299194336,76.7932357788086,-87.30224609375
2060193.0,-9.435603141784668,-15.087843894958496,34.136802673339844,16.023305892944336,76.82426452636719,-87.33807373046875
2060197.0,-9.484227180480957,-15.091702461242676,34.1345100402832,15.989590644836426,76.85530090332031,-87.37390899658203
2060201.0,-9.532855033874512,-15.095519065856934,34.132110595703125,15.955854415893555,76.88638305664062,-87.40975189208984
2060205.0,-9.581483840942383,-15.099297523498535,34.12961196899414,15.922098159790039,76.91748046875,-87.44559478759766
2060209.0,-9.630114555358887,-15.103035926818848,34.12702178955078,15.888322830200195,76.94860076904297,-87.48143768310547
2060213.0,-9.67874813079834,-15.106738090515137,34.12434005737305,15.854530334472656,76.97972106933594,-87.51728820800781
2060217.0,-9.72738265991211,-15.110400199890137,34.12156677246094,15.820719718933105,77.01087188720703,-87.55313110351562
2060221.0,-9.776018142700195,-15.11402702331543,34.11870574951172,15.786892890930176,77.04203796386719,-87.58897399902344
2060225.0,-9.824657440185547,-15.117612838745117,34.115760803222656,15.753046035766602,77.07320404052734,-87.62483978271484
2060229.0,-9.873297691345215,-15.121161460876465,34.11272048950195,15.719182014465332,77.10437774658203,-87.66069793701172
2060233.0,-9.9219388961792,-15.124665260314941,34.10959243774414,15.685296058654785,77.13555908203125,-87.69656372070312
2060237.0,-9.9705810546875,-15.128124237060547,34.10636520385742,15.651389122009277,77.16676330566406,-87.7324447631836
2060241.0,-10.0192232131958,-15.131532669067383,34.10303497314453,15.61745834350586,77.19795989990234,-87.76831817626953
2060245.0,-10.067864418029785,-15.134891510009766,34.0995979309082,15.583501815795898,77.22917175292969,-87.80421447753906
2060249.0,-10.11650276184082,-15.13819408416748,34.09605026245117,15.549518585205078,77.26039123535156,-87.84010314941406
2060253.0,-10.165140151977539,-15.14144229888916,34.092384338378906,15.515507698059082,77.2916259765625,-87.87602233886719
2060257.0,-10.213775634765625,-15.144628524780273,34.08859634399414,15.481467247009277,77.32286834716797,-87.91193389892578
2060261.0,-10.262407302856445,-15.147756576538086,34.08469009399414,15.44739818572998,77.35411834716797,-87.94786071777344
2060265.0,-10.311037063598633,-15.150823593139648,34.080657958984375,15.413298606872559,77.38538360595703,-87.9837875366211
2060269.0,-10.359663963317871,-15.153830528259277,34.07650375366211,15.379170417785645,77.41665649414062,-88.01972961425781
2060273.0,-10.408287048339844,-15.156777381896973,34.072227478027344,15.345012664794922,77.44794464111328,-88.05567169189453
2060277.0,-10.456908226013184,-15.159666061401367,34.067832946777344,15.31082534790039,77.47923278808594,-88.09162902832031
2060281.0,-10.505525588989258,-15.162497520446777,34.06332015991211,15.276615142822266,77.51053619384766,-88.1275863647461
2060285.0,-10.5541410446167,-15.165275573730469,34.05870056152344,15.242378234863281,77.5418472290039,-88.16355895996094
2060289.0,-10.602753639221191,-15.168001174926758,34.053977966308594,15.208118438720703,77.57317352294922,-88.19953155517578
2060293.0,-10.651363372802734,-15.17067813873291,34.049156188964844,15.173837661743164,77.6044921875,-88.23551177978516
2060297.0,-10.699971199035645,-15.173306465148926,34.04423904418945,15.139535903930664,77.63582611083984,-88.27149200439453
2060301.0,-10.748575210571289,-15.175888061523438,34.03923034667969,15.105219841003418,77.66715240478516,-88.30747985839844
2060305.0,-10.797173500061035,-15.178428649902344,34.03414535522461,15.070884704589844,77.69849395751953,-88.34346771240234
2060309.0,-10.845769882202148,-15.180925369262695,34.02898025512695,15.03653335571289,77.7298355102539,-88.37946319580078
2060313.0,-10.89436149597168,-15.183381080627441,34.02374267578125,15.002167701721191,77.76116943359375,-88.41545867919922
2060317.0,-10.942949295043945,-15.185795783996582,34.018428802490234,14.967787742614746,77.7925033569336,-88.45146179199219
2060321.0,-10.991532325744629,-15.188165664672852,34.01304244995117,14.933392524719238,77.8238296508789,-88.48747253417969
2060325.0,-11.04011344909668,-15.190496444702148,34.0075798034668,14.898982048034668,77.85515594482422,-88.52349090576172
2060329.0,-11.088688850402832,-15.192779541015625,34.002037048339844,14.86455249786377,77.886474609375,-88.55951690673828
2060333.0,-11.137258529663086,-15.19501781463623,33.99641799926758,14.830108642578125,77.91777801513672,-88.59553527832031
2060337.0,-11.18582534790039,-15.197205543518066,33.99071502685547,14.795642852783203,77.9490737915039,-88.63158416748047
2060341.0,-11.234386444091797,-15.19933795928955,33.984920501708984,14.761157035827637,77.98036193847656,-88.6676254272461
2060345.0,-11.282942771911621,-15.201416015625,33.97903823852539,14.726651191711426,78.01163482666016,-88.70368194580078
2060349.0,-11.331491470336914,-15.203435897827148,33.97305679321289,14.692119598388672,78.04290008544922,-88.73975372314453
2060353.0,-11.38003158569336,-15.205394744873047,33.966976165771484,14.657564163208008,78.07415008544922,-88.77582550048828
2060357.0,-11.42856502532959,-15.207291603088379,33.96078872680664,14.6229829788208,78.10539245605469,-88.81190490722656
2060361.0,-11.477089881896973,-15.209127426147461,33.95449447631836,14.58837604522705,78.1366195678711,-88.84800720214844
2060365.0,-11.525605201721191,-15.210896492004395,33.948097229003906,14.553743362426758,78.16783142089844,-88.88411712646484
2060369.0,-11.574112892150879,-15.212603569030762,33.941593170166016,14.519083976745605,78.19903564453125,-88.92023468017578
2060373.0,-11.622610092163086,-15.214248657226562,33.93498611450195,14.484399795532227,78.230224609375,-88.95636749267578
2060377.0,-11.671100616455078,-15.21583080291748,33.92827606201172,14.449691772460938,78.26139831542969,-88.99250030517578
2060381.0,-11.719581604003906,-15.217353820800781,33.921470642089844,14.414960861206055,78.29256439208984,-89.02865600585938
2060385.0,-11.76805591583252,-15.21882152557373,33.91456985473633,14.380208969116211,78.32371520996094,-89.06481170654297
2060389.0,-11.816522598266602,-15.220232963562012,33.9075813293457,14.345436096191406,78.35485076904297,-89.10098266601562
2060393.0,-11.864982604980469,-15.22159194946289,33.900508880615234,14.310646057128906,78.38597869873047,-89.13714599609375
2060397.0,-11.913434982299805,-15.222902297973633,33.89335632324219,14.275838851928711,78.41709899902344,-89.17332458496094
2060401.0,-11.961878776550293,-15.224164009094238,33.886131286621094,14.24101734161377,78.44819641113281,-89.20950317382812
2060405.0,-12.010315895080566,-15.225378036499023,33.87883758544922,14.206180572509766,78.47929382324219,-89.24569702148438
2060409.0,-12.058745384216309,-15.22654914855957,33.87147521972656,14.171330451965332,78.51036834716797,-89.2818832397461
2060413.0,-12.107166290283203,-15.22767448425293,33.864051818847656,14.136468887329102,78.54143524169922,-89.31808471679688
2060417.0,-12.155579566955566,-15.228755950927734,33.856563568115234,14.101592063903809,78.57247924804688,-89.35429382324219
2060421.0,-12.203984260559082,-15.229791641235352,33.8490104675293,14.066703796386719,78.60350799560547,-89.3905029296875
2060425.0,-12.252381324768066,-15.230782508850098,33.841392517089844,14.031801223754883,78.63452911376953,-89.42671966552734
2060429.0,-12.300771713256836,-15.231722831726074,33.833709716796875,13.996885299682617,78.66551971435547,-89.46293640136719
2060433.0,-12.349154472351074,-15.232614517211914,33.82595443725586,13.961952209472656,78.69648742675781,-89.49918365478516
2060437.0,-12.397530555725098,-15.233452796936035,33.81813049316406,13.927001953125,78.7274398803711,-89.53541564941406
2060441.0,-12.44589614868164,-15.234236717224121,33.81022644042969,13.892033576965332,78.75836181640625,-89.57167053222656
2060445.0,-12.49425220489502,-15.23495864868164,33.80223846435547,13.857044219970703,78.78926086425781,-89.60794067382812
2060449.0,-12.542598724365234,-15.235621452331543,33.794166564941406,13.822035789489746,78.82012176513672,-89.64420318603516
2060453.0,-12.59093189239502,-15.23621940612793,33.7860107421875,13.787003517150879,78.8509521484375,-89.68049621582031
2060457.0,-12.639251708984375,-15.236753463745117,33.77775955200195,13.751948356628418,78.88176727294922,-89.716796875
2060461.0,-12.687559127807617,-15.237221717834473,33.76941680908203,13.71687126159668,78.91254425048828,-89.75310516357422
2060465.0,-12.735852241516113,-15.237624168395996,33.76097869873047,13.681769371032715,78.94328308105469,-89.7894287109375
2060469.0,-12.784133911132812,-15.23796272277832,33.7524528503418,13.646644592285156,78.9739990234375,-89.82576751708984
2060473.0,-12.832401275634766,-15.238235473632812,33.74383544921875,13.611498832702637,79.00468444824219,-89.86210632324219
2060477.0,-12.880657196044922,-15.238446235656738,33.735130310058594,13.576330184936523,79.03533935546875,-89.89846801757812
2060481.0,-12.928898811340332,-15.238594055175781,33.726341247558594,13.541143417358398,79.06596374511719,-89.9348373413086
2060485.0,-12.977128982543945,-15.238683700561523,33.71746826171875,13.505935668945312,79.0965576171875,-89.97120666503906
2060489.0,-13.025347709655762,-15.238717079162598,33.708518981933594,13.470712661743164,79.12712860107422,-90.00759887695312
2060493.0,-13.073555946350098,-15.238697052001953,33.69950485229492,13.435473442077637,79.15766906738281,-90.04399108886719
2060497.0,-13.121753692626953,-15.23862361907959,33.69041442871094,13.400218963623047,79.18818664550781,-90.08039855957031
2060501.0,-13.169942855834961,-15.238502502441406,33.68126678466797,13.364952087402344,79.21868896484375,-90.1167984008789
2060505.0,-13.218122482299805,-15.23833179473877,33.67205810546875,13.329673767089844,79.24915313720703,-90.15321350097656
2060509.0,-13.266290664672852,-15.238114356994629,33.66279602050781,13.294382095336914,79.27960968017578,-90.18963623046875
2060513.0,-13.314451217651367,-15.237848281860352,33.653472900390625,13.259078979492188,79.3100357055664,-90.22605895996094
2060517.0,-13.362602233886719,-15.237537384033203,33.644100189208984,13.22376537322998,79.3404312133789,-90.26248931884766
2060521.0,-13.41074275970459,-15.237176895141602,33.634666442871094,13.188441276550293,79.37081146240234,-90.29891967773438
2060525.0,-13.458873748779297,-15.23676872253418,33.62517547607422,13.15310287475586,79.40115356445312,-90.33536529541016
2060529.0,-13.506993293762207,-15.236311912536621,33.61563491821289,13.117753028869629,79.43145751953125,-90.37181854248047
2060533.0,-13.555102348327637,-15.235800743103027,33.606021881103516,13.08238697052002,79.46174621582031,-90.40828704833984
2060537.0,-13.603199005126953,-15.235234260559082,33.59634780883789,13.047006607055664,79.49198913574219,-90.44474792480469
2060541.0,-13.651281356811523,-15.23460865020752,33.58660125732422,13.011608123779297,79.52220153808594,-90.48123168945312
2060545.0,-13.699350357055664,-15.233922958374023,33.57678985595703,12.976191520690918,79.5523681640625,-90.5177230834961
2060549.0,-13.747405052185059,-15.233173370361328,33.566898345947266,12.940756797790527,79.58248901367188,-90.55422973632812
2060553.0,-13.795443534851074,-15.232357025146484,33.55692672729492,12.905301094055176,79.6125717163086,-90.59074401855469
2060557.0,-13.843467712402344,-15.231475830078125,33.546878814697266,12.86982536315918,79.64261627197266,-90.62727355957031
2060561.0,-13.891475677490234,-15.230525016784668,33.5367431640625,12.834327697753906,79.672607421875,-90.663818359375
2060565.0,-13.939467430114746,-15.229508399963379,33.52653503417969,12.798809051513672,79.70255279541016,-90.70037078857422
2060569.0,-13.987443923950195,-15.228424072265625,33.516239166259766,12.763269424438477,79.73245239257812,-90.73693084716797
2060573.0,-14.035404205322266,-15.227274894714355,33.50586700439453,12.727710723876953,79.7623062133789,-90.77351379394531
2060577.0,-14.083349227905273,-15.22606086730957,33.49540710449219,12.692132949829102,79.79212188720703,-90.81010437011719
2060581.0,-14.131278038024902,-15.224783897399902,33.484886169433594,12.656536102294922,79.82188415527344,-90.8467025756836
2060585.0,-14.179192543029785,-15.2234468460083,33.47428894042969,12.62092399597168,79.85162353515625,-90.88330841064453
2060589.0,-14.227093696594238,-15.222051620483398,33.463626861572266,12.585295677185059,79.88131713867188,-90.91993713378906
2060593.0,-14.274980545043945,-15.220602035522461,33.45290756225586,12.549654960632324,79.91096496582031,-90.95655822753906
2060597.0,-14.322856903076172,-15.219098091125488,33.44212341308594,12.513999938964844,79.94059753417969,-90.99319458007812
2060601.0,-14.370719909667969,-15.217543601989746,33.4312858581543,12.478334426879883,79.97018432617188,-91.02983093261719
2060605.0,-14.418570518493652,-15.215938568115234,33.4203987121582,12.442657470703125,79.99974822998047,-91.06648254394531
2060609.0,-14.466408729553223,-15.214285850524902,33.40945816040039,12.406970024108887,80.0292739868164,-91.10313415527344
2060613.0,-14.514237403869629,-15.21258544921875,33.39847183227539,12.371273040771484,80.05876922607422,-91.13980102539062
2060617.0,-14.562052726745605,-15.210834503173828,33.38743591308594,12.335566520690918,80.0882339477539,-91.17646026611328
2060621.0,-14.609853744506836,-15.20903491973877,33.37635803222656,12.299848556518555,80.1176528930664,-91.21312713623047
2060625.0,-14.657644271850586,-15.207183837890625,33.3652229309082,12.264121055603027,80.14704895019531,-91.24980163574219
2060629.0,-14.705421447753906,-15.205280303955078,33.354034423828125,12.22838020324707,80.1763916015625,-91.28649139404297
2060633.0,-14.753185272216797,-15.203323364257812,33.34279251098633,12.192627906799316,80.20570373535156,-91.32318115234375
2060637.0,-14.800932884216309,-15.201306343078613,33.33149337768555,12.1568603515625,80.2349624633789,-91.3598861694336
2060641.0,-14.848666191101074,-15.199230194091797,33.320133209228516,12.121076583862305,80.26416778564453,-91.39659881591797
2060645.0,-14.896383285522461,-15.197089195251465,33.30870819091797,12.085277557373047,80.2933349609375,-91.4333267211914
2060649.0,-14.944082260131836,-15.194884300231934,33.297210693359375,12.049457550048828,80.32244873046875,-91.47005462646484
2060653.0,-14.991765022277832,-15.192611694335938,33.285648345947266,12.01362133026123,80.35150146484375,-91.50680541992188
2060657.0,-15.039427757263184,-15.190269470214844,33.274009704589844,11.977766990661621,80.3804931640625,-91.54357147216797
2060661.0,-15.08707332611084,-15.187859535217285,33.26230239868164,11.94189167022705,80.40943145751953,-91.58033752441406
2060665.0,-15.134700775146484,-15.185380935668945,33.250518798828125,11.905998229980469,80.43830871582031,-91.61711883544922
2060669.0,-15.182308197021484,-15.18283462524414,33.23866271972656,11.870084762573242,80.46713256835938,-91.65392303466797
2060673.0,-15.229899406433105,-15.180218696594238,33.22673797607422,11.83415412902832,80.49590301513672,-91.69073486328125
2060677.0,-15.277471542358398,-15.177539825439453,33.21474075317383,11.798206329345703,80.52462005615234,-91.72754669189453
2060681.0,-15.325027465820312,-15.174795150756836,33.20268249511719,11.762243270874023,80.55327606201172,-91.7643814086914
2060685.0,-15.372565269470215,-15.171989440917969,33.1905632019043,11.726263999938965,80.5818862915039,-91.80122375488281
2060689.0,-15.420087814331055,-15.169126510620117,33.17839050292969,11.690271377563477,80.6104507446289,-91.83806610107422
2060693.0,-15.467597007751465,-15.166206359863281,33.16615676879883,11.654265403747559,80.63897705078125,-91.87491607666016
2060697.0,-15.51508903503418,-15.163233757019043,33.153873443603516,11.618249893188477,80.66744995117188,-91.91178131103516
2060701.0,-15.562567710876465,-15.160205841064453,33.14154052734375,11.582223892211914,80.69589233398438,-91.94864654541016
2060705.0,-15.610032081604004,-15.157129287719727,33.1291618347168,11.546189308166504,80.72428894042969,-91.98552703857422
