rparak/ABB_EGM_Python/src/Old/EGM_Results/YUMI/result_desired_abs_joint_v100_z100.txt
Time,Joint_1,Joint_2,Joint_3,Joint_4,Joint_5,Joint_6,Joint_External
2852091.0,-122.34184265136719,-123.53107452392578,15.111793518066406,124.26529693603516,78.83048248291016,-16.48853302001953,43.7872200012207
2852095.0,-122.43624114990234,-123.53473663330078,15.057207107543945,124.35284423828125,78.77129364013672,-16.52629852294922,43.82331466674805
2852099.0,-122.53079223632812,-123.53829193115234,15.00214672088623,124.4403076171875,78.71204376220703,-16.563928604125977,43.859188079833984
2852103.0,-122.62551879882812,-123.54171752929688,14.946614265441895,124.52767181396484,78.65274047851562,-16.601421356201172,43.89484405517578
2852107.0,-122.72039794921875,-123.5450210571289,14.890607833862305,124.61491394042969,78.5933837890625,-16.638778686523438,43.93028259277344
2852111.0,-122.81546020507812,-123.5482177734375,14.834131240844727,124.70207214355469,78.53395080566406,-16.67599868774414,43.96549606323242
2852115.0,-122.91067504882812,-123.5512924194336,14.777179718017578,124.78910064697266,78.47447204589844,-16.71308135986328,44.00048828125
2852119.0,-123.00609588623047,-123.55426025390625,14.719754219055176,124.87605285644531,78.41492462158203,-16.750028610229492,44.0352668762207
2852123.0,-123.10167694091797,-123.55708312988281,14.661856651306152,124.96287536621094,78.35531616210938,-16.786836624145508,44.069820404052734
2852127.0,-123.1974105834961,-123.5597915649414,14.603486061096191,125.04959106445312,78.29564666748047,-16.82350730895996,44.104148864746094
2852131.0,-123.29330444335938,-123.56238555908203,14.54464340209961,125.13621520996094,78.23591613769531,-16.860042572021484,44.13825988769531
2852135.0,-123.38936614990234,-123.56487274169922,14.485326766967773,125.22270965576172,78.1761245727539,-16.896438598632812,44.17214584350586
2852139.0,-123.48558807373047,-123.56722259521484,14.425539016723633,125.30909729003906,78.11627197265625,-16.932697296142578,44.205814361572266
2852143.0,-123.58198547363281,-123.5694580078125,14.365278244018555,125.39537811279297,78.05635070800781,-16.96881866455078,44.239253997802734
2852147.0,-123.67854309082031,-123.57156372070312,14.304543495178223,125.48155975341797,77.9963607788086,-17.00480079650879,44.2724723815918
2852151.0,-123.7752685546875,-123.57356262207031,14.243334770202637,125.5676040649414,77.93631744384766,-17.040645599365234,44.30546569824219
2852155.0,-123.87214660644531,-123.57544708251953,14.181654930114746,125.65355682373047,77.87619018554688,-17.076351165771484,44.33823776245117
2852159.0,-123.9692153930664,-123.57720947265625,14.119501113891602,125.73938751220703,77.81600952148438,-17.111919403076172,44.370784759521484
2852163.0,-124.06643676757812,-123.5788345336914,14.05687427520752,125.82508850097656,77.75575256347656,-17.147348403930664,44.40310287475586
2852167.0,-124.16382598876953,-123.5803451538086,13.993773460388184,125.91069030761719,77.6954345703125,-17.18263816833496,44.43519973754883
2852171.0,-124.26139068603516,-123.58174133300781,13.93019962310791,125.99616241455078,77.63504028320312,-17.217790603637695,44.46706771850586
2852175.0,-124.35910034179688,-123.58301544189453,13.866151809692383,126.08151245117188,77.5745849609375,-17.2528018951416,44.49871063232422
2852179.0,-124.45700073242188,-123.58396911621094,13.801342010498047,126.16681671142578,77.51399230957031,-17.287677764892578,44.529022216796875
2852183.0,-124.55232238769531,-123.58436584472656,13.73607349395752,126.25202178955078,77.45333862304688,-17.322357177734375,44.55610275268555
2852187.0,-124.64454650878906,-123.5843505859375,13.670939445495605,126.33656311035156,77.39299774169922,-17.356651306152344,44.58056640625
2852191.0,-124.73440551757812,-123.58402252197266,13.606429100036621,126.4195785522461,77.33361053466797,-17.390209197998047,44.603031158447266
2852195.0,-124.81963348388672,-123.58332824707031,13.543584823608398,126.49991607666016,77.27599334716797,-17.42258071899414,44.62260818481445
2852199.0,-124.89895629882812,-123.58243560791016,13.483734130859375,126.57617950439453,77.22119903564453,-17.453216552734375,44.639854431152344
2852203.0,-124.97239685058594,-123.58163452148438,13.428157806396484,126.64672088623047,77.17041778564453,-17.481510162353516,44.65609359741211
2852207.0,-125.0393295288086,-123.5810317993164,13.37803840637207,126.71005249023438,77.12474822998047,-17.50689125061035,44.67173385620117
2852211.0,-125.09858703613281,-123.58063507080078,13.33434009552002,126.7649917602539,77.08506774902344,-17.52889633178711,44.6864013671875
2852215.0,-125.15194702148438,-123.58061218261719,13.297353744506836,126.81080627441406,77.05193328857422,-17.547260284423828,44.70119094848633
2852219.0,-125.1981201171875,-123.58108520507812,13.267651557922363,126.8473892211914,77.02545928955078,-17.56197166442871,44.716732025146484
2852223.0,-125.23591613769531,-123.58191680908203,13.244972229003906,126.87531280517578,77.0052261352539,-17.573253631591797,44.731807708740234
2852227.0,-125.26713562011719,-123.5829849243164,13.228263854980469,126.89554595947266,76.99054718017578,-17.58148765563965,44.74613952636719
2852231.0,-125.29238891601562,-123.58429718017578,13.216750144958496,126.90938568115234,76.98050689697266,-17.587186813354492,44.76015853881836
2852235.0,-125.31144714355469,-123.58570098876953,13.209406852722168,126.91831970214844,76.97402954101562,-17.590940475463867,44.77294158935547
2852239.0,-125.32483673095703,-123.5869369506836,13.20496654510498,126.9238510131836,76.97000122070312,-17.593311309814453,44.78327178955078
2852243.0,-125.33372497558594,-123.58787536621094,13.202374458312988,126.92716979980469,76.96758270263672,-17.59476089477539,44.79084396362305
2852247.0,-125.33938598632812,-123.58854675292969,13.200895309448242,126.92912292480469,76.9661636352539,-17.595623016357422,44.79600524902344
2852251.0,-125.34284973144531,-123.58898162841797,13.200064659118652,126.93024444580078,76.9653549194336,-17.59612464904785,44.79933547973633
2852255.0,-125.34494018554688,-123.5892562866211,13.199604034423828,126.9308853149414,76.96488952636719,-17.59641456604004,44.8014030456543
2852259.0,-125.34616088867188,-123.58943176269531,13.199349403381348,126.93123626708984,76.96463012695312,-17.59657859802246,44.80265426635742
2852263.0,-125.34685516357422,-123.58953094482422,13.199210166931152,126.93144226074219,76.96448516845703,-17.59667205810547,44.80339050292969
2852267.0,-125.34447479248047,-123.58936309814453,13.199482917785645,126.93148803710938,76.96444702148438,-17.596670150756836,44.802005767822266
2852271.0,-125.33812713623047,-123.5887222290039,13.200287818908691,126.9310073852539,76.96479797363281,-17.596391677856445,44.79694366455078
2852275.0,-125.32894897460938,-123.58773803710938,13.202129364013672,126.92903900146484,76.96625518798828,-17.595470428466797,44.789241790771484
2852279.0,-125.31459045410156,-123.5865249633789,13.206357955932617,126.92430114746094,76.96971893310547,-17.593414306640625,44.77889633178711
2852283.0,-125.29349517822266,-123.58502197265625,13.214067459106445,126.91531372070312,76.97628021240234,-17.589618682861328,44.76509475708008
2852287.0,-125.26575469970703,-123.5833969116211,13.226468086242676,126.90028381347656,76.98723602294922,-17.583396911621094,44.74874496459961
2852291.0,-125.23297882080078,-123.58210754394531,13.244730949401855,126.87752532958984,77.0037841796875,-17.57412338256836,44.73259735107422
2852295.0,-125.19469451904297,-123.58151245117188,13.26995849609375,126.84595489501953,77.02671813964844,-17.561403274536133,44.71834945678711
2852299.0,-125.1485595703125,-123.58145904541016,13.302541732788086,126.80537414550781,77.05615234375,-17.545127868652344,44.70473861694336
2852303.0,-125.09528350830078,-123.58177185058594,13.34188461303711,126.7561264038086,77.0918197631836,-17.525409698486328,44.691097259521484
2852307.0,-125.03520965576172,-123.58242797851562,13.387382507324219,126.6989974975586,77.13312530517578,-17.502546310424805,44.67742156982422
2852311.0,-124.96769714355469,-123.5832290649414,13.43822956085205,126.63513946533203,77.17920684814453,-17.476966857910156,44.66268539428711
2852315.0,-124.89354705810547,-123.58395385742188,13.493192672729492,126.56582641601562,77.2291259765625,-17.449138641357422,44.6458854675293
2852319.0,-124.81351470947266,-123.58443450927734,13.551202774047852,126.49222564697266,77.28202056884766,-17.419504165649414,44.62632369995117
2852323.0,-124.72858428955078,-123.5845947265625,13.611417770385742,126.41529846191406,77.3371810913086,-17.388431549072266,44.60409164428711
2852327.0,-124.6402587890625,-123.58450317382812,13.673151016235352,126.33580017089844,77.39407348632812,-17.35622215270996,44.579856872558594
2852331.0,-124.5494155883789,-123.58417510986328,13.73586654663086,126.25434112548828,77.45220947265625,-17.3231258392334,44.553958892822266
2852335.0,-124.45652770996094,-123.58358764648438,13.7991304397583,126.17146301269531,77.51121520996094,-17.289358139038086,44.5265007019043
2852339.0,-124.36210632324219,-123.582763671875,13.862607955932617,126.08761596679688,77.57077026367188,-17.255090713500977,44.497676849365234
2852343.0,-124.26659393310547,-123.58170318603516,13.926051139831543,126.00309753417969,77.63066101074219,-17.220449447631836,44.46773910522461
2852347.0,-124.17039489746094,-123.58045959472656,13.989291191101074,125.91812133789062,77.69071197509766,-17.185523986816406,44.43696594238281
2852351.0,-124.0738296508789,-123.57904052734375,14.052221298217773,125.83282470703125,77.7508544921875,-17.15036964416504,44.405548095703125
2852355.0,-123.97708892822266,-123.57746887207031,14.114770889282227,125.74728393554688,77.81099700927734,-17.11502456665039,44.37364196777344
2852359.0,-123.88030242919922,-123.57574462890625,14.176900863647461,125.66156005859375,77.87112426757812,-17.079509735107422,44.341346740722656
2852363.0,-123.78356170654297,-123.57389831542969,14.238582611083984,125.57567596435547,77.93122100830078,-17.04383659362793,44.30874252319336
2852367.0,-123.6869125366211,-123.57190704345703,14.299806594848633,125.48967742919922,77.99125671386719,-17.008014678955078,44.27585220336914
2852371.0,-123.59039306640625,-123.56981658935547,14.360563278198242,125.40351867675781,78.05123901367188,-16.972047805786133,44.24270248413086
2852375.0,-123.4940185546875,-123.56758880615234,14.420846939086914,125.31725311279297,78.11116790771484,-16.935937881469727,44.209293365478516
2852379.0,-123.3978042602539,-123.56523895263672,14.480656623840332,125.23088073730469,78.17101287841797,-16.899686813354492,44.175655364990234
2852383.0,-123.3017349243164,-123.5627670288086,14.539990425109863,125.14437866210938,78.23080444335938,-16.86329460144043,44.141780853271484
2852387.0,-123.20586395263672,-123.56018829345703,14.598846435546875,125.05776977539062,78.29053497314453,-16.826763153076172,44.10768127441406
2852391.0,-123.11014556884766,-123.55746459960938,14.657227516174316,124.9710464477539,78.3501968383789,-16.79009437561035,44.07334899902344
2852395.0,-123.01458740234375,-123.55464172363281,14.715130805969238,124.88420104980469,78.40980529785156,-16.753286361694336,44.038795471191406
2852399.0,-122.91919708251953,-123.55168914794922,14.77255916595459,124.79727172851562,78.46935272216797,-16.716339111328125,44.00401306152344
2852403.0,-122.823974609375,-123.54861450195312,14.829508781433105,124.71019744873047,78.5288314819336,-16.67925262451172,43.9690055847168
2852407.0,-122.72892761230469,-123.5454330444336,14.885982513427734,124.623046875,78.5882568359375,-16.642026901245117,43.93377685546875
2852411.0,-122.63404083251953,-123.54212951660156,14.941983222961426,124.5357666015625,78.64762115478516,-16.604665756225586,43.89832305908203
2852415.0,-122.53932189941406,-123.5386962890625,14.99750804901123,124.44839477539062,78.70692443847656,-16.567169189453125,43.862648010253906
2852419.0,-122.44476318359375,-123.53516387939453,15.052558898925781,124.36093139648438,78.76615905761719,-16.52953338623047,43.82675552368164
2852423.0,-122.35039520263672,-123.53150177001953,15.107133865356445,124.2733383178711,78.82534790039062,-16.49176025390625,43.7906379699707
2852427.0,-122.25617980957031,-123.52771759033203,15.161239624023438,124.1856689453125,78.88446807861328,-16.4538516998291,43.754302978515625
2852431.0,-122.1621322631836,-123.52381134033203,15.214869499206543,124.09786987304688,78.94354248046875,-16.41580581665039,43.71774673461914
2852435.0,-122.06825256347656,-123.51979064941406,15.268027305603027,124.00999450683594,79.00257110595703,-16.377626419067383,43.68097686767578
2852439.0,-121.97454071044922,-123.51567077636719,15.320713996887207,123.9220199584961,79.06153106689453,-16.339309692382812,43.64398956298828
2852443.0,-121.88099670410156,-123.51140594482422,15.372928619384766,123.83393859863281,79.12043762207031,-16.300857543945312,43.60678482055664
2852447.0,-121.78762817382812,-123.50703430175781,15.424671173095703,123.74576568603516,79.1792984008789,-16.262269973754883,43.569366455078125
2852451.0,-121.69442749023438,-123.50255584716797,15.475945472717285,123.65750122070312,79.23809814453125,-16.223548889160156,43.53173065185547
2852455.0,-121.60138702392578,-123.49793243408203,15.526748657226562,123.56914520263672,79.29684448242188,-16.184694290161133,43.4938850402832
2852459.0,-121.50850677490234,-123.49320983886719,15.577079772949219,123.48069763183594,79.35554504394531,-16.14570426940918,43.4558219909668
2852463.0,-121.41580963134766,-123.48837280273438,15.626941680908203,123.39215087890625,79.41419982910156,-16.10658073425293,43.41755294799805
2852467.0,-121.32327270507812,-123.48341369628906,15.676336288452148,123.30350494384766,79.47279357910156,-16.06732177734375,43.379066467285156
2852471.0,-121.23090362548828,-123.47833251953125,15.725260734558105,123.21478271484375,79.53134155273438,-16.027931213378906,43.340370178222656
2852475.0,-121.1386947631836,-123.47314453125,15.773717880249023,123.1259765625,79.58984375,-15.988407135009766,43.30146789550781
2852479.0,-121.04666137695312,-123.46782684326172,15.821704864501953,123.03707885742188,79.6482925415039,-15.948749542236328,43.262351989746094
2852483.0,-120.95479583740234,-123.46240234375,15.869222640991211,122.94808959960938,79.70670318603516,-15.908958435058594,43.22303009033203
2852487.0,-120.86309814453125,-123.45685577392578,15.916274070739746,122.85902404785156,79.76506042480469,-15.869037628173828,43.18349838256836
2852491.0,-120.77155303955078,-123.45120239257812,15.962857246398926,122.76986694335938,79.82337188720703,-15.82898235321045,43.14375686645508
2852495.0,-120.68018341064453,-123.44542694091797,16.008974075317383,122.68063354492188,79.88164520263672,-15.788795471191406,43.10381317138672
2852499.0,-120.58899688720703,-123.43953704833984,16.05462074279785,122.59132385253906,79.93985748291016,-15.7484769821167,43.063663482666016
2852503.0,-120.49795532226562,-123.43350982666016,16.099802017211914,122.50191497802734,79.998046875,-15.708026885986328,43.02330780029297
2852507.0,-120.40709686279297,-123.4273910522461,16.144515991210938,122.41243743896484,80.05616760253906,-15.66744327545166,42.982749938964844
2852511.0,-120.31639099121094,-123.42115020751953,16.188764572143555,122.32288360595703,80.11426544189453,-15.626729965209961,42.94198226928711
2852515.0,-120.22586822509766,-123.41478729248047,16.2325439453125,122.23326110839844,80.17230987548828,-15.585886001586914,42.9010124206543
2852519.0,-120.13550567626953,-123.40830993652344,16.275859832763672,122.14354705810547,80.23031616210938,-15.544909477233887,42.85984420776367
2852523.0,-120.04530334472656,-123.40172576904297,16.318706512451172,122.05376434326172,80.28828430175781,-15.503804206848145,42.8184700012207
2852527.0,-119.95528411865234,-123.39501953125,16.361087799072266,121.96390533447266,80.34620666503906,-15.462568283081055,42.77689743041992
2852531.0,-119.86542510986328,-123.38819122314453,16.40300178527832,121.87396240234375,80.40409088134766,-15.421199798583984,42.73512268066406
2852535.0,-119.77572631835938,-123.3812484741211,16.444448471069336,121.78396606445312,80.46194458007812,-15.3797025680542,42.69314956665039
2852539.0,-119.68619537353516,-123.37418365478516,16.485431671142578,121.69389343261719,80.51974487304688,-15.338074684143066,42.650970458984375
2852543.0,-119.59684753417969,-123.36701202392578,16.52594757080078,121.60374450683594,80.57752227783203,-15.296316146850586,42.60860061645508
2852547.0,-119.50764465332031,-123.35973358154297,16.565998077392578,121.51351928710938,80.63524627685547,-15.254429817199707,42.56602478027344
2852551.0,-119.41863250732422,-123.35233306884766,16.605581283569336,121.4232406616211,80.69294738769531,-15.21241283416748,42.523250579833984
2852555.0,-119.32977294921875,-123.34478759765625,16.644699096679688,121.3328857421875,80.7506103515625,-15.170265197753906,42.48028564453125
2852559.0,-119.2410888671875,-123.33716583251953,16.683347702026367,121.2424545288086,80.8082275390625,-15.127989768981934,42.43711853027344
2852563.0,-119.15257263183594,-123.32940673828125,16.721532821655273,121.15196990966797,80.8658218383789,-15.08558464050293,42.39375686645508
2852567.0,-119.06421661376953,-123.32154083251953,16.759252548217773,121.06143188476562,80.92337036132812,-15.043049812316895,42.35020065307617
2852571.0,-118.97603607177734,-123.31354522705078,16.796504974365234,120.97080993652344,80.98088836669922,-15.000386238098145,42.30644607543945
2852575.0,-118.88800811767578,-123.30545043945312,16.833290100097656,120.880126953125,81.03836822509766,-14.95759391784668,42.26250076293945
2852579.0,-118.8001708984375,-123.29722595214844,16.86960792541504,120.78939819335938,81.0958251953125,-14.9146728515625,42.218353271484375
2852583.0,-118.7125015258789,-123.28889465332031,16.905460357666016,120.69859313964844,81.15324401855469,-14.871623992919922,42.17402267456055
2852587.0,-118.62500762939453,-123.28043365478516,16.940847396850586,120.60774230957031,81.21063232421875,-14.828445434570312,42.12948989868164
2852591.0,-118.53765869140625,-123.2718734741211,16.97576332092285,120.51681518554688,81.26799011230469,-14.785138130187988,42.08476638793945
2852595.0,-118.45049285888672,-123.26319885253906,17.01021385192871,120.42584228515625,81.3253173828125,-14.74170207977295,42.039852142333984
2852599.0,-118.36349487304688,-123.25438690185547,17.0441951751709,120.33480834960938,81.38261413574219,-14.698138236999512,41.99474334716797
2852603.0,-118.27666473388672,-123.24546813964844,17.077709197998047,120.24370574951172,81.43988037109375,-14.654447555541992,41.94944381713867
2852607.0,-118.19000244140625,-123.23643493652344,17.110754013061523,120.1525650024414,81.49711608886719,-14.610627174377441,41.903953552246094
2852611.0,-118.10350799560547,-123.22727966308594,17.143327713012695,120.06137084960938,81.55432891845703,-14.566678047180176,41.858272552490234
2852615.0,-118.0171890258789,-123.218017578125,17.175430297851562,119.9701156616211,81.61151123046875,-14.522601127624512,41.81239700317383
2852619.0,-117.9310302734375,-123.20864868164062,17.20706558227539,119.87879943847656,81.66866302490234,-14.47839641571045,41.766334533691406
2852623.0,-117.8450698852539,-123.19914245605469,17.23822784423828,119.7874526977539,81.72579956054688,-14.434062957763672,41.7200813293457
2852627.0,-117.7592544555664,-123.18953704833984,17.268918991088867,119.69603729248047,81.78290557861328,-14.389601707458496,41.67363357543945
2852631.0,-117.67361450195312,-123.17980194091797,17.29914093017578,119.6045913696289,81.83999633789062,-14.345014572143555,41.62700653076172
2852635.0,-117.5881576538086,-123.16995239257812,17.32889175415039,119.51307678222656,81.89704895019531,-14.300298690795898,41.5801887512207
2852639.0,-117.50286102294922,-123.15998840332031,17.35817527770996,119.4215316772461,81.95408630371094,-14.25545597076416,41.53318405151367
2852643.0,-117.41773223876953,-123.14990997314453,17.386987686157227,119.32994842529297,82.01110076904297,-14.210487365722656,41.486000061035156
2852647.0,-117.33277130126953,-123.13970947265625,17.41533088684082,119.2383041381836,82.0680923461914,-14.165392875671387,41.438629150390625
2852651.0,-117.24800109863281,-123.12940979003906,17.443204879760742,119.1466293334961,82.12505340576172,-14.120169639587402,41.391075134277344
2852655.0,-117.16337585449219,-123.11897277832031,17.470613479614258,119.0549087524414,82.1820068359375,-14.074823379516602,41.343345642089844
2852659.0,-117.07892608642578,-123.1084213256836,17.497554779052734,118.9631576538086,82.23892974853516,-14.029350280761719,41.295433044433594
2852663.0,-116.9946517944336,-123.0977554321289,17.524028778076172,118.87136840820312,82.29583740234375,-13.983752250671387,41.24734115600586
2852667.0,-116.9105453491211,-123.08695983886719,17.55003547668457,118.77953338623047,82.35272216796875,-13.938029289245605,41.19907760620117
2852671.0,-116.82660675048828,-123.07606506347656,17.575576782226562,118.68766784667969,82.40958404541016,-13.892181396484375,41.150634765625
2852675.0,-116.74283599853516,-123.06505584716797,17.600650787353516,118.59577178955078,82.4664306640625,-13.846210479736328,41.10201644897461
2852679.0,-116.65923309326172,-123.05390167236328,17.625261306762695,118.50383758544922,82.52325439453125,-13.8001127243042,41.05322265625
2852683.0,-116.57579803466797,-123.04264831542969,17.64940643310547,118.41187286376953,82.58007049560547,-13.75389289855957,41.00425720214844
2852687.0,-116.49253845214844,-123.0312728881836,17.67308807373047,118.31988525390625,82.6368637084961,-13.707548141479492,40.95512771606445
2852691.0,-116.40943908691406,-123.01978302001953,17.696304321289062,118.22785949707031,82.69363403320312,-13.661081314086914,40.90581512451172
2852695.0,-116.32650756835938,-123.0081558227539,17.719057083129883,118.13581085205078,82.7503890991211,-13.61448860168457,40.85634231567383
2852699.0,-116.24375915527344,-122.99642181396484,17.741348266601562,118.04373168945312,82.80712890625,-13.567776679992676,40.80670166015625
2852703.0,-116.16114807128906,-122.98458099365234,17.763174057006836,117.95162963867188,82.86386108398438,-13.520938873291016,40.75688934326172
2852707.0,-116.07872772216797,-122.97261047363281,17.78453826904297,117.85950469970703,82.92057037353516,-13.473978996276855,40.706912994384766
2852711.0,-115.9964599609375,-122.96052551269531,17.80544090270996,117.76734924316406,82.97726440429688,-13.426898002624512,40.65677261352539
2852715.0,-115.91436004638672,-122.94831085205078,17.82588005065918,117.67518615722656,83.03394317626953,-13.379693984985352,40.606468200683594
2852719.0,-115.83244323730469,-122.93597412109375,17.84585952758789,117.58299255371094,83.09060668945312,-13.332369804382324,40.555999755859375
2852723.0,-115.75067138671875,-122.92353057861328,17.865373611450195,117.49078369140625,83.14725494384766,-13.28492259979248,40.50537109375
2852727.0,-115.66907501220703,-122.91096496582031,17.884428024291992,117.3985595703125,83.20388793945312,-13.237353324890137,40.454586029052734
2852731.0,-115.587646484375,-122.89828491210938,17.90302276611328,117.30631256103516,83.2605209350586,-13.18966293334961,40.40364074707031
2852735.0,-115.50638580322266,-122.8854751586914,17.921154022216797,117.21405029296875,83.31713104248047,-13.141851425170898,40.3525276184082
2852739.0,-115.4252700805664,-122.87255096435547,17.938825607299805,117.12178039550781,83.37373352050781,-13.09391975402832,40.30126953125
2852743.0,-115.34434509277344,-122.85948944091797,17.956035614013672,117.02950286865234,83.4303207397461,-13.045867919921875,40.249847412109375
2852747.0,-115.2635726928711,-122.84632110595703,17.972787857055664,116.93719482421875,83.48689270019531,-12.997694969177246,40.19826889038086
2852751.0,-115.1829605102539,-122.8330307006836,17.989078521728516,116.84487915039062,83.54346466064453,-12.949402809143066,40.14654541015625
2852755.0,-115.10252380371094,-122.81963348388672,18.00490951538086,116.7525634765625,83.60001373291016,-12.900988578796387,40.094661712646484
2852759.0,-115.02224731445312,-122.80609130859375,18.020278930664062,116.66024780273438,83.65656280517578,-12.852455139160156,40.042625427246094
2852763.0,-114.942138671875,-122.79244232177734,18.035192489624023,116.56791687011719,83.71309661865234,-12.803802490234375,39.990440368652344
2852767.0,-114.86219787597656,-122.7786636352539,18.04964256286621,116.47557067871094,83.76962280273438,-12.755029678344727,39.9380989074707
2852771.0,-114.78240966796875,-122.7647705078125,18.063634872436523,116.38322448730469,83.82614135742188,-12.706138610839844,39.885616302490234
2852775.0,-114.70279693603516,-122.7507553100586,18.077165603637695,116.29088592529297,83.88265228271484,-12.657127380371094,39.832984924316406
2852779.0,-114.62334442138672,-122.73660278320312,18.090238571166992,116.19853973388672,83.93914794921875,-12.607996940612793,39.78020095825195
2852783.0,-114.54405975341797,-122.72234344482422,18.102853775024414,116.10618591308594,83.99563598632812,-12.558747291564941,39.72724533081055
2852787.0,-114.46492767333984,-122.70796966552734,18.115007400512695,116.01383972167969,84.0521240234375,-12.509379386901855,39.67416000366211
2852791.0,-114.3859634399414,-122.69345092773438,18.1267032623291,115.92149353027344,84.10860443115234,-12.459893226623535,39.62095260620117
2852795.0,-114.30718231201172,-122.67881774902344,18.137937545776367,115.82914733886719,84.16508483886719,-12.410287857055664,39.567588806152344
2852799.0,-114.2285385131836,-122.6640625,18.14871597290039,115.73680877685547,84.2215576171875,-12.360564231872559,39.514076232910156
2852803.0,-114.15007019042969,-122.6491928100586,18.159032821655273,115.64447784423828,84.27801513671875,-12.310723304748535,39.460418701171875
2852807.0,-114.07176208496094,-122.63419342041016,18.16889190673828,115.5521469116211,84.33447265625,-12.260764122009277,39.406620025634766
2852811.0,-113.99362182617188,-122.61905670166016,18.17829132080078,115.45983123779297,84.39092254638672,-12.210685729980469,39.352684020996094
2852815.0,-113.91564178466797,-122.60381317138672,18.187231063842773,115.36750793457031,84.44737243652344,-12.160491943359375,39.29861831665039
2852819.0,-113.83782958984375,-122.58843994140625,18.19571304321289,115.27520751953125,84.50382232666016,-12.11017894744873,39.244415283203125
2852823.0,-113.76017761230469,-122.57293701171875,18.203733444213867,115.18291473388672,84.56025695800781,-12.059749603271484,39.19007873535156
2852827.0,-113.68268585205078,-122.55731964111328,18.211294174194336,115.09064483642578,84.61669921875,-12.009202003479004,39.13560104370117
2852831.0,-113.60536193847656,-122.54155731201172,18.21839714050293,114.99836730957031,84.67313385009766,-11.958537101745605,39.080997467041016
2852835.0,-113.52820587158203,-122.52569580078125,18.225040435791016,114.90612030029297,84.72956848144531,-11.907754898071289,39.0262565612793
2852839.0,-113.45120239257812,-122.50970458984375,18.231224060058594,114.81388092041016,84.78600311279297,-11.856856346130371,38.97138595581055
2852843.0,-113.37437438964844,-122.49356842041016,18.23694610595703,114.72166442871094,84.84243774414062,-11.805839538574219,38.916378021240234
2852847.0,-113.29769897460938,-122.47732543945312,18.242210388183594,114.62947082519531,84.89886474609375,-11.754707336425781,38.86124801635742
2852851.0,-113.22118377685547,-122.4609375,18.24701499938965,114.53729248046875,84.95529174804688,-11.703457832336426,38.80598068237305
2852855.0,-113.14484405517578,-122.4444351196289,18.25135612487793,114.44513702392578,85.01173400878906,-11.652091979980469,38.750579833984375
2852859.0,-113.06865692138672,-122.42779541015625,18.255237579345703,114.35299682617188,85.06815338134766,-11.60060977935791,38.69506072998047
2852863.0,-112.99263763427734,-122.4110336303711,18.25865936279297,114.2608871459961,85.12458801269531,-11.54901123046875,38.639408111572266
2852867.0,-112.91678619384766,-122.39414978027344,18.26162338256836,114.16879272460938,85.18101501464844,-11.497295379638672,38.5836296081543
2852871.0,-112.8410873413086,-122.37714385986328,18.264122009277344,114.07672882080078,85.23745727539062,-11.445463180541992,38.52772521972656
2852875.0,-112.76556396484375,-122.36000061035156,18.26616096496582,113.98468780517578,85.29388427734375,-11.393516540527344,38.47169876098633
2852879.0,-112.69019317626953,-122.34273529052734,18.267736434936523,113.89268493652344,85.35033416748047,-11.341452598571777,38.415550231933594
2852883.0,-112.61498260498047,-122.32533264160156,18.26885414123535,113.80069732666016,85.40677642822266,-11.289273262023926,38.35927200317383
2852887.0,-112.53994750976562,-122.30781555175781,18.269506454467773,113.70874786376953,85.46321105957031,-11.236977577209473,38.302879333496094
2852891.0,-112.46507263183594,-122.29015350341797,18.269697189331055,113.61682891845703,85.51966857910156,-11.184565544128418,38.246360778808594
2852895.0,-112.3903579711914,-122.27236938476562,18.269428253173828,113.52494812011719,85.57611846923828,-11.132039070129395,38.18972396850586
2852899.0,-112.3157958984375,-122.25445556640625,18.268692016601562,113.43309783935547,85.63257598876953,-11.07939624786377,38.13296890258789
2852903.0,-112.24141693115234,-122.23641204833984,18.267494201660156,113.34127044677734,85.68904113769531,-11.02663803100586,38.076087951660156
2852907.0,-112.16719055175781,-122.21824645996094,18.265832901000977,113.2494888305664,85.7455062866211,-10.973762512207031,38.01909637451172
2852911.0,-112.0931167602539,-122.19994354248047,18.263710021972656,113.15775299072266,85.80198669433594,-10.920774459838867,37.96198654174805
2852915.0,-112.01922607421875,-122.1814956665039,18.261119842529297,113.06604766845703,85.85846710205078,-10.867669105529785,37.90475845336914
2852919.0,-111.94548034667969,-122.16293334960938,18.258068084716797,112.97437286376953,85.91494750976562,-10.814447402954102,37.847415924072266
2852923.0,-111.87191772460938,-122.14423370361328,18.254549026489258,112.88275909423828,85.97144317626953,-10.761112213134766,37.78996276855469
2852927.0,-111.79851531982422,-122.12541198730469,18.250564575195312,112.79117584228516,86.02794647216797,-10.707661628723145,37.732391357421875
2852931.0,-111.72526550292969,-122.1064453125,18.246116638183594,112.69963836669922,86.08445739746094,-10.654093742370605,37.674705505371094
2852935.0,-111.65219116210938,-122.08734893798828,18.241199493408203,112.60813903808594,86.14097595214844,-10.600411415100098,37.616912841796875
2852939.0,-111.57926177978516,-122.06813049316406,18.23581886291504,112.5167007446289,86.19750213623047,-10.546615600585938,37.55900573730469
2852943.0,-111.50650787353516,-122.04877471923828,18.229969024658203,112.42530059814453,86.25403594970703,-10.49270248413086,37.50099182128906
2852947.0,-111.43391418457031,-122.02926635742188,18.223651885986328,112.33394622802734,86.31058502197266,-10.438675880432129,37.442867279052734
2852951.0,-111.36149597167969,-122.00965118408203,18.216867446899414,112.24264526367188,86.36713409423828,-10.384533882141113,37.38463592529297
2852955.0,-111.28923034667969,-121.98988342285156,18.20961570739746,112.1513900756836,86.4237060546875,-10.330275535583496,37.3262939453125
2852959.0,-111.21713256835938,-121.9699935913086,18.201894760131836,112.06018829345703,86.48027801513672,-10.27590274810791,37.267845153808594
2852963.0,-111.14519500732422,-121.94995880126953,18.193702697753906,111.96904754638672,86.536865234375,-10.221414566040039,37.209293365478516
2852967.0,-111.07343292236328,-121.92979431152344,18.185043334960938,111.8779525756836,86.59346771240234,-10.1668119430542,37.150630950927734
2852971.0,-111.00181579589844,-121.90949249267578,18.175912857055664,111.78691864013672,86.65007781982422,-10.112092971801758,37.09186935424805
2852975.0,-110.93038177490234,-121.88904571533203,18.166309356689453,111.69593811035156,86.70669555664062,-10.057258605957031,37.03300476074219
2852979.0,-110.8591079711914,-121.86848449707031,18.15623664855957,111.60501098632812,86.76333618164062,-10.002309799194336,36.974037170410156
2852983.0,-110.78799438476562,-121.84776306152344,18.145692825317383,111.51415252685547,86.81999206542969,-9.947246551513672,36.91496276855469
2852987.0,-110.71704864501953,-121.82691955566406,18.134674072265625,111.42334747314453,86.87665557861328,-9.892067909240723,36.85579299926758
2852991.0,-110.6462631225586,-121.8059310913086,18.123184204101562,111.33260345458984,86.93333435058594,-9.836775779724121,36.7965202331543
2852995.0,-110.57564544677734,-121.78480529785156,18.111225128173828,111.24192810058594,86.99002075195312,-9.781367301940918,36.73714828491211
2852999.0,-110.50519561767578,-121.76354217529297,18.09879493713379,111.15131378173828,87.04672241210938,-9.725845336914062,36.67768478393555
2853003.0,-110.43489074707031,-121.74215698242188,18.085891723632812,111.06078338623047,87.10344696044922,-9.670208930969238,36.618125915527344
2853007.0,-110.36477661132812,-121.72061157226562,18.072521209716797,110.97030639648438,87.16018676757812,-9.614459991455078,36.558475494384766
2853011.0,-110.29479217529297,-121.69892120361328,18.05868148803711,110.87989044189453,87.2169418334961,-9.55859661102295,36.49872970581055
2853015.0,-110.22499084472656,-121.6771011352539,18.044374465942383,110.78955841064453,87.2737045288086,-9.502619743347168,36.43889617919922
2853019.0,-110.15534210205078,-121.6551513671875,18.029598236083984,110.69928741455078,87.33048248291016,-9.44653034210205,36.37897491455078
2853023.0,-110.08585357666016,-121.63304901123047,18.014354705810547,110.60910034179688,87.38726806640625,-9.390326499938965,36.318965911865234
2853027.0,-110.01652526855469,-121.61080932617188,17.99864387512207,110.51898956298828,87.44407653808594,-9.33401107788086,36.258872985839844
2853031.0,-109.94735717773438,-121.58841705322266,17.982463836669922,110.42893981933594,87.50090789794922,-9.277583122253418,36.198692321777344
2853035.0,-109.87835693359375,-121.56591033935547,17.965816497802734,110.33898162841797,87.55775451660156,-9.221040725708008,36.138423919677734
2853039.0,-109.80950927734375,-121.54324340820312,17.948705673217773,110.24909210205078,87.61460876464844,-9.164384841918945,36.07807922363281
2853043.0,-109.74081420898438,-121.52044677734375,17.93112564086914,110.1592788696289,87.67147827148438,-9.10761833190918,36.01765060424805
2853047.0,-109.67227935791016,-121.49749755859375,17.91307830810547,110.06954956054688,87.72836303710938,-9.050738334655762,35.9571418762207
2853051.0,-109.6039047241211,-121.47439575195312,17.89456558227539,109.97989654541016,87.78527069091797,-8.993745803833008,35.89655303955078
2853055.0,-109.53569793701172,-121.45115661621094,17.87558364868164,109.89034271240234,87.84219360351562,-8.936640739440918,35.83588409423828
2853059.0,-109.46763610839844,-121.42777252197266,17.856136322021484,109.80084991455078,87.89913177490234,-8.879423141479492,35.775142669677734
2853063.0,-109.39974212646484,-121.40425109863281,17.836223602294922,109.71145629882812,87.95610046386719,-8.82209300994873,35.714317321777344
2853067.0,-109.33200073242188,-121.3805923461914,17.815841674804688,109.62214660644531,88.0130615234375,-8.764650344848633,35.65342330932617
2853071.0,-109.26441192626953,-121.35678100585938,17.79499626159668,109.53292083740234,88.07005310058594,-8.707096099853516,35.59244918823242
2853075.0,-109.19699096679688,-121.33281707763672,17.773681640625,109.44377899169922,88.12705993652344,-8.649429321289062,35.531410217285156
2853079.0,-109.12971496582031,-121.3087387084961,17.751901626586914,109.35472869873047,88.18408203125,-8.591650009155273,35.47029113769531
2853083.0,-109.0625991821289,-121.28449249267578,17.729652404785156,109.2657699584961,88.24112701416016,-8.533758163452148,35.40910720825195
2853087.0,-108.99563598632812,-121.26009368896484,17.706937789916992,109.1769027709961,88.2981948852539,-8.475753784179688,35.34785079956055
2853091.0,-108.92884063720703,-121.23555755615234,17.683757781982422,109.08812713623047,88.35527038574219,-8.417637825012207,35.28652572631836
2853095.0,-108.86219024658203,-121.21087646484375,17.660110473632812,108.99945068359375,88.41236114501953,-8.35940933227539,35.22513198852539
2853099.0,-108.79570007324219,-121.18604278564453,17.63599395751953,108.91085815429688,88.469482421875,-8.301069259643555,35.16367721557617
2853103.0,-108.72936248779297,-121.16107177734375,17.611412048339844,108.8223648071289,88.52661895751953,-8.242616653442383,35.102149963378906
2853107.0,-108.6631851196289,-121.13594818115234,17.586362838745117,108.73397827148438,88.58377075195312,-8.184053421020508,35.040557861328125
2853111.0,-108.59715270996094,-121.11066436767578,17.56084442138672,108.64567565917969,88.64094543457031,-8.125375747680664,34.97890853881836
2853115.0,-108.53128814697266,-121.08524322509766,17.534860610961914,108.55748748779297,88.6981430053711,-8.066587448120117,34.91719055175781
2853119.0,-108.46556854248047,-121.0596694946289,17.508407592773438,108.46939086914062,88.7553482055664,-8.007686614990234,34.85541534423828
2853123.0,-108.40000915527344,-121.03394317626953,17.481489181518555,108.38140869140625,88.8125991821289,-7.948673725128174,34.7935791015625
2853127.0,-108.33460998535156,-121.00808715820312,17.454099655151367,108.29351806640625,88.86984252929688,-7.889549255371094,34.73168182373047
2853131.0,-108.26935577392578,-120.98206329345703,17.426244735717773,108.20572662353516,88.92710876464844,-7.830312728881836,34.669734954833984
2853135.0,-108.20425415039062,-120.95588684082031,17.397918701171875,108.11804962158203,88.98440551757812,-7.770963191986084,34.607723236083984
2853139.0,-108.1393051147461,-120.9295654296875,17.36912727355957,108.03048706054688,89.0417251586914,-7.711503028869629,34.545654296875
2853143.0,-108.07451629638672,-120.90309143066406,17.33986473083496,107.94302368164062,89.09906005859375,-7.651930332183838,34.48353576660156
2853147.0,-108.00988006591797,-120.87645721435547,17.31013298034668,107.85567474365234,89.15641784667969,-7.592245578765869,34.42136001586914
2853151.0,-107.94538879394531,-120.84967803955078,17.27993392944336,107.7684326171875,89.21379852294922,-7.532447814941406,34.359130859375
2853155.0,-107.88105773925781,-120.82273864746094,17.2492618560791,107.6812973022461,89.27119445800781,-7.47253942489624,34.296852111816406
2853159.0,-107.81688690185547,-120.795654296875,17.218122482299805,107.59429168701172,89.32861328125,-7.412517547607422,34.23452377319336
2853163.0,-107.75285339355469,-120.76841735839844,17.186513900756836,107.50738525390625,89.38606262207031,-7.352384567260742,34.17214584350586
2853167.0,-107.68898010253906,-120.74101257324219,17.154434204101562,107.42060852050781,89.44353485107422,-7.292139530181885,34.109718322753906
2853171.0,-107.62525177001953,-120.71345520019531,17.121883392333984,107.33393096923828,89.50102233886719,-7.231781959533691,34.047245025634766
2853175.0,-107.56168365478516,-120.68574523925781,17.08885955810547,107.24738311767578,89.55853271484375,-7.171311855316162,33.98472595214844
2853179.0,-107.4982681274414,-120.65789031982422,17.05536651611328,107.16095733642578,89.6160659790039,-7.110730171203613,33.92216110229492
2853183.0,-107.43500518798828,-120.62986755371094,17.02140235900879,107.07465362548828,89.67362976074219,-7.050036430358887,33.85959243774414
2853187.0,-107.37189483642578,-120.60169219970703,16.98696517944336,106.98846435546875,89.73120880126953,-6.989229679107666,33.79695510864258
2853191.0,-107.3089370727539,-120.57335662841797,16.952056884765625,106.90240478515625,89.78881072998047,-6.928311824798584,33.7342529296875
2853195.0,-107.24612426757812,-120.54486083984375,16.916675567626953,106.81647491455078,89.84645080566406,-6.867280960083008,33.6715202331543
2853199.0,-107.18346405029297,-120.51622009277344,16.88081932067871,106.73065948486328,89.90409088134766,-6.8061370849609375,33.608760833740234
2853203.0,-107.1209487915039,-120.4874038696289,16.844491958618164,106.64498138427734,89.9617691040039,-6.7448811531066895,33.54597091674805
2853207.0,-107.05860137939453,-120.45843505859375,16.807689666748047,106.5594253540039,90.01947021484375,-6.683512210845947,33.48313522338867
2853211.0,-106.99639892578125,-120.4292984008789,16.770414352416992,106.47400665283203,90.07719421386719,-6.622030258178711,33.420257568359375
2853215.0,-106.93433380126953,-120.40000915527344,16.732667922973633,106.38871765136719,90.13494110107422,-6.560435771942139,33.35734558105469
2853219.0,-106.87242889404297,-120.37056732177734,16.694446563720703,106.30354309082031,90.19271850585938,-6.498727798461914,33.29439163208008
2853223.0,-106.8106689453125,-120.34095764160156,16.655750274658203,106.21852111816406,90.25050354003906,-6.436906814575195,33.231407165527344
2853227.0,-106.74906921386719,-120.31117248535156,16.616580963134766,106.13362121582031,90.3083267211914,-6.374972820281982,33.16838836669922
2853231.0,-106.6875991821289,-120.28124237060547,16.576940536499023,106.04885864257812,90.36617279052734,-6.312926292419434,33.1053352355957
2853235.0,-106.62628173828125,-120.25115203857422,16.536827087402344,105.9642333984375,90.42403411865234,-6.250766754150391,33.04225158691406
2853239.0,-106.56512451171875,-120.22089385986328,16.49624252319336,105.87974548339844,90.48192596435547,-6.188493728637695,32.97914123535156
2853243.0,-106.50409698486328,-120.19046783447266,16.455183029174805,105.79537963867188,90.53984832763672,-6.126108646392822,32.91600036621094
2853247.0,-106.44322967529297,-120.1598892211914,16.413652420043945,105.71117401123047,90.59779357910156,-6.063610076904297,32.85283279418945
2853251.0,-106.38251495361328,-120.12913513183594,16.371646881103516,105.62709045410156,90.65576171875,-6.000998497009277,32.78963851928711
2853255.0,-106.32225799560547,-120.09818267822266,16.329143524169922,105.5430908203125,90.71379852294922,-5.938272953033447,32.72724151611328
2853259.0,-106.26447296142578,-120.06766510009766,16.286542892456055,105.45919799804688,90.77186584472656,-5.8755340576171875,32.66787338256836
2853263.0,-106.20918273925781,-120.03778839111328,16.244123458862305,105.37594604492188,90.82959747314453,-5.813150405883789,32.61127471923828
2853267.0,-106.15583038330078,-120.00849151611328,16.202136993408203,105.29421997070312,90.88636779785156,-5.751773357391357,32.55692672729492
2853271.0,-106.1058349609375,-119.98038482666016,16.161346435546875,105.21509552001953,90.94141387939453,-5.692258358001709,32.50632095336914
2853275.0,-106.05963897705078,-119.95399475097656,16.12249183654785,105.1399917602539,90.99375915527344,-5.635646820068359,32.459598541259766
2853279.0,-106.01680755615234,-119.92947387695312,16.086238861083984,105.07048797607422,91.04228210449219,-5.583102226257324,32.41602325439453
2853283.0,-105.97753143310547,-119.90718078613281,16.053295135498047,105.00801849365234,91.08595275878906,-5.535732746124268,32.37569808959961
2853287.0,-105.94249725341797,-119.88749694824219,16.02433204650879,104.95374298095703,91.12395477294922,-5.494448661804199,32.33944320678711
2853291.0,-105.91065216064453,-119.87016296386719,15.99948787689209,104.90840911865234,91.15573120117188,-5.4598164558410645,32.30617141723633
2853295.0,-105.88214111328125,-119.85540771484375,15.978960037231445,104.87215423583984,91.18120574951172,-5.431929588317871,32.275550842285156
2853299.0,-105.85810852050781,-119.84356689453125,15.962804794311523,104.84439849853516,91.20072174072266,-5.410433292388916,32.24893569946289
2853303.0,-105.83775329589844,-119.83407592773438,15.950469017028809,104.82423400878906,91.21493530273438,-5.394659519195557,32.2259407043457
2853307.0,-105.82052612304688,-119.82666778564453,15.941391944885254,104.81043243408203,91.22470092773438,-5.383687973022461,32.20579147338867
2853311.0,-105.80683898925781,-119.82124328613281,15.935062408447266,104.801513671875,91.23103332519531,-5.376431465148926,32.18907165527344
2853315.0,-105.79678344726562,-119.8175048828125,15.930868148803711,104.79597473144531,91.23497009277344,-5.371830940246582,32.176368713378906
2853319.0,-105.78987884521484,-119.81507110595703,15.928202629089355,104.79266357421875,91.23735046386719,-5.369011402130127,32.167423248291016
2853323.0,-105.78538513183594,-119.81353759765625,15.926565170288086,104.79072570800781,91.2387466430664,-5.367329120635986,32.161495208740234
2853327.0,-105.7825698852539,-119.8126220703125,15.925586700439453,104.78959655761719,91.23955535888672,-5.3663458824157715,32.157737731933594
2853331.0,-105.7808609008789,-119.81206512451172,15.92501163482666,104.78897094726562,91.24000549316406,-5.365781307220459,32.15542984008789
2853335.0,-105.77983856201172,-119.81175231933594,15.92467975616455,104.78860473632812,91.24027252197266,-5.365461349487305,32.154052734375
2853339.0,-105.77925872802734,-119.81156158447266,15.924491882324219,104.78840637207031,91.24040985107422,-5.365280628204346,32.15324401855469
2853343.0,-105.77891540527344,-119.81144714355469,15.924386024475098,104.78829956054688,91.24048614501953,-5.365180492401123,32.15277862548828
2853347.0,-105.78152465820312,-119.81233978271484,15.924936294555664,104.78829956054688,91.24047088623047,-5.365268230438232,32.1556510925293
2853351.0,-105.78846740722656,-119.81456756591797,15.926578521728516,104.78897857666016,91.23995971679688,-5.36607027053833,32.16411209106445
2853355.0,-105.79850769042969,-119.81787109375,15.92961311340332,104.79168701171875,91.23798370361328,-5.368588924407959,32.17683410644531
2853359.0,-105.81341552734375,-119.82331085205078,15.935205459594727,104.7982406616211,91.23328399658203,-5.3741631507873535,32.195068359375
2853363.0,-105.83417510986328,-119.8316421508789,15.944515228271484,104.81082153320312,91.22432708740234,-5.384420394897461,32.219364166259766
2853367.0,-105.85741424560547,-119.84220123291016,15.957866668701172,104.83191680908203,91.20942687988281,-5.401049613952637,32.24570083618164
2853371.0,-105.88256072998047,-119.85498809814453,15.975785255432129,104.86317443847656,91.18740844726562,-5.425259590148926,32.27338790893555
2853375.0,-105.91156768798828,-119.87091064453125,15.998910903930664,104.90522003173828,91.15787506103516,-5.457486629486084,32.303932189941406
2853379.0,-105.94352722167969,-119.88960266113281,16.026874542236328,104.95774841308594,91.12104797363281,-5.497447490692139,32.33631134033203
2853383.0,-105.97874450683594,-119.91077423095703,16.059064865112305,105.01949310302734,91.07783508300781,-5.544221878051758,32.37157440185547
2853387.0,-106.01884460449219,-119.93446350097656,16.09486198425293,105.0885009765625,91.02961730957031,-5.596427917480469,32.412109375
2853391.0,-106.06430053710938,-119.96044158935547,16.133438110351562,105.16275024414062,90.977783203125,-5.652573108673096,32.45863342285156
2853395.0,-106.11441802978516,-119.9882583618164,16.173912048339844,105.24057006835938,90.92354583740234,-5.71136474609375,32.51044845581055
2853399.0,-106.16812133789062,-120.01732635498047,16.21552276611328,105.32072448730469,90.8677749633789,-5.771825790405273,32.5662841796875
2853403.0,-106.22434997558594,-120.04717254638672,16.25770378112793,105.40237426757812,90.8110580444336,-5.833278179168701,32.624900817871094
2853407.0,-106.28227996826172,-120.07744598388672,16.3000545501709,105.48497009277344,90.7538070678711,-5.8952836990356445,32.685333251953125
2853411.0,-106.34131622314453,-120.10794830322266,16.342327117919922,105.56818389892578,90.69623565673828,-5.95756721496582,32.74689865112305
2853415.0,-106.40108489990234,-120.13850402832031,16.384355545043945,105.65180206298828,90.63850402832031,-6.019964694976807,32.80913543701172
2853419.0,-106.46135711669922,-120.16902160644531,16.426042556762695,105.7357177734375,90.58068084716797,-6.082378387451172,32.87175750732422
2853423.0,-106.52200317382812,-120.199462890625,16.467336654663086,105.81986999511719,90.52281951904297,-6.144752502441406,32.934600830078125
2853427.0,-106.5829086303711,-120.22978973388672,16.508197784423828,105.90420532226562,90.46495819091797,-6.207052707672119,32.997554779052734
2853431.0,-106.64403533935547,-120.25996398925781,16.548612594604492,105.98870849609375,90.4070816040039,-6.26926326751709,33.0605583190918
2853435.0,-106.7053451538086,-120.29000091552734,16.588565826416016,106.07334899902344,90.34922790527344,-6.33137321472168,33.12357711791992
2853439.0,-106.7668228149414,-120.31986236572266,16.628055572509766,106.15814208984375,90.29139709472656,-6.393376350402832,33.18659210205078
2853443.0,-106.82845306396484,-120.3495864868164,16.66707420349121,106.2430648803711,90.23358917236328,-6.455271244049072,33.24958801269531
2853447.0,-106.89025115966797,-120.379150390625,16.705623626708984,106.32814025878906,90.17579650878906,-6.517054557800293,33.312557220458984
2853451.0,-106.95220184326172,-120.4085464477539,16.74370002746582,106.41333770751953,90.11803436279297,-6.578726768493652,33.37549591064453
2853455.0,-107.01429748535156,-120.43778228759766,16.78130531311035,106.49866485595703,90.060302734375,-6.640286445617676,33.43840789794922
2853459.0,-107.07655334472656,-120.46686553955078,16.818435668945312,106.58413696289062,90.00257873535156,-6.701733589172363,33.50128173828125
2853463.0,-107.13895416259766,-120.49578094482422,16.85509490966797,106.66973114013672,89.94488525390625,-6.763068675994873,33.56412124633789
2853467.0,-107.20150756835938,-120.5245361328125,16.891279220581055,106.75544738769531,89.88722229003906,-6.824290752410889,33.62691879272461
2853471.0,-107.26421356201172,-120.55313873291016,16.926992416381836,106.84130096435547,89.82958221435547,-6.885401248931885,33.68968200683594
2853475.0,-107.32706451416016,-120.58158111572266,16.962230682373047,106.92727661132812,89.77195739746094,-6.946398735046387,33.752403259277344
2853479.0,-107.39007568359375,-120.60987091064453,16.99699592590332,107.01337432861328,89.71435546875,-7.007284641265869,33.815086364746094
2853483.0,-107.45323181152344,-120.63800048828125,17.03129005432129,107.09960174560547,89.65679168701172,-7.068057537078857,33.87775802612305
2853487.0,-107.51654815673828,-120.66597747802734,17.065113067626953,107.18595123291016,89.59923553466797,-7.12871789932251,33.940372467041016
2853491.0,-107.58000946044922,-120.69378662109375,17.098461151123047,107.27241516113281,89.54170989990234,-7.189265727996826,34.00291442871094
2853495.0,-107.64363098144531,-120.72145080566406,17.13134002685547,107.35900115966797,89.48420715332031,-7.2497029304504395,34.065425872802734
2853499.0,-107.7073974609375,-120.74896240234375,17.16374969482422,107.44570922851562,89.42672729492188,-7.310027122497559,34.12790298461914
2853503.0,-107.77131652832031,-120.77631378173828,17.195688247680664,107.53251647949219,89.36927032470703,-7.370238780975342,34.190330505371094
2853507.0,-107.83538818359375,-120.80350494384766,17.227153778076172,107.61946105957031,89.31183624267578,-7.430338382720947,34.252708435058594
2853511.0,-107.89961242675781,-120.8305435180664,17.25815200805664,107.7065200805664,89.2544174194336,-7.490326404571533,34.315032958984375
2853515.0,-107.96399688720703,-120.85742950439453,17.288679122924805,107.79368591308594,89.19702911376953,-7.550201416015625,34.3773078918457
2853519.0,-108.02853393554688,-120.8841552734375,17.318737030029297,107.88095092773438,89.13965606689453,-7.609964847564697,34.43952178955078
2853523.0,-108.09321594238281,-120.9107437133789,17.348325729370117,107.96833801269531,89.08231353759766,-7.669616222381592,34.50168228149414
2853527.0,-108.1580581665039,-120.93717193603516,17.377445220947266,108.05583953857422,89.02497863769531,-7.729155540466309,34.56379318237305
2853531.0,-108.22305297851562,-120.96345520019531,17.406099319458008,108.14344024658203,88.96766662597656,-7.788582801818848,34.6258430480957
2853535.0,-108.28819274902344,-120.98957824707031,17.434282302856445,108.23114776611328,88.91039276123047,-7.847898483276367,34.687835693359375
2853539.0,-108.35348510742188,-121.01555633544922,17.46199607849121,108.3189697265625,88.8531265258789,-7.907101631164551,34.74977493286133
2853543.0,-108.4189453125,-121.04138946533203,17.48924446105957,108.40689086914062,88.7958755493164,-7.966192245483398,34.81165313720703
2853547.0,-108.48455810546875,-121.06707000732422,17.516023635864258,108.49491119384766,88.7386474609375,-8.025172233581543,34.873470306396484
2853551.0,-108.5503158569336,-121.09259033203125,17.54233741760254,108.58303833007812,88.68144226074219,-8.084039688110352,34.93523025512695
2853555.0,-108.6162338256836,-121.11797332763672,17.568180084228516,108.6712646484375,88.62425994873047,-8.142793655395508,34.996925354003906
2853559.0,-108.68231201171875,-121.14320373535156,17.59355926513672,108.75958251953125,88.56709289550781,-8.201437950134277,35.058563232421875
2853563.0,-108.74853515625,-121.16828155517578,17.61846923828125,108.84800720214844,88.50994110107422,-8.259967803955078,35.1201286315918
2853567.0,-108.8149185180664,-121.1932144165039,17.642913818359375,108.9365234375,88.45281219482422,-8.318387985229492,35.181640625
2853571.0,-108.8814468383789,-121.21800231933594,17.666889190673828,109.02513885498047,88.39569854736328,-8.376694679260254,35.24307632446289
2853575.0,-108.94815063476562,-121.24264526367188,17.690401077270508,109.11384582519531,88.33860778808594,-8.43488883972168,35.30445098876953
2853579.0,-109.0149917602539,-121.26714324951172,17.713443756103516,109.2026596069336,88.28153991699219,-8.492971420288086,35.365753173828125
2853583.0,-109.08199310302734,-121.2914810180664,17.73602294921875,109.29154968261719,88.22447204589844,-8.550941467285156,35.4269905090332
2853587.0,-109.14915466308594,-121.31568908691406,17.75813102722168,109.38053131103516,88.16743469238281,-8.608800888061523,35.488155364990234
2853591.0,-109.21647644042969,-121.3397445678711,17.77977752685547,109.4696044921875,88.11042022705078,-8.666545867919922,35.54924774169922
2853595.0,-109.28394317626953,-121.36366271972656,17.800954818725586,109.55876922607422,88.05341339111328,-8.724180221557617,35.61027145385742
2853599.0,-109.35157775878906,-121.38742065429688,17.82166862487793,109.64801788330078,87.99642944335938,-8.78170108795166,35.67121887207031
2853603.0,-109.41935729980469,-121.41104125976562,17.841915130615234,109.73736572265625,87.93946838378906,-8.839110374450684,35.732093811035156
2853607.0,-109.4873046875,-121.43452453613281,17.8616943359375,109.82678985595703,87.88251495361328,-8.896408081054688,35.79289245605469
2853611.0,-109.55541229248047,-121.45787048339844,17.88100814819336,109.91629028320312,87.8255844116211,-8.953591346740723,35.853614807128906
2853615.0,-109.62366485595703,-121.48106384277344,17.899856567382812,110.00587463378906,87.76866149902344,-9.010663986206055,35.91425704956055
2853619.0,-109.69208526611328,-121.50410461425781,17.918235778808594,110.09555053710938,87.71176147460938,-9.067622184753418,35.974822998046875
2853623.0,-109.76065826416016,-121.5270004272461,17.936153411865234,110.18528747558594,87.65486907958984,-9.124469757080078,36.03530502319336
2853627.0,-109.82939147949219,-121.54977416992188,17.953601837158203,110.2751235961914,87.59800720214844,-9.181203842163086,36.0957145690918
2853631.0,-109.89827728271484,-121.57239532470703,17.970584869384766,110.36503601074219,87.54114532470703,-9.237824440002441,36.156036376953125
2853635.0,-109.96733093261719,-121.59487915039062,17.987102508544922,110.45501708984375,87.48431396484375,-9.294333457946777,36.21627426147461
2853639.0,-110.03654479980469,-121.61723327636719,18.003150939941406,110.54507446289062,87.427490234375,-9.350728988647461,36.276432037353516
2853643.0,-110.10591125488281,-121.6394271850586,18.018733978271484,110.63521575927734,87.37067413330078,-9.407011985778809,36.33650207519531
2853647.0,-110.1754379272461,-121.66149139404297,18.03385353088379,110.72541809082031,87.31388854980469,-9.463181495666504,36.396488189697266
2853651.0,-110.24512481689453,-121.68340301513672,18.04850196838379,110.8156967163086,87.25711059570312,-9.519238471984863,36.456382751464844
2853655.0,-110.31497192382812,-121.70519256591797,18.062686920166016,110.90605163574219,87.2003402709961,-9.57518196105957,36.51618957519531
2853659.0,-110.3849868774414,-121.7268295288086,18.07640266418457,110.99646759033203,87.14360046386719,-9.631012916564941,36.57590866088867
2853663.0,-110.45514678955078,-121.74832916259766,18.08965301513672,111.08695983886719,87.08686065673828,-9.686729431152344,36.635536193847656
2853667.0,-110.5254898071289,-121.76969146728516,18.102434158325195,111.17752075195312,87.03014373779297,-9.742332458496094,36.695072174072266
2853671.0,-110.59597778320312,-121.79090881347656,18.114749908447266,111.26815032958984,86.97342681884766,-9.797822952270508,36.754520416259766
2853675.0,-110.6666259765625,-121.81199645996094,18.126596450805664,111.35883331298828,86.91673278808594,-9.853199005126953,36.813865661621094
2853679.0,-110.73744201660156,-121.83295440673828,18.137975692749023,111.44959259033203,86.86005401611328,-9.908462524414062,36.87312316894531
2853683.0,-110.80841827392578,-121.853759765625,18.14888572692871,111.54041290283203,86.80338287353516,-9.963611602783203,36.93227767944336
2853687.0,-110.87956237792969,-121.87442779541016,18.159326553344727,111.63128662109375,86.7467269897461,-10.018646240234375,36.991336822509766
2853691.0,-110.95085906982422,-121.89497375488281,18.169300079345703,111.72222137451172,86.6900863647461,-10.073566436767578,37.05030059814453
2853695.0,-111.02233123779297,-121.91536712646484,18.178804397583008,111.81322479248047,86.63346099853516,-10.128371238708496,37.10915756225586
2853699.0,-111.09395599365234,-121.93562316894531,18.187837600708008,111.9042739868164,86.57683563232422,-10.183062553405762,37.16791534423828
2853703.0,-111.16574096679688,-121.95576477050781,18.19640350341797,111.99539947509766,86.52022552490234,-10.237638473510742,37.2265739440918
2853707.0,-111.23770141601562,-121.97574615478516,18.204498291015625,112.08656311035156,86.46363830566406,-10.292099952697754,37.285125732421875
2853711.0,-111.30982208251953,-121.99559783935547,18.21212387084961,112.17778778076172,86.40704345703125,-10.346445083618164,37.34357452392578
2853715.0,-111.38211059570312,-122.01531982421875,18.219280242919922,112.26905822753906,86.35047149658203,-10.400674819946289,37.40191650390625
2853719.0,-111.45455169677734,-122.034912109375,18.225971221923828,112.36038208007812,86.29390716552734,-10.454791069030762,37.460147857666016
2853723.0,-111.52715301513672,-122.05435943603516,18.232192993164062,112.45176696777344,86.23735046386719,-10.508790969848633,37.51827621459961
2853727.0,-111.59992980957031,-122.07366180419922,18.237947463989258,112.54318237304688,86.18080139160156,-10.562676429748535,37.57630157470703
2853731.0,-111.67286682128906,-122.09284210205078,18.243236541748047,112.63465881347656,86.12425231933594,-10.616445541381836,37.63420486450195
2853735.0,-111.74596405029297,-122.11190032958984,18.248056411743164,112.7261734008789,86.0677261352539,-10.670100212097168,37.69200134277344
2853739.0,-111.8192367553711,-122.13082122802734,18.252412796020508,112.81774139404297,86.0112075805664,-10.723639488220215,37.749691009521484
2853743.0,-111.89266204833984,-122.14960479736328,18.256303787231445,112.90933990478516,85.95469665527344,-10.777063369750977,37.807273864746094
2853747.0,-111.96624755859375,-122.16825103759766,18.259729385375977,113.00099182128906,85.89817810058594,-10.83037281036377,37.86473083496094
2853751.0,-112.04000091552734,-122.18678283691406,18.2626895904541,113.0926742553711,85.8416748046875,-10.883566856384277,37.92207717895508
2853755.0,-112.11390686035156,-122.20516967773438,18.265188217163086,113.18440246582031,85.7851791381836,-10.936644554138184,37.97931671142578
2853759.0,-112.18799591064453,-122.22343444824219,18.267221450805664,113.27617645263672,85.72869873046875,-10.989606857299805,38.036434173583984
2853763.0,-112.26223754882812,-122.24156188964844,18.2687931060791,113.36797332763672,85.67221069335938,-11.042454719543457,38.09343338012695
2853767.0,-112.33663177490234,-122.25955200195312,18.269901275634766,113.45980834960938,85.61573028564453,-11.095187187194824,38.15031814575195
2853771.0,-112.41120910644531,-122.27742004394531,18.27054786682129,113.55168914794922,85.55925750732422,-11.14780330657959,38.20708084106445
2853775.0,-112.4859390258789,-122.295166015625,18.27073097229004,113.64360809326172,85.50279235839844,-11.200305938720703,38.263729095458984
2853779.0,-112.56082916259766,-122.31277465820312,18.27045440673828,113.73554229736328,85.44631958007812,-11.252691268920898,38.320255279541016
2853783.0,-112.63587951660156,-122.33026123046875,18.26971435546875,113.8275146484375,85.38986206054688,-11.304962158203125,38.37665939331055
2853787.0,-112.71109771728516,-122.34762573242188,18.268516540527344,113.91951751708984,85.33340454101562,-11.357117652893066,38.43293762207031
2853791.0,-112.78649139404297,-122.3648452758789,18.266857147216797,114.01155090332031,85.2769546508789,-11.409156799316406,38.489097595214844
2853795.0,-112.86203002929688,-122.3819351196289,18.264738082885742,114.10360717773438,85.22050476074219,-11.461080551147461,38.54513168334961
2853799.0,-112.93773651123047,-122.39891815185547,18.26215934753418,114.19568634033203,85.1640625,-11.51288890838623,38.601043701171875
2853803.0,-113.01361083984375,-122.415771484375,18.259119033813477,114.28780364990234,85.10760498046875,-11.564580917358398,38.65682601928711
2853807.0,-113.08964538574219,-122.43247985839844,18.2556209564209,114.37993621826172,85.0511703491211,-11.616158485412598,38.71248245239258
2853811.0,-113.16584014892578,-122.44908142089844,18.251663208007812,114.47208404541016,84.9947280883789,-11.667618751525879,38.768009185791016
2853815.0,-113.24219512939453,-122.46553802490234,18.24724578857422,114.56426239013672,84.93827819824219,-11.718962669372559,38.8233757019043
2853819.0,-113.318603515625,-122.48186492919922,18.24236297607422,114.65646362304688,84.88184356689453,-11.770188331604004,38.87851333618164
2853823.0,-113.3951187133789,-122.49805450439453,18.23702049255371,114.7486572265625,84.82540893554688,-11.821281433105469,38.93343734741211
2853827.0,-113.47171020507812,-122.51409149169922,18.231224060058594,114.84080505371094,84.7690200805664,-11.872227668762207,38.988162994384766
2853831.0,-113.54834747314453,-122.52997589111328,18.2249755859375,114.93287658691406,84.71268463134766,-11.923005104064941,39.04264450073242
2853835.0,-113.625,-122.54572296142578,18.21828269958496,115.02482604980469,84.65644073486328,-11.973587989807129,39.096885681152344
2853839.0,-113.70125579833984,-122.56116485595703,18.210994720458984,115.1166763305664,84.60025024414062,-12.023945808410645,39.149600982666016
2853843.0,-113.77348327636719,-122.57568359375,18.203073501586914,115.20821380615234,84.54426574707031,-12.073904991149902,39.19765090942383
2853847.0,-113.84259796142578,-122.58942413330078,18.19469451904297,115.29852294921875,84.48902893066406,-12.123004913330078,39.242122650146484
2853851.0,-113.90848541259766,-122.60240173339844,18.18606948852539,115.38619995117188,84.43541717529297,-12.17051887512207,39.28331756591797
2853855.0,-113.96858215332031,-122.61415100097656,18.17740821838379,115.46956634521484,84.3844223022461,-12.215536117553711,39.31935501098633
2853859.0,-114.02232360839844,-122.62458801269531,18.169090270996094,115.5465316772461,84.33736419677734,-12.256965637207031,39.350624084472656
2853863.0,-114.07037353515625,-122.63386535644531,18.161540985107422,115.61475372314453,84.29564666748047,-12.293645858764648,39.378562927246094
2853867.0,-114.11573028564453,-122.6424789428711,18.15509033203125,115.67243957519531,84.2603759765625,-12.324692726135254,39.40619659423828
2853871.0,-114.15593719482422,-122.6501693725586,18.150144577026367,115.71878814697266,84.2320556640625,-12.349752426147461,39.4334716796875
2853875.0,-114.19017791748047,-122.65676879882812,18.146596908569336,115.754150390625,84.21044158935547,-12.368988990783691,39.458961486816406
2853879.0,-114.21973419189453,-122.66242980957031,18.144214630126953,115.77963256835938,84.19489288330078,-12.382954597473145,39.48256301879883
2853883.0,-114.24420166015625,-122.66716766357422,18.14292335510254,115.79682922363281,84.18438720703125,-12.39254093170166,39.50434875488281
2853887.0,-114.26300811767578,-122.6708984375,18.142433166503906,115.80781555175781,84.17769622802734,-12.39880084991455,39.523155212402344
2853891.0,-114.27642059326172,-122.67362976074219,18.142370223999023,115.81452941894531,84.1736068725586,-12.402728080749512,39.53782272338867
2853895.0,-114.2854232788086,-122.67549896240234,18.142467498779297,115.81853485107422,84.17117309570312,-12.405115127563477,39.548309326171875
2853899.0,-114.29119110107422,-122.67671203613281,18.14259910583496,115.82085418701172,84.16976928710938,-12.406529426574707,39.55533981323242
2853903.0,-114.29475402832031,-122.6774673461914,18.142709732055664,115.82218170166016,84.16896057128906,-12.40735149383545,39.55983352661133
2853907.0,-114.29690551757812,-122.67793273925781,18.142791748046875,115.82292175292969,84.16851043701172,-12.407820701599121,39.56260681152344
2853911.0,-114.29816436767578,-122.67820739746094,18.142845153808594,115.8233413696289,84.16825866699219,-12.408086776733398,39.564266204833984
2853915.0,-114.29889678955078,-122.6783676147461,18.142879486083984,115.82357788085938,84.1681137084961,-12.408236503601074,39.56524658203125
2853919.0,-114.29962158203125,-122.67843627929688,18.142057418823242,115.82372283935547,84.1679916381836,-12.408203125,39.56583023071289
2853923.0,-114.30045318603516,-122.6786117553711,18.1397647857666,115.8238525390625,84.16767120361328,-12.407578468322754,39.566322326660156
2853927.0,-114.30138397216797,-122.67880249023438,18.1354923248291,115.8238525390625,84.16670227050781,-12.405557632446289,39.566734313964844
2853931.0,-114.30301666259766,-122.67865753173828,18.127437591552734,115.82359313964844,84.16452026367188,-12.401063919067383,39.56692886352539
2853935.0,-114.30560302734375,-122.67805480957031,18.113903045654297,115.82294464111328,84.16048431396484,-12.39278507232666,39.56687545776367
2853939.0,-114.30931091308594,-122.6767578125,18.09341049194336,115.82170104980469,84.1538314819336,-12.37923526763916,39.566436767578125
2853943.0,-114.31465911865234,-122.6743392944336,18.063901901245117,115.81969451904297,84.14378356933594,-12.35893440246582,39.56536865234375
2853947.0,-114.32199096679688,-122.67059326171875,18.023521423339844,115.8167495727539,84.12967681884766,-12.330499649047852,39.563560485839844
2853951.0,-114.33155059814453,-122.66532135009766,17.97076988220215,115.81269073486328,84.11087036132812,-12.292694091796875,39.56089782714844
2853955.0,-114.34375762939453,-122.65827178955078,17.90391731262207,115.80742645263672,84.08683013916016,-12.244436264038086,39.557254791259766
2853959.0,-114.35881042480469,-122.6493911743164,17.821590423583984,115.80087280273438,84.05707550048828,-12.184752464294434,39.552608489990234
2853963.0,-114.37702941894531,-122.63824462890625,17.722789764404297,115.79285430908203,84.02113342285156,-12.112760543823242,39.54671096801758
2853967.0,-114.39793395996094,-122.6247787475586,17.608314514160156,115.7832260131836,83.97874450683594,-12.02799129486084,39.539451599121094
2853971.0,-114.42189025878906,-122.60900115966797,17.477609634399414,115.77206420898438,83.93004608154297,-11.930693626403809,39.53081512451172
2853975.0,-114.44873809814453,-122.59110260009766,17.331621170043945,115.75950622558594,83.8755111694336,-11.82177734375,39.52096939086914
2853979.0,-114.47791290283203,-122.57136535644531,17.17265510559082,115.74568176269531,83.81581115722656,-11.702635765075684,39.51005172729492
2853983.0,-114.50908660888672,-122.55021667480469,17.00265884399414,115.73087310791016,83.75191497802734,-11.575104713439941,39.49834060668945
2853987.0,-114.54190826416016,-122.5281753540039,16.823728561401367,115.71541595458984,83.68486022949219,-11.441234588623047,39.486167907714844
2853991.0,-114.57598876953125,-122.505615234375,16.638105392456055,115.69950103759766,83.6156005859375,-11.302901268005371,39.47378921508789
2853995.0,-114.61091613769531,-122.48279571533203,16.447795867919922,115.683349609375,83.54488372802734,-11.161590576171875,39.461326599121094
2853999.0,-114.64642333984375,-122.45983123779297,16.254364013671875,115.66703033447266,83.47322845458984,-11.018367767333984,39.448848724365234
2854003.0,-114.68228912353516,-122.43679809570312,16.058917999267578,115.650634765625,83.40100860595703,-10.873944282531738,39.43636703491211
2854007.0,-114.71839904785156,-122.41372680664062,15.86219596862793,115.63418579101562,83.32841491699219,-10.728768348693848,39.42388916015625
2854011.0,-114.75465393066406,-122.390625,15.664663314819336,115.6176986694336,83.25558471679688,-10.583113670349121,39.411415100097656
2854015.0,-114.791015625,-122.36751556396484,15.466601371765137,115.6011962890625,83.1826171875,-10.43714427947998,39.39894104003906
2854019.0,-114.82744598388672,-122.34436798095703,15.268180847167969,115.58465576171875,83.10952758789062,-10.290953636169434,39.3864631652832
2854023.0,-114.86392211914062,-122.32122039794922,15.069502830505371,115.568115234375,83.0363540649414,-10.144598960876465,39.373985290527344
2854027.0,-114.90043640136719,-122.29806518554688,14.870619773864746,115.55155944824219,82.96311950683594,-9.998108863830566,39.36149597167969
2854031.0,-114.93697357177734,-122.2748794555664,14.671566009521484,115.53498840332031,82.88983154296875,-9.85150146484375,39.348995208740234
2854035.0,-114.97354888916016,-122.2516860961914,14.472358703613281,115.51841735839844,82.81647491455078,-9.70478630065918,39.33649444580078
2854039.0,-115.01013946533203,-122.22846221923828,14.273004531860352,115.50182342529297,82.74308776855469,-9.557967185974121,39.3239860534668
2854043.0,-115.04676818847656,-122.20523834228516,14.073513984680176,115.48522186279297,82.66963958740234,-9.411046028137207,39.311466217041016
2854047.0,-115.08341217041016,-122.1820068359375,13.87388801574707,115.46861267089844,82.59613800048828,-9.264028549194336,39.29893493652344
2854051.0,-115.1200942993164,-122.15873718261719,13.674125671386719,115.45198822021484,82.52259063720703,-9.116910934448242,39.286399841308594
2854055.0,-115.15678405761719,-122.13545989990234,13.474230766296387,115.43534851074219,82.4489974975586,-8.969695091247559,39.27385330200195
2854059.0,-115.19351959228516,-122.1121826171875,13.274202346801758,115.41870880126953,82.37535095214844,-8.822381019592285,39.26130294799805
2854063.0,-115.23026275634766,-122.08888244628906,13.074041366577148,115.40204620361328,82.3016586303711,-8.674968719482422,39.248741149902344
2854067.0,-115.26703643798828,-122.06556701660156,12.87374496459961,115.3853759765625,82.22792053222656,-8.527459144592285,39.23617172241211
2854071.0,-115.3038558959961,-122.04222869873047,12.673315048217773,115.36869812011719,82.15411376953125,-8.379849433898926,39.22359848022461
2854075.0,-115.34066772460938,-122.01887512207031,12.47275161743164,115.35200500488281,82.08027648925781,-8.232141494750977,39.21100616455078
2854079.0,-115.37751007080078,-121.99551391601562,12.272052764892578,115.33531188964844,82.00638580322266,-8.084335327148438,39.19841384887695
2854083.0,-115.41438293457031,-121.97212982177734,12.071221351623535,115.31859588623047,81.93244934082031,-7.936429977416992,39.18581008911133
2854087.0,-115.45127868652344,-121.94873809814453,11.870254516601562,115.30187225341797,81.85845947265625,-7.788424015045166,39.17320251464844
2854091.0,-115.48819732666016,-121.92532348632812,11.66915225982666,115.28514099121094,81.78441619873047,-7.64031982421875,39.160579681396484
2854095.0,-115.52513885498047,-121.90190124511719,11.467915534973145,115.26839447021484,81.7103271484375,-7.492115497589111,39.14794921875
2854099.0,-115.56210327148438,-121.8784408569336,11.266541481018066,115.25163269042969,81.63618469238281,-7.343811988830566,39.13531494140625
2854103.0,-115.59910583496094,-121.85498809814453,11.065032958984375,115.23485565185547,81.56199645996094,-7.195408821105957,39.12267303466797
2854107.0,-115.63611602783203,-121.8315200805664,10.863389015197754,115.21807861328125,81.48774719238281,-7.04690408706665,39.110015869140625
2854111.0,-115.67317199707031,-121.80802154541016,10.661606788635254,115.2012939453125,81.41346740722656,-6.8983001708984375,39.09735107421875
2854115.0,-115.71025085449219,-121.78450012207031,10.459689140319824,115.18448638916016,81.33911895751953,-6.749595642089844,39.08468246459961
2854119.0,-115.7473373413086,-121.76099395751953,10.257636070251465,115.16767120361328,81.26473236083984,-6.600789546966553,39.07200622558594
2854123.0,-115.78446960449219,-121.73744201660156,10.05544376373291,115.15084075927734,81.19029235839844,-6.451883316040039,39.0593147277832
2854127.0,-115.82160949707031,-121.7138900756836,9.853116035461426,115.13400268554688,81.11579895019531,-6.302875518798828,39.0466194152832
2854131.0,-115.85877990722656,-121.69032287597656,9.650649070739746,115.11715698242188,81.041259765625,-6.153767108917236,39.033912658691406
2854135.0,-115.8959732055664,-121.66673278808594,9.44804573059082,115.10030364990234,80.96666717529297,-6.004556179046631,39.02119827270508
2854139.0,-115.93319702148438,-121.64312744140625,9.245302200317383,115.08342742919922,80.89202117919922,-5.855244159698486,39.00847625732422
2854143.0,-115.9704360961914,-121.61951446533203,9.042421340942383,115.06654357910156,80.81732940673828,-5.705829620361328,38.99574661254883
2854147.0,-116.00770568847656,-121.59587860107422,8.839400291442871,115.04964447021484,80.7425765991211,-5.556312561035156,38.98300552368164
2854151.0,-116.04501342773438,-121.57221984863281,8.636240005493164,115.0327377319336,80.66777801513672,-5.406692028045654,38.97025680541992
2854155.0,-116.08230590820312,-121.54857635498047,8.432939529418945,115.01582336425781,80.59292602539062,-5.2569684982299805,38.95749282836914
2854159.0,-116.1196517944336,-121.52490234375,8.229496955871582,114.9989013671875,80.51802825927734,-5.107141017913818,38.94472122192383
2854163.0,-116.15704345703125,-121.50118255615234,8.025914192199707,114.98194885253906,80.44307708740234,-4.957209587097168,38.93194580078125
2854167.0,-116.1944580078125,-121.47747039794922,7.822188854217529,114.96499633789062,80.3680648803711,-4.807173252105713,38.919158935546875
2854171.0,-116.23187255859375,-121.45374298095703,7.618322372436523,114.94802856445312,80.29300689697266,-4.657033443450928,38.906368255615234
2854175.0,-116.26931762695312,-121.42998504638672,7.414312362670898,114.93104553222656,80.21790313720703,-4.5067877769470215,38.8935546875
2854179.0,-116.3067855834961,-121.40623474121094,7.210160255432129,114.91407012939453,80.14273834228516,-4.3564372062683105,38.88074493408203
2854183.0,-116.34428405761719,-121.3824462890625,7.005866527557373,114.8970718383789,80.06752014160156,-4.205982208251953,38.867923736572266
2854187.0,-116.38180541992188,-121.35865020751953,6.801429271697998,114.88005065917969,79.99225616455078,-4.055421829223633,38.85508728027344
2854191.0,-116.41935729980469,-121.3348388671875,6.596848964691162,114.86302185058594,79.91693878173828,-3.9047555923461914,38.84225082397461
2854195.0,-116.45693969726562,-121.31100463867188,6.392126083374023,114.84600067138672,79.84156036376953,-3.753984212875366,38.829402923583984
2854199.0,-116.49454498291016,-121.28717041015625,6.187258243560791,114.82893371582031,79.7661361694336,-3.603107213973999,38.816551208496094
2854203.0,-116.53219604492188,-121.26329040527344,5.982247829437256,114.81187438964844,79.6906509399414,-3.4521243572235107,38.80368423461914
2854207.0,-116.56985473632812,-121.23939514160156,5.777093410491943,114.79481506347656,79.61512756347656,-3.3010356426239014,38.790809631347656
2854211.0,-116.6075439453125,-121.21550750732422,5.5717949867248535,114.77772521972656,79.53953552246094,-3.1498405933380127,38.77792739868164
2854215.0,-116.645263671875,-121.19158935546875,5.366352081298828,114.76063537597656,79.4638900756836,-2.998539447784424,38.765037536621094
2854219.0,-116.6830062866211,-121.16765594482422,5.160765171051025,114.74351501464844,79.3882064819336,-2.8471322059631348,38.75213623046875
2854223.0,-116.72076416015625,-121.14369201660156,4.955033302307129,114.72640228271484,79.31246185302734,-2.695618152618408,38.73922348022461
2854227.0,-116.75857543945312,-121.11972045898438,4.749157428741455,114.70927429199219,79.23666381835938,-2.5439977645874023,38.7263069152832
2854231.0,-116.79640197753906,-121.09573364257812,4.543135166168213,114.69213104248047,79.16081237792969,-2.392270088195801,38.713375091552734
2854235.0,-116.8342514038086,-121.07173156738281,4.336968898773193,114.67495727539062,79.08490753173828,-2.24043607711792,38.700435638427734
2854239.0,-116.87213134765625,-121.04771423339844,4.130657196044922,114.65778350830078,79.00894927978516,-2.0884947776794434,38.6874885559082
2854243.0,-116.91004180908203,-121.02367401123047,3.924199342727661,114.64061737060547,78.93292999267578,-1.9364464282989502,38.674537658691406
2854247.0,-116.94795989990234,-120.9996337890625,3.7175965309143066,114.62342834472656,78.85687255859375,-1.7842907905578613,38.66157150268555
2854251.0,-116.98592376708984,-120.9755630493164,3.510847568511963,114.60621643066406,78.78075408935547,-1.632027506828308,38.648597717285156
2854255.0,-117.0239028930664,-120.95147705078125,3.303952217102051,114.58899688720703,78.70457458496094,-1.4796568155288696,38.63561248779297
2854259.0,-117.06192016601562,-120.9273681640625,3.0969111919403076,114.57176971435547,78.62835693359375,-1.3271782398223877,38.62261962890625
2854263.0,-117.09994506835938,-120.90324401855469,2.8897228240966797,114.55452728271484,78.55207061767578,-1.1745920181274414,38.609619140625
2854267.0,-117.13800811767578,-120.87910461425781,2.6823883056640625,114.53727722167969,78.47573852539062,-1.021897554397583,38.59660339355469
2854271.0,-117.17610168457031,-120.85494995117188,2.4749069213867188,114.52000427246094,78.39934539794922,-0.8690950870513916,38.583587646484375
2854275.0,-117.2142333984375,-120.83077239990234,2.2672786712646484,114.50272369384766,78.3228988647461,-0.7161843776702881,38.570556640625
2854279.0,-117.25238037109375,-120.80657958984375,2.0595030784606934,114.48544311523438,78.24639892578125,-0.5631651282310486,38.55752182006836
2854283.0,-117.2905502319336,-120.78237915039062,1.851580023765564,114.4681396484375,78.16985321044922,-0.4100373089313507,38.544471740722656
2854287.0,-117.3287582397461,-120.7581558227539,1.6435093879699707,114.45082092285156,78.09324645996094,-0.2568008005619049,38.53141784667969
2854291.0,-117.36698150634766,-120.7339096069336,1.435290813446045,114.43348693847656,78.01658630371094,-0.10345547646284103,38.518348693847656
2854295.0,-117.40524291992188,-120.70966339111328,1.2269244194030762,114.41615295410156,77.93988037109375,0.04999886453151703,38.50527572631836
2854299.0,-117.4435043334961,-120.68538665771484,1.0184097290039062,114.39879608154297,77.86310577392578,0.20356233417987823,38.492191314697266
2854303.0,-117.48182678222656,-120.66108703613281,0.8097468018531799,114.38143920898438,77.7862777709961,0.35723504424095154,38.479095458984375
2854307.0,-117.52015686035156,-120.63677215576172,0.6009352803230286,114.36405181884766,77.70939636230469,0.5110171437263489,38.46599197387695
2854311.0,-117.55852508544922,-120.61244201660156,0.391975075006485,114.34667205810547,77.63246154785156,0.664908766746521,38.452880859375
2854315.0,-117.59690856933594,-120.58809661865234,0.18286584317684174,114.32926940917969,77.55548095703125,0.8189100623130798,38.43975830078125
2854319.0,-117.63532257080078,-120.5637435913086,-0.026392601430416107,114.31185913085938,77.47843933105469,0.9730212688446045,38.42662811279297
2854323.0,-117.67376708984375,-120.53936004638672,-0.2358006238937378,114.29441833496094,77.40133666992188,1.1272426843643188,38.41348648071289
2854327.0,-117.71224975585938,-120.51496124267578,-0.44535863399505615,114.27699279785156,77.32418060302734,1.2815743684768677,38.40032958984375
2854331.0,-117.75074005126953,-120.49054718017578,-0.6550670862197876,114.25953674316406,77.2469711303711,1.4360167980194092,38.387176513671875
2854335.0,-117.78927612304688,-120.46611022949219,-0.8649261593818665,114.24207305908203,77.16970825195312,1.590570330619812,38.37400436401367
2854339.0,-117.82784271240234,-120.4416732788086,-1.0749363899230957,114.22459411621094,77.0923843383789,1.7452350854873657,38.36082458496094
2854343.0,-117.86641693115234,-120.41720581054688,-1.2850980758666992,114.20710754394531,77.0150146484375,1.9000115394592285,38.34763717651367
2854347.0,-117.90503692626953,-120.39273071289062,-1.4954113960266113,114.18960571289062,76.93758392333984,2.0548996925354004,38.334442138671875
2854351.0,-117.94367980957031,-120.36821746826172,-1.7058764696121216,114.17208099365234,76.86009979248047,2.209899425506592,38.32123565673828
2854355.0,-117.98233795166016,-120.34368896484375,-1.9164936542510986,114.1545639038086,76.78254699707031,2.36501145362854,38.308013916015625
2854359.0,-118.02099609375,-120.31916809082031,-2.127263069152832,114.13701629638672,76.70494842529297,2.520235538482666,38.29479217529297
2854363.0,-118.0597152709961,-120.29461669921875,-2.3381848335266113,114.11946868896484,76.6272964477539,2.6755716800689697,38.28155517578125
2854367.0,-118.09848022460938,-120.27002716064453,-2.5492591857910156,114.10189819335938,76.5495834350586,2.8310201168060303,38.268310546875
2854371.0,-118.13726043701172,-120.24543762207031,-2.7604856491088867,114.0843276977539,76.4718246459961,2.9865810871124268,38.25505828857422
2854375.0,-118.17605590820312,-120.22084045410156,-2.971865177154541,114.06673431396484,76.39398956298828,3.14225435256958,38.241790771484375
2854379.0,-118.21488189697266,-120.19622039794922,-3.1833972930908203,114.04912567138672,76.31611633300781,3.2980401515960693,38.228519439697266
2854383.0,-118.25374603271484,-120.17157745361328,-3.395070791244507,114.03150939941406,76.23817443847656,3.4539384841918945,38.215232849121094
2854387.0,-118.29263305664062,-120.14691925048828,-3.606895685195923,114.0138931274414,76.1601791381836,3.6099495887756348,38.201942443847656
2854391.0,-118.33155059814453,-120.12223815917969,-3.818880558013916,113.99624633789062,76.0821304321289,3.766073226928711,38.18864059448242
2854395.0,-118.37049865722656,-120.09754180908203,-4.031022071838379,113.97859191894531,76.0040283203125,3.9223101139068604,38.17532730102539
2854399.0,-118.40946960449219,-120.07283020019531,-4.243319034576416,113.96092224121094,75.92586517333984,4.0786590576171875,38.16200637817383
2854403.0,-118.44850158691406,-120.04801940917969,-4.455715656280518,113.94322967529297,75.84764862060547,4.235108852386475,38.14862060546875
2854407.0,-118.48741912841797,-120.02310180664062,-4.667767524719238,113.9255142211914,75.76941680908203,4.391555309295654,38.13515853881836
2854411.0,-118.52630615234375,-119.99810791015625,-4.879406929016113,113.90780639648438,75.6913070678711,4.547748565673828,38.12162780761719
2854415.0,-118.56504821777344,-119.9731216430664,-5.090123176574707,113.89015197753906,75.61351776123047,4.703317642211914,38.10810470581055
2854419.0,-118.60347747802734,-119.94825744628906,-5.299194812774658,113.87260437011719,75.53624725341797,4.857804775238037,38.094627380371094
2854423.0,-118.64149475097656,-119.92361450195312,-5.506036758422852,113.8552474975586,75.45977783203125,5.0106682777404785,38.081260681152344
2854427.0,-118.67942810058594,-119.89886474609375,-5.710249900817871,113.83808135986328,75.3843994140625,5.161345481872559,38.06781005859375
2854431.0,-118.7166519165039,-119.87401580810547,-5.909881114959717,113.82115173339844,75.31040954589844,5.30914306640625,38.054222106933594
2854435.0,-118.75248718261719,-119.8496322631836,-6.1031317710876465,113.80459594726562,75.2384033203125,5.45293664932251,38.040809631347656
2854439.0,-118.78675842285156,-119.82613372802734,-6.288625717163086,113.78868865966797,75.16918182373047,5.591121196746826,38.02784729003906
2854443.0,-118.8193359375,-119.80378723144531,-6.464425563812256,113.77361297607422,75.10366821289062,5.721934795379639,38.01552200317383
2854447.0,-118.84934997558594,-119.783203125,-6.6276702880859375,113.75960540771484,75.04269409179688,5.843672752380371,38.00417709350586
2854451.0,-118.87648010253906,-119.76490783691406,-6.7766804695129395,113.74688720703125,74.98709106445312,5.9547505378723145,37.99413299560547
2854455.0,-118.90083312988281,-119.74913024902344,-6.910594940185547,113.73563385009766,74.9374771118164,6.053953647613525,37.985565185546875
2854459.0,-118.92227935791016,-119.73575592041016,-7.028542518615723,113.72589111328125,74.89411163330078,6.1407294273376465,37.978389739990234
2854463.0,-118.9407958984375,-119.72447204589844,-7.130142688751221,113.71755981445312,74.85693359375,6.215156555175781,37.97238540649414
2854467.0,-118.95640563964844,-119.71504974365234,-7.21559476852417,113.71058654785156,74.82572174072266,6.277639865875244,37.96738052368164
2854471.0,-118.96961975097656,-119.70709991455078,-7.286093235015869,113.70487213134766,74.80020141601562,6.328734874725342,37.96318054199219
2854475.0,-118.98070526123047,-119.70066833496094,-7.342973232269287,113.70037841796875,74.77997589111328,6.369229793548584,37.959842681884766
2854479.0,-118.98902893066406,-119.69623565673828,-7.386753082275391,113.69701385498047,74.7645492553711,6.400188446044922,37.95761489868164
2854483.0,-118.9952392578125,-119.693359375,-7.419460296630859,113.69461059570312,74.7532730102539,6.422867774963379,37.95624542236328
2854487.0,-118.99987030029297,-119.69166564941406,-7.443185806274414,113.69302368164062,74.74544525146484,6.438681125640869,37.955543518066406
2854491.0,-119.0027847290039,-119.69120025634766,-7.459394931793213,113.69207000732422,74.74028778076172,6.44917631149292,37.95552062988281
2854495.0,-119.00425720214844,-119.69163513183594,-7.469822883605957,113.69156646728516,74.73705291748047,6.455852508544922,37.955963134765625
2854499.0,-119.0048599243164,-119.69241333007812,-7.476242542266846,113.6913070678711,74.7350845336914,6.459956169128418,37.956546783447266
2854503.0,-119.00502014160156,-119.69317626953125,-7.480071544647217,113.69120025634766,74.73392486572266,6.462411403656006,37.95708084106445
2854507.0,-119.00502014160156,-119.69377899169922,-7.482304096221924,113.69114685058594,74.73324584960938,6.463848114013672,37.95748519897461
2854511.0,-119.00496673583984,-119.69420623779297,-7.483583927154541,113.6911392211914,74.73286437988281,6.464674949645996,37.957767486572266
2854515.0,-119.00492858886719,-119.69448852539062,-7.48430871963501,113.69113159179688,74.73265075683594,6.465144634246826,37.957950592041016
2854519.0,-119.00439453125,-119.69490051269531,-7.483997344970703,113.69111633300781,74.7325668334961,6.465303421020508,37.958091735839844
2854523.0,-119.00346374511719,-119.6953353881836,-7.482311725616455,113.691162109375,74.73273468017578,6.464842796325684,37.95809555053711
2854527.0,-119.00228118896484,-119.69585418701172,-7.478724479675293,113.69145202636719,74.73346710205078,6.463075160980225,37.95805358886719
2854531.0,-119.0001220703125,-119.69708251953125,-7.471425533294678,113.69219970703125,74.73519897460938,6.459047317504883,37.958290100097656
2854535.0,-118.99666595458984,-119.69931030273438,-7.458771705627441,113.69367218017578,74.73845672607422,6.451584815979004,37.95893096923828
2854539.0,-118.99210357666016,-119.70250701904297,-7.439392566680908,113.6961669921875,74.74384307861328,6.439356803894043,37.96002197265625
2854543.0,-118.98551940917969,-119.70744323730469,-7.410762786865234,113.6999740600586,74.75196838378906,6.4209675788879395,37.96189498901367
2854547.0,-118.97599792480469,-119.71495056152344,-7.370365142822266,113.7054672241211,74.7635269165039,6.39494514465332,37.96501541137695
2854551.0,-118.96342468261719,-119.72531127929688,-7.316381931304932,113.7129898071289,74.77922058105469,6.3597612380981445,37.969566345214844
2854555.0,-118.94705200195312,-119.7390365600586,-7.246251106262207,113.72283935546875,74.79972076416016,6.313889980316162,37.975772857666016
2854559.0,-118.92616271972656,-119.75682067871094,-7.157498359680176,113.73538208007812,74.82575988769531,6.255781650543213,37.983985900878906
2854563.0,-118.90039825439453,-119.77906036376953,-7.0481157302856445,113.75093841552734,74.85808563232422,6.183858871459961,37.99449157714844
2854567.0,-118.87071228027344,-119.80551147460938,-6.91766881942749,113.76982879638672,74.89728546142578,6.096887111663818,38.00754928588867
2854571.0,-118.83638763427734,-119.83684539794922,-6.765474796295166,113.79214477539062,74.94358825683594,5.994505882263184,38.023433685302734
2854575.0,-118.79671478271484,-119.87330627441406,-6.591499328613281,113.81766510009766,74.9967041015625,5.877359390258789,38.04198455810547
2854579.0,-118.75299072265625,-119.9136962890625,-6.398595333099365,113.84600067138672,75.05599212646484,5.7468581199646,38.062652587890625
2854583.0,-118.70568084716797,-119.95756530761719,-6.1895432472229,113.87667846679688,75.12059020996094,5.605037689208984,38.085235595703125
2854587.0,-118.65501403808594,-120.00431060791016,-5.967185020446777,113.9090805053711,75.18932342529297,5.45438814163208,38.109310150146484
2854591.0,-118.60189056396484,-120.05282592773438,-5.7350172996521,113.94255828857422,75.2610855102539,5.297394275665283,38.13422775268555
2854595.0,-118.54723358154297,-120.10214233398438,-5.496306896209717,113.97660827636719,75.33489990234375,5.136153697967529,38.15945053100586
2854599.0,-118.49174499511719,-120.15166473388672,-5.253549575805664,114.01089477539062,75.41006469726562,4.972236156463623,38.18467712402344
2854603.0,-118.43590545654297,-120.20101928710938,-5.008529186248779,114.045166015625,75.48609924316406,4.806740760803223,38.20977783203125
2854607.0,-118.37998962402344,-120.25,-4.762457370758057,114.07929229736328,75.56266021728516,4.640399932861328,38.234703063964844
2854611.0,-118.32418823242188,-120.29855346679688,-4.516110420227051,114.11316680908203,75.63957214355469,4.473696708679199,38.259429931640625
2854615.0,-118.26862335205078,-120.34659576416016,-4.269984245300293,114.14675903320312,75.71665954589844,4.306946277618408,38.283939361572266
2854619.0,-118.21334838867188,-120.39409637451172,-4.024408340454102,114.18000030517578,75.7938461303711,4.140353202819824,38.3082275390625
2854623.0,-118.15840911865234,-120.4410171508789,-3.7795944213867188,114.212890625,75.87107849121094,3.9740447998046875,38.3322868347168
2854627.0,-118.10385131835938,-120.48736572265625,-3.5356662273406982,114.24539947509766,75.94830322265625,3.8080968856811523,38.35612487792969
2854631.0,-118.0496597290039,-120.53312683105469,-3.2926933765411377,114.27754211425781,76.02552032470703,3.6425530910491943,38.37973403930664
2854635.0,-117.99586486816406,-120.57831573486328,-3.0507147312164307,114.30929565429688,76.10270690917969,3.477436065673828,38.40312194824219
2854639.0,-117.94242095947266,-120.62297058105469,-2.8097493648529053,114.34066009521484,76.17986297607422,3.312756299972534,38.4262809753418
2854643.0,-117.889404296875,-120.66703796386719,-2.5698015689849854,114.37166595458984,76.25697326660156,3.1485161781311035,38.44921112060547
2854647.0,-117.83683013916016,-120.71051025390625,-2.33087158203125,114.40226745605469,76.33403778076172,2.984714984893799,38.471923828125
2854651.0,-117.78462982177734,-120.75342559814453,-2.0929551124572754,114.43251037597656,76.41107177734375,2.8213493824005127,38.494407653808594
2854655.0,-117.73281860351562,-120.79579162597656,-1.8560433387756348,114.46237182617188,76.48805236816406,2.658414840698242,38.51667022705078
2854659.0,-117.68138885498047,-120.83760070800781,-1.6201281547546387,114.49187469482422,76.56501007080078,2.4959051609039307,38.53871154785156
2854663.0,-117.63034057617188,-120.87886047363281,-1.3852019309997559,114.52099609375,76.64191436767578,2.333815574645996,38.56052017211914
2854667.0,-117.57967376708984,-120.9195785522461,-1.151253342628479,114.54975128173828,76.71878814697266,2.1721396446228027,38.58211135864258
2854671.0,-117.5294189453125,-120.9597396850586,-0.918274462223053,114.5781478881836,76.79562377929688,2.010871648788452,38.60346984863281
2854675.0,-117.47955322265625,-120.99937438964844,-0.6862558126449585,114.6061782836914,76.8724136352539,1.8500056266784668,38.62460708618164
2854679.0,-117.43006134033203,-121.03846740722656,-0.45518767833709717,114.63384246826172,76.94918060302734,1.6895363330841064,38.64551544189453
2854683.0,-117.38096618652344,-121.07701873779297,-0.2250610589981079,114.66116333007812,77.02589416503906,1.5294580459594727,38.66620635986328
2854687.0,-117.3322525024414,-121.11505889892578,0.004131971392780542,114.6881103515625,77.10258483886719,1.3697651624679565,38.68666458129883
2854691.0,-117.2839126586914,-121.15257263183594,0.232401505112648,114.71470642089844,77.17922973632812,1.2104524374008179,38.7068977355957
2854695.0,-117.23594665527344,-121.18956756591797,0.45975470542907715,114.740966796875,77.25585174560547,1.0515146255493164,38.726905822753906
2854699.0,-117.18836975097656,-121.22603607177734,0.6861994862556458,114.76685333251953,77.33243560791016,0.8929473161697388,38.74668884277344
2854703.0,-117.14115905761719,-121.26197814941406,0.9117427468299866,114.79241180419922,77.40898895263672,0.7347458600997925,38.76624298095703
2854707.0,-117.09432220458984,-121.29742431640625,1.1363937854766846,114.81761169433594,77.48550415039062,0.5769053101539612,38.78557586669922
2854711.0,-117.04783630371094,-121.33236694335938,1.360161542892456,114.84247589111328,77.56198120117188,0.4194202423095703,38.8046760559082
2854715.0,-117.00173950195312,-121.36679077148438,1.583055019378662,114.86699676513672,77.63844299316406,0.2622847259044647,38.82355499267578
2854719.0,-116.95599365234375,-121.40074157714844,1.8050838708877563,114.89117431640625,77.7148666381836,0.10549353808164597,38.84221267700195
2854723.0,-116.91062927246094,-121.4341812133789,2.026256561279297,114.91500854492188,77.791259765625,-0.05095838010311127,38.86063766479492
2854727.0,-116.8656005859375,-121.4671401977539,2.2465789318084717,114.93852233886719,77.86763000488281,-0.2070755660533905,38.878841400146484
2854731.0,-116.8209457397461,-121.49960327148438,2.466059684753418,114.96168518066406,77.9439697265625,-0.3628622591495514,38.89681625366211
2854735.0,-116.77665710449219,-121.53157806396484,2.6847050189971924,114.98452758789062,78.02027130126953,-0.5183228254318237,38.91456985473633
2854739.0,-116.73272705078125,-121.56306457519531,2.9025204181671143,115.00704193115234,78.09656524658203,-0.6734616160392761,38.932090759277344
2854743.0,-116.68915557861328,-121.59407806396484,3.119513750076294,115.02921295166016,78.17281341552734,-0.8282831311225891,38.94939422607422
2854747.0,-116.64592742919922,-121.62459564208984,3.335691213607788,115.05107116699219,78.24905395507812,-0.9827917814254761,38.966461181640625
2854751.0,-116.60308074951172,-121.65464782714844,3.5510575771331787,115.07259368896484,78.32524871826172,-1.13699209690094,38.983306884765625
2854755.0,-116.5605697631836,-121.68423461914062,3.7656211853027344,115.09378051757812,78.40143585205078,-1.2908889055252075,38.999916076660156
2854759.0,-116.5184097290039,-121.71334075927734,3.9793872833251953,115.11466979980469,78.47758483886719,-1.444486379623413,39.01630401611328
2854763.0,-116.47660827636719,-121.74197387695312,4.192361831665039,115.13521575927734,78.5537109375,-1.5977891683578491,39.03246307373047
2854767.0,-116.43516540527344,-121.77013397216797,4.404551029205322,115.15544891357422,78.62982177734375,-1.75080144405365,39.04838562011719
2854771.0,-116.39405822753906,-121.79783630371094,4.61596155166626,115.17535400390625,78.70590209960938,-1.9035273790359497,39.064083099365234
2854775.0,-116.35330200195312,-121.82505798339844,4.826598167419434,115.19493865966797,78.78196716308594,-2.055971384048462,39.07954406738281
2854779.0,-116.3128890991211,-121.85184478759766,5.0364670753479,115.2142105102539,78.85800170898438,-2.2081377506256104,39.09477615356445
2854783.0,-116.27284240722656,-121.87815856933594,5.245574474334717,115.23316192626953,78.93402099609375,-2.36003041267395,39.109779357910156
2854787.0,-116.23313903808594,-121.90399932861328,5.453925132751465,115.25179290771484,79.010009765625,-2.511653184890747,39.124549865722656
2854791.0,-116.19377136230469,-121.92941284179688,5.661525249481201,115.27011108398438,79.08598327636719,-2.6630101203918457,39.13909149169922
2854795.0,-116.1547622680664,-121.9543685913086,5.868380069732666,115.28811645507812,79.16193389892578,-2.814105272293091,39.15339279174805
2854799.0,-116.1160888671875,-121.97887420654297,6.074493885040283,115.30582427978516,79.23786163330078,-2.964942216873169,39.16746139526367
2854803.0,-116.07776641845703,-122.00291442871094,6.279873371124268,115.32319641113281,79.31375885009766,-3.1155247688293457,39.18129348754883
2854807.0,-116.03977966308594,-122.02653503417969,6.484523296356201,115.34025573730469,79.38965606689453,-3.2658565044403076,39.19489288330078
2854811.0,-116.00212860107422,-122.04969024658203,6.688447952270508,115.35701751708984,79.46553039550781,-3.4159412384033203,39.20825958251953
2854815.0,-115.96483612060547,-122.0724105834961,6.891653060913086,115.37346649169922,79.5413818359375,-3.565782308578491,39.221397399902344
2854819.0,-115.92787170410156,-122.09467315673828,7.094143867492676,115.38961029052734,79.61720275878906,-3.715383529663086,39.23429489135742
2854823.0,-115.8912353515625,-122.11653137207031,7.295925140380859,115.40544891357422,79.69302368164062,-3.8647477626800537,39.24695587158203
2854827.0,-115.8549575805664,-122.137939453125,7.4970011711120605,115.42097473144531,79.76881408691406,-4.01387882232666,39.25938415527344
2854831.0,-115.81900024414062,-122.15888977050781,7.697376728057861,115.43619537353516,79.84458923339844,-4.162780284881592,39.27157211303711
2854835.0,-115.78338623046875,-122.1794204711914,7.897055625915527,115.45111083984375,79.92034149169922,-4.3114542961120605,39.28352737426758
2854839.0,-115.74811553955078,-122.19950103759766,8.096043586730957,115.46572875976562,79.99608612060547,-4.459905624389648,39.29524230957031
2854843.0,-115.71317291259766,-122.21917724609375,8.29434585571289,115.48005676269531,80.07180786132812,-4.6081366539001465,39.306724548339844
2854847.0,-115.67854309082031,-122.23841094970703,8.491965293884277,115.49406433105469,80.14751434326172,-4.756150722503662,39.317962646484375
2854851.0,-115.64427185058594,-122.25721740722656,8.688907623291016,115.50777435302734,80.22320556640625,-4.903949737548828,39.32897186279297
2854855.0,-115.61033630371094,-122.27558898925781,8.885175704956055,115.52118682861328,80.29888916015625,-5.051538944244385,39.33973693847656
2854859.0,-115.57673645019531,-122.2935562133789,9.080775260925293,115.5343017578125,80.37454223632812,-5.198919296264648,39.35026931762695
2854863.0,-115.54347229003906,-122.31108093261719,9.275708198547363,115.547119140625,80.45018005371094,-5.346094608306885,39.36056137084961
2854867.0,-115.51050567626953,-122.32820129394531,9.46998119354248,115.55964660644531,80.52581787109375,-5.493067264556885,39.370609283447266
2854871.0,-115.47789001464844,-122.34487915039062,9.66359806060791,115.57185363769531,80.60143280029297,-5.639841556549072,39.38042068481445
2854875.0,-115.44559478759766,-122.36116027832031,9.856560707092285,115.58377838134766,80.6770248413086,-5.7864179611206055,39.38998794555664
2854879.0,-115.41362762451172,-122.37702178955078,10.04887580871582,115.59542083740234,80.75261688232422,-5.932800769805908,39.39932632446289
2854883.0,-115.38198852539062,-122.3924560546875,10.240545272827148,115.60675811767578,80.82817840576172,-6.078993320465088,39.408416748046875
2854887.0,-115.35069274902344,-122.40748596191406,10.431572914123535,115.61781311035156,80.90373992919922,-6.224996566772461,39.41727066040039
2854891.0,-115.3197250366211,-122.4220962524414,10.621964454650879,115.6285629272461,80.97929382324219,-6.370814323425293,39.42588424682617
2854895.0,-115.28907012939453,-122.4363021850586,10.811721801757812,115.63902282714844,81.05481719970703,-6.516448020935059,39.43425369262695
