rparak/ABB_EGM_Python/src/Old/EGM_Results/IRB1200/result_actual_abs_joint_v100_z100.txt
Time,Joint_1,Joint_2,Joint_3,Joint_4,Joint_5,Joint_6
2299260.0,-5.536809921264648,-1.7338919639587402,10.59418773651123,33.07684326171875,75.97412109375,-84.57347869873047
2299264.0,-5.536809921264648,-1.7338919639587402,10.59418773651123,33.07684326171875,75.97412109375,-84.57347869873047
2299268.0,-5.536809921264648,-1.7338919639587402,10.59418773651123,33.07684326171875,75.97412109375,-84.57347869873047
2299272.0,-5.536809921264648,-1.7338919639587402,10.59418773651123,33.07684326171875,75.97412109375,-84.57347869873047
2299276.0,-5.536809921264648,-1.7338919639587402,10.59418773651123,33.07684326171875,75.97412109375,-84.57347869873047
2299280.0,-5.536809921264648,-1.7338919639587402,10.59418773651123,33.07684326171875,75.97412109375,-84.57347869873047
2299284.0,-5.536809921264648,-1.7338919639587402,10.59418773651123,33.07684326171875,75.97412109375,-84.57347869873047
2299288.0,-5.536809921264648,-1.7338919639587402,10.59418773651123,33.07684326171875,75.97412109375,-84.57347869873047
2299292.0,-5.536809921264648,-1.7338919639587402,10.59418773651123,33.07684326171875,75.97412109375,-84.57347869873047
2299296.0,-5.536809921264648,-1.7338919639587402,10.59418773651123,33.07684326171875,75.97412109375,-84.57347869873047
2299300.0,-5.536809921264648,-1.7338919639587402,10.59418773651123,33.07684326171875,75.97412109375,-84.57347869873047
2299304.0,-5.536809921264648,-1.7338919639587402,10.59418773651123,33.07684326171875,75.97412109375,-84.57347869873047
2299308.0,-5.536809921264648,-1.7338919639587402,10.59418773651123,33.07684326171875,75.97412109375,-84.57347869873047
2299312.0,-5.536809921264648,-1.7338919639587402,10.59418773651123,33.07684326171875,75.97412109375,-84.57347869873047
2299316.0,-5.536809921264648,-1.7338919639587402,10.59418773651123,33.07684326171875,75.97412109375,-84.57347869873047
2299320.0,-5.536809921264648,-1.7338919639587402,10.59418773651123,33.07684326171875,75.97412109375,-84.57347869873047
2299324.0,-5.536809921264648,-1.7338919639587402,10.59418773651123,33.07684326171875,75.97412109375,-84.57347869873047
2299328.0,-5.536809921264648,-1.7338919639587402,10.59418773651123,33.07684326171875,75.97412109375,-84.57347869873047
2299332.0,-5.536809921264648,-1.7338919639587402,10.59418773651123,33.07684326171875,75.97412109375,-84.57347869873047
2299336.0,-5.536809921264648,-1.7338919639587402,10.59418773651123,33.07684326171875,75.97412109375,-84.57347869873047
2299340.0,-5.536809921264648,-1.7338919639587402,10.59418773651123,33.07684326171875,75.97412109375,-84.57347869873047
2299344.0,-5.536809921264648,-1.7338919639587402,10.59418773651123,33.07684326171875,75.97412109375,-84.57347869873047
2299348.0,-5.536809921264648,-1.7338919639587402,10.59418773651123,33.07684326171875,75.97412109375,-84.57347869873047
2299352.0,-5.536809921264648,-1.7338917255401611,10.59418773651123,33.07684326171875,75.97412109375,-84.57347869873047
2299356.0,-5.53680944442749,-1.7338902950286865,10.59418773651123,33.07684326171875,75.97412109375,-84.57347869873047
2299360.0,-5.536806106567383,-1.7338858842849731,10.594188690185547,33.07684326171875,75.97412109375,-84.57347869873047
2299364.0,-5.536799430847168,-1.7338756322860718,10.594192504882812,33.07684326171875,75.97412109375,-84.57347869873047
2299368.0,-5.5367841720581055,-1.7338553667068481,10.594200134277344,33.076839447021484,75.97411346435547,-84.57347869873047
2299372.0,-5.536755084991455,-1.7338194847106934,10.594216346740723,33.07683563232422,75.97410583496094,-84.57347869873047
2299376.0,-5.536704063415527,-1.733760952949524,10.594246864318848,33.07682418823242,75.97409057617188,-84.57347869873047
2299380.0,-5.536623477935791,-1.7336719036102295,10.594306945800781,33.07680130004883,75.97406768798828,-84.573486328125
2299384.0,-5.536503314971924,-1.7335447072982788,10.594414710998535,33.07676315307617,75.97401428222656,-84.57349395751953
2299388.0,-5.536333084106445,-1.7333712577819824,10.594593048095703,33.07668685913086,75.97391510009766,-84.57351684570312
2299392.0,-5.5361008644104,-1.7331444025039673,10.594877243041992,33.076568603515625,75.97373962402344,-84.57353973388672
2299396.0,-5.535792827606201,-1.7328569889068604,10.595307350158691,33.076377868652344,75.97346496582031,-84.5735855102539
2299400.0,-5.535393238067627,-1.7325023412704468,10.59593391418457,33.07608413696289,75.9730224609375,-84.57364654541016
2299404.0,-5.534884929656982,-1.73207426071167,10.59681510925293,33.075660705566406,75.97238159179688,-84.57374572753906
2299408.0,-5.534246921539307,-1.7315654754638672,10.598011016845703,33.07506561279297,75.97147369384766,-84.57389068603516
2299412.0,-5.533459186553955,-1.7309694290161133,10.599589347839355,33.07426071166992,75.97021484375,-84.57408142089844
2299416.0,-5.532501220703125,-1.730278730392456,10.601615905761719,33.07320022583008,75.96855926513672,-84.57433319091797
2299420.0,-5.531352519989014,-1.7294864654541016,10.604150772094727,33.07185745239258,75.96644592285156,-84.57466125488281
2299424.0,-5.529994964599609,-1.728585958480835,10.607254028320312,33.0701904296875,75.96379852294922,-84.57505798339844
2299428.0,-5.528412342071533,-1.7275710105895996,10.610977172851562,33.06816482543945,75.96058654785156,-84.57555389404297
2299432.0,-5.526590824127197,-1.7264351844787598,10.615361213684082,33.06576919555664,75.9567642211914,-84.57614135742188
2299436.0,-5.5245184898376465,-1.7251722812652588,10.620441436767578,33.0629768371582,75.95230865478516,-84.57682800292969
2299440.0,-5.522184371948242,-1.7237753868103027,10.62624454498291,33.05977249145508,75.94718170166016,-84.5776138305664
2299444.0,-5.5195817947387695,-1.7222381830215454,10.632784843444824,33.056156158447266,75.94139862060547,-84.57850646972656
2299448.0,-5.516702651977539,-1.720554232597351,10.64007568359375,33.052120208740234,75.9349365234375,-84.5794906616211
2299452.0,-5.513542175292969,-1.718717098236084,10.648120880126953,33.04766082763672,75.92779541015625,-84.58058166503906
2299456.0,-5.510097026824951,-1.7167221307754517,10.656920433044434,33.04277801513672,75.91997528076172,-84.581787109375
2299460.0,-5.506363868713379,-1.7145657539367676,10.666474342346191,33.037479400634766,75.91149139404297,-84.58308410644531
2299464.0,-5.502344131469727,-1.7122455835342407,10.676774024963379,33.031761169433594,75.9023208618164,-84.5844955444336
2299468.0,-5.498038291931152,-1.7097609043121338,10.68781566619873,33.025634765625,75.89250183105469,-84.58599853515625
2299472.0,-5.493449687957764,-1.7071118354797363,10.699586868286133,33.019100189208984,75.88202667236328,-84.58760070800781
2299476.0,-5.488580226898193,-1.7042988538742065,10.712080001831055,33.01215744018555,75.87090301513672,-84.58930206298828
2299480.0,-5.483434200286865,-1.7013236284255981,10.725282669067383,33.00482940673828,75.85914611816406,-84.59109497070312
2299484.0,-5.4780168533325195,-1.698187232017517,10.73918342590332,32.99710464477539,75.84675598144531,-84.59297943115234
2299488.0,-5.4723310470581055,-1.6948914527893066,10.753768920898438,32.9890022277832,75.83375549316406,-84.59496307373047
2299492.0,-5.4663825035095215,-1.6914377212524414,10.769025802612305,32.980525970458984,75.82015228271484,-84.59703063964844
2299496.0,-5.460176944732666,-1.687827706336975,10.78493881225586,32.9716796875,75.80596160888672,-84.59918212890625
2299500.0,-5.453718662261963,-1.6840633153915405,10.801491737365723,32.96248245239258,75.79119110107422,-84.60142517089844
2299504.0,-5.4470133781433105,-1.6801462173461914,10.818673133850098,32.95293426513672,75.77584838867188,-84.60374450683594
2299508.0,-5.440065860748291,-1.6760785579681396,10.836463928222656,32.94304275512695,75.75996398925781,-84.60614013671875
2299512.0,-5.432881832122803,-1.671862244606018,10.854849815368652,32.932823181152344,75.7435302734375,-84.60861206054688
2299516.0,-5.4254679679870605,-1.6674995422363281,10.873815536499023,32.92227554321289,75.72657775878906,-84.61116027832031
2299520.0,-5.417829513549805,-1.6629925966262817,10.893345832824707,32.91141891479492,75.70911407470703,-84.61378479003906
2299524.0,-5.409971237182617,-1.6583434343338013,10.913424491882324,32.90025329589844,75.691162109375,-84.61646270751953
2299528.0,-5.401900291442871,-1.6535545587539673,10.934035301208496,32.88878631591797,75.67271423339844,-84.61922454833984
2299532.0,-5.39362096786499,-1.6486282348632812,10.95516300201416,32.87703323364258,75.65379333496094,-84.62203216552734
2299536.0,-5.385138988494873,-1.6435664892196655,10.976795196533203,32.8650016784668,75.63441467285156,-84.62491607666016
2299540.0,-5.376460075378418,-1.6383720636367798,10.99891471862793,32.852691650390625,75.61458587646484,-84.62785339355469
2299544.0,-5.367590427398682,-1.6330472230911255,11.02150821685791,32.840118408203125,75.59432220458984,-84.63084411621094
2299548.0,-5.35853385925293,-1.6275941133499146,11.044560432434082,32.82728958129883,75.5736312866211,-84.63389587402344
2299552.0,-5.349297523498535,-1.6220149993896484,11.0680570602417,32.814205169677734,75.55253601074219,-84.63699340820312
2299556.0,-5.339885234832764,-1.6163119077682495,11.091985702514648,32.80088424682617,75.53103637695312,-84.64015197753906
2299560.0,-5.3303022384643555,-1.6104871034622192,11.116332054138184,32.787330627441406,75.50914001464844,-84.64334106445312
2299564.0,-5.320555210113525,-1.6045423746109009,11.141082763671875,32.77354431152344,75.48688507080078,-84.6465835571289
2299568.0,-5.3106465339660645,-1.5984801054000854,11.16622543334961,32.7595329284668,75.46424865722656,-84.64987182617188
2299572.0,-5.300582408905029,-1.5923022031784058,11.191749572753906,32.74531555175781,75.44125366210938,-84.6531982421875
2299576.0,-5.29036808013916,-1.5860109329223633,11.217638969421387,32.73088836669922,75.41792297363281,-84.65657043457031
2299580.0,-5.280005931854248,-1.5796082019805908,11.243884086608887,32.71625518798828,75.39424133300781,-84.65998077392578
2299584.0,-5.269503116607666,-1.5730960369110107,11.27047348022461,32.70143127441406,75.37024688720703,-84.66342163085938
2299588.0,-5.258862018585205,-1.5664763450622559,11.297395706176758,32.68642044067383,75.34593200683594,-84.66690063476562
2299592.0,-5.2480878829956055,-1.559751033782959,11.324640274047852,32.67122268676758,75.32130432128906,-84.67041015625
2299596.0,-5.237184524536133,-1.552922010421753,11.352194786071777,32.65584945678711,75.29638671875,-84.67394256591797
2299600.0,-5.226155757904053,-1.5459905862808228,11.380049705505371,32.64030456542969,75.27117156982422,-84.67752075195312
2299604.0,-5.215006351470947,-1.538959264755249,11.408194541931152,32.624595642089844,75.24567413330078,-84.68111419677734
2299608.0,-5.203738689422607,-1.5318291187286377,11.436620712280273,32.60872268676758,75.21990203857422,-84.68474578857422
2299612.0,-5.192358493804932,-1.5246018171310425,11.465319633483887,32.59270095825195,75.1938705444336,-84.68840026855469
2299616.0,-5.1808671951293945,-1.5172793865203857,11.494279861450195,32.57652282714844,75.16757202148438,-84.69207000732422
2299620.0,-5.1692705154418945,-1.5098628997802734,11.523491859436035,32.56019973754883,75.14102172851562,-84.69577026367188
2299624.0,-5.157569408416748,-1.5023542642593384,11.552947998046875,32.543739318847656,75.1142349243164,-84.6994857788086
2299628.0,-5.1457695960998535,-1.4947547912597656,11.5826416015625,32.527137756347656,75.08721160888672,-84.7032241821289
2299632.0,-5.1338725090026855,-1.4870659112930298,11.612561225891113,32.510406494140625,75.0599594116211,-84.70699310302734
2299636.0,-5.121882438659668,-1.4792890548706055,11.642701148986816,32.49354934692383,75.0324935913086,-84.71075439453125
2299640.0,-5.109801769256592,-1.4714257717132568,11.673051834106445,32.476566314697266,75.00479125976562,-84.71455383300781
2299644.0,-5.0976338386535645,-1.4634774923324585,11.703608512878418,32.459468841552734,74.97689056396484,-84.71835327148438
2299648.0,-5.085381031036377,-1.4554452896118164,11.73436164855957,32.44225311279297,74.94878387451172,-84.72217559814453
2299652.0,-5.073047161102295,-1.4473302364349365,11.765304565429688,32.4249267578125,74.92047882080078,-84.72600555419922
2299656.0,-5.060634136199951,-1.439133644104004,11.796430587768555,32.407493591308594,74.8919906616211,-84.72985076904297
2299660.0,-5.048145294189453,-1.430856704711914,11.82773208618164,32.389957427978516,74.8633041381836,-84.73370361328125
2299664.0,-5.035582065582275,-1.4225000143051147,11.859204292297363,32.372318267822266,74.83444213867188,-84.7375717163086
2299668.0,-5.022948265075684,-1.4140651226043701,11.890840530395508,32.354583740234375,74.80540466308594,-84.74143981933594
2299672.0,-5.010245323181152,-1.4055527448654175,11.92263412475586,32.33675765991211,74.77619934082031,-84.74532318115234
2299676.0,-4.997476577758789,-1.396964192390442,11.95457935333252,32.31883239746094,74.74683380126953,-84.74921417236328
2299680.0,-4.984643459320068,-1.3883005380630493,11.98667049407959,32.30082702636719,74.71730041503906,-84.75311279296875
2299684.0,-4.971748352050781,-1.3795629739761353,12.018902778625488,32.28273391723633,74.68760681152344,-84.75701141357422
2299688.0,-4.958794116973877,-1.3707523345947266,12.051270484924316,32.264564514160156,74.65776824951172,-84.76091766357422
2299692.0,-4.945782661437988,-1.3618693351745605,12.083767890930176,32.246315002441406,74.6277847290039,-84.76482391357422
2299696.0,-4.932714939117432,-1.3529152870178223,12.116388320922852,32.22798538208008,74.59764862060547,-84.76874542236328
2299700.0,-4.9195942878723145,-1.34389066696167,12.149131774902344,32.2095832824707,74.5673828125,-84.77265930175781
2299704.0,-4.906421661376953,-1.3347965478897095,12.181987762451172,32.19111633300781,74.53697204589844,-84.7765884399414
2299708.0,-4.893199920654297,-1.3256337642669678,12.214957237243652,32.172576904296875,74.5064468383789,-84.78050231933594
2299712.0,-4.87993049621582,-1.3164029121398926,12.248030662536621,32.15397262573242,74.47578430175781,-84.78443145751953
2299716.0,-4.866613864898682,-1.3071048259735107,12.281207084655762,32.13530731201172,74.44499206542969,-84.78836059570312
2299720.0,-4.853254318237305,-1.2977404594421387,12.314480781555176,32.116573333740234,74.41409301757812,-84.79227447509766
2299724.0,-4.839851379394531,-1.2883105278015137,12.347848892211914,32.09778594970703,74.3830795288086,-84.79619598388672
2299728.0,-4.826407432556152,-1.2788153886795044,12.381305694580078,32.07894515991211,74.35193634033203,-84.80011749267578
2299732.0,-4.812924385070801,-1.2692559957504272,12.414851188659668,32.06004333496094,74.32069396972656,-84.80403900146484
2299736.0,-4.799403190612793,-1.25963294506073,12.44847583770752,32.04109191894531,74.28934478759766,-84.80795288085938
2299740.0,-4.785845756530762,-1.249947190284729,12.48218059539795,32.02208709716797,74.25789642333984,-84.81187438964844
2299744.0,-4.772253036499023,-1.2401992082595825,12.515959739685059,32.00303649902344,74.2263412475586,-84.81578826904297
2299748.0,-4.758626937866211,-1.2303895950317383,12.549812316894531,31.983936309814453,74.19469451904297,-84.81969451904297
2299752.0,-4.744969367980957,-1.220518708229065,12.583731651306152,31.964794158935547,74.16294860839844,-84.82359313964844
2299756.0,-4.731280326843262,-1.2105873823165894,12.617717742919922,31.945608139038086,74.13111114501953,-84.82749938964844
2299760.0,-4.717561721801758,-1.2005960941314697,12.651765823364258,31.92637825012207,74.09918975830078,-84.8313980102539
2299764.0,-4.7038164138793945,-1.1905449628829956,12.685873985290527,31.9071102142334,74.06716918945312,-84.83528900146484
2299768.0,-4.6900434494018555,-1.1804348230361938,12.720039367675781,31.887800216674805,74.03507232666016,-84.83917236328125
2299772.0,-4.676244735717773,-1.1702659130096436,12.754256248474121,31.86846160888672,74.00288391113281,-84.84304809570312
2299776.0,-4.662421703338623,-1.1600390672683716,12.78852653503418,31.849077224731445,73.97063446044922,-84.84691619873047
2299780.0,-4.6485748291015625,-1.149754524230957,12.822843551635742,31.829662322998047,73.93829345703125,-84.85079193115234
2299784.0,-4.634705066680908,-1.1394131183624268,12.857209205627441,31.81022071838379,73.90587615966797,-84.85465240478516
2299788.0,-4.620813369750977,-1.1290149688720703,12.89161491394043,31.790740966796875,73.8733901977539,-84.85850524902344
2299792.0,-4.606901168823242,-1.118560552597046,12.926064491271973,31.771230697631836,73.84083557128906,-84.86235046386719
2299796.0,-4.592970371246338,-1.1080503463745117,12.960552215576172,31.75169563293457,73.8082046508789,-84.8661880493164
2299800.0,-4.5790205001831055,-1.097484827041626,12.995076179504395,31.73213005065918,73.77552032470703,-84.8700180053711
2299804.0,-4.565054893493652,-1.0868645906448364,13.029634475708008,31.71253776550293,73.74275970458984,-84.87384796142578
2299808.0,-4.55107307434082,-1.0761895179748535,13.064227104187012,31.692922592163086,73.70993041992188,-84.8776626586914
2299812.0,-4.537075996398926,-1.065460205078125,13.098847389221191,31.67327880859375,73.67704772949219,-84.8814697265625
2299816.0,-4.523064613342285,-1.0546772480010986,13.13349723815918,31.65361785888672,73.64411163330078,-84.88526153564453
2299820.0,-4.50903844833374,-1.0438408851623535,13.168173789978027,31.633930206298828,73.6111068725586,-84.8890609741211
2299824.0,-4.494999408721924,-1.0329512357711792,13.202876091003418,31.61422348022461,73.57804107666016,-84.89283752441406
2299828.0,-4.480948448181152,-1.022009015083313,13.237600326538086,31.59449577331543,73.54492950439453,-84.89661407470703
2299832.0,-4.466885089874268,-1.0110143423080444,13.272346496582031,31.574748992919922,73.51176452636719,-84.90037536621094
2299836.0,-4.452811241149902,-0.9999675750732422,13.307110786437988,31.55498504638672,73.4785385131836,-84.90413665771484
2299840.0,-4.438727378845215,-0.9888690114021301,13.341893196105957,31.535202026367188,73.44527435302734,-84.90787506103516
2299844.0,-4.42463493347168,-0.9777191877365112,13.376693725585938,31.515405654907227,73.41195678710938,-84.91161346435547
2299848.0,-4.410533428192139,-0.966518223285675,13.411506652832031,31.495590209960938,73.37857818603516,-84.91534423828125
2299852.0,-4.396423816680908,-0.9552661180496216,13.446334838867188,31.47576332092285,73.34516906738281,-84.91905975341797
2299856.0,-4.382307052612305,-0.9439634084701538,13.48117446899414,31.455921173095703,73.31170654296875,-84.92276000976562
2299860.0,-4.368184566497803,-0.932610273361206,13.516024589538574,31.436065673828125,73.27820587158203,-84.92646026611328
2299864.0,-4.354055881500244,-0.9212068319320679,13.550884246826172,31.416196823120117,73.2446517944336,-84.93014526367188
2299868.0,-4.33992338180542,-0.9097533822059631,13.5857515335083,31.396316528320312,73.21106719970703,-84.93382263183594
2299872.0,-4.325786113739014,-0.8982500433921814,13.620625495910645,31.376428604125977,73.17743682861328,-84.93748474121094
2299876.0,-4.311644554138184,-0.8866972923278809,13.655506134033203,31.35652732849121,73.14376831054688,-84.9411392211914
2299880.0,-4.297500133514404,-0.8750953078269958,13.690390586853027,31.33661460876465,73.11006164550781,-84.94478607177734
2299884.0,-4.283352851867676,-0.8634443879127502,13.725276947021484,31.31669807434082,73.07630920410156,-84.94842529296875
2299888.0,-4.269203186035156,-0.8517446517944336,13.760167121887207,31.296768188476562,73.04252624511719,-84.95204162597656
2299892.0,-4.255051612854004,-0.8399964570999146,13.79505729675293,31.276830673217773,73.00871276855469,-84.9556655883789
2299896.0,-4.240899085998535,-0.8281998634338379,13.829947471618652,31.25688934326172,72.97486114501953,-84.95925903320312
2299900.0,-4.226746559143066,-0.8163552284240723,13.864836692810059,31.236942291259766,72.94097137451172,-84.96285247802734
2299904.0,-4.2125935554504395,-0.8044624924659729,13.899724960327148,31.216983795166016,72.90705108642578,-84.96643829345703
2299908.0,-4.198441982269287,-0.792522132396698,13.934609413146973,31.197023391723633,72.87310028076172,-84.97000885009766
2299912.0,-4.184290885925293,-0.7805340886116028,13.969490051269531,31.17705535888672,72.83911895751953,-84.97357940673828
2299916.0,-4.170141696929932,-0.7684987187385559,14.004366874694824,31.15708351135254,72.80510711669922,-84.97712707519531
2299920.0,-4.155994892120361,-0.7564161419868469,14.039237976074219,31.137104034423828,72.77106475830078,-84.98066711425781
2299924.0,-4.141850471496582,-0.7442865371704102,14.074101448059082,31.11712646484375,72.73699188232422,-84.98419952392578
2299928.0,-4.127708911895752,-0.7321100234985352,14.108960151672363,31.09714126586914,72.70289611816406,-84.98770904541016
2299932.0,-4.1135711669921875,-0.7198867201805115,14.143810272216797,31.07715606689453,72.66876983642578,-84.99122619628906
2299936.0,-4.099437236785889,-0.7076169848442078,14.178651809692383,31.057167053222656,72.63461303710938,-84.9947280883789
2299940.0,-4.085307598114014,-0.695300817489624,14.213483810424805,31.037179946899414,72.6004409790039,-84.99821472167969
2299944.0,-4.071183204650879,-0.6829385161399841,14.248306274414062,31.017183303833008,72.56623077392578,-85.00169372558594
2299948.0,-4.057063579559326,-0.6705302000045776,14.283117294311523,30.997188568115234,72.5320053100586,-85.00515747070312
2299952.0,-4.042949199676514,-0.6580759286880493,14.317917823791504,30.977195739746094,72.49774932861328,-85.00861358642578
2299956.0,-4.028841495513916,-0.6455757021903992,14.352705001831055,30.95720100402832,72.4634780883789,-85.0120620727539
2299960.0,-4.014739036560059,-0.6330298781394958,14.387480735778809,30.937206268310547,72.42918395996094,-85.01549530029297
2299964.0,-4.000644207000732,-0.6204383969306946,14.422245025634766,30.91720962524414,72.39485931396484,-85.0189208984375
2299968.0,-3.986556053161621,-0.6078013181686401,14.45699405670166,30.897214889526367,72.36051177978516,-85.02233123779297
2299972.0,-3.972475290298462,-0.5951189398765564,14.491730690002441,30.877222061157227,72.3261489868164,-85.02574157714844
2299976.0,-3.958401918411255,-0.5823912620544434,14.526450157165527,30.857227325439453,72.2917709350586,-85.02913665771484
2299980.0,-3.9443373680114746,-0.5696185231208801,14.561156272888184,30.837236404418945,72.25736236572266,-85.03251647949219
2299984.0,-3.930281400680542,-0.5568008422851562,14.595844268798828,30.81724739074707,72.22293853759766,-85.035888671875
2299988.0,-3.916233777999878,-0.543938398361206,14.63051986694336,30.797258377075195,72.1884994506836,-85.03926086425781
2299992.0,-3.902195453643799,-0.5310311913490295,14.665178298950195,30.777273178100586,72.15404510498047,-85.04261779785156
2299996.0,-3.888166666030884,-0.518079400062561,14.699817657470703,30.757287979125977,72.11956024169922,-85.04596710205078
2300000.0,-3.87414813041687,-0.5050830245018005,14.734439849853516,30.737306594848633,72.08506774902344,-85.04930114746094
2300004.0,-3.860139846801758,-0.4920423924922943,14.769044876098633,30.717329025268555,72.05055236816406,-85.05262756347656
2300008.0,-3.846141815185547,-0.47895747423171997,14.803630828857422,30.69735336303711,72.01602172851562,-85.05594635009766
2300012.0,-3.8321545124053955,-0.4658282995223999,14.838200569152832,30.67738151550293,71.98147583007812,-85.05925750732422
2300016.0,-3.818178653717041,-0.4526551067829132,14.872749328613281,30.657413482666016,71.94690704345703,-85.06254577636719
2300020.0,-3.8042142391204834,-0.4394378364086151,14.907279014587402,30.637449264526367,71.9123306274414,-85.06583404541016
2300024.0,-3.7902615070343018,-0.42617669701576233,14.941790580749512,30.617490768432617,71.87773895263672,-85.0691146850586
2300028.0,-3.7763211727142334,-0.4128718078136444,14.976279258728027,30.5975341796875,71.84312438964844,-85.0723876953125
2300032.0,-3.7623934745788574,-0.39952316880226135,15.010751724243164,30.57758331298828,71.80850219726562,-85.07565307617188
2300036.0,-3.748479127883911,-0.3861308991909027,15.045199394226074,30.55763816833496,71.77387237548828,-85.07890319824219
2300040.0,-3.7345776557922363,-0.3726952075958252,15.079628944396973,30.537694931030273,71.73921966552734,-85.0821533203125
2300044.0,-3.720689296722412,-0.3592160642147064,15.114035606384277,30.517757415771484,71.70455169677734,-85.08538818359375
2300048.0,-3.7068140506744385,-0.34569358825683594,15.148420333862305,30.497825622558594,71.66987609863281,-85.08861541748047
2300052.0,-3.6929526329040527,-0.3321278989315033,15.18278694152832,30.477895736694336,71.63518524169922,-85.09182739257812
2300056.0,-3.679104804992676,-0.3185189366340637,15.217126846313477,30.457979202270508,71.60047912597656,-85.09503936767578
2300060.0,-3.6652708053588867,-0.30486688017845154,15.251448631286621,30.43806266784668,71.56575775146484,-85.0982437133789
2300064.0,-3.6514511108398438,-0.29117172956466675,15.285744667053223,30.418148040771484,71.53103637695312,-85.1014404296875
2300068.0,-3.6376469135284424,-0.2774336040019989,15.320022583007812,30.39824867248535,71.49629211425781,-85.10462188720703
2300072.0,-3.6238577365875244,-0.2636525332927704,15.354273796081543,30.37834930419922,71.4615478515625,-85.10779571533203
2300076.0,-3.610083818435669,-0.24982866644859314,15.388503074645996,30.358455657958984,71.4267807006836,-85.11096954345703
2300080.0,-3.596325635910034,-0.23596204817295074,15.422710418701172,30.33856964111328,71.39200592041016,-85.11412811279297
2300084.0,-3.582582473754883,-0.2220527082681656,15.456892013549805,30.31869125366211,71.35722351074219,-85.1172866821289
2300088.0,-3.5688552856445312,-0.20810075104236603,15.49105167388916,30.298818588256836,71.32242584228516,-85.12043762207031
2300092.0,-3.5551438331604004,-0.19410620629787445,15.525187492370605,30.278949737548828,71.2876205444336,-85.12357330322266
2300096.0,-3.5414483547210693,-0.1800691932439804,15.55929946899414,30.259090423583984,71.25279998779297,-85.126708984375
2300100.0,-3.5277695655822754,-0.16598975658416748,15.59338665008545,30.239234924316406,71.21797943115234,-85.12982940673828
2300104.0,-3.5141079425811768,-0.1518680602312088,15.627449035644531,30.219390869140625,71.18313598632812,-85.1329574584961
2300108.0,-3.5004634857177734,-0.13770411908626556,15.661487579345703,30.199552536010742,71.14830017089844,-85.13607025146484
2300112.0,-3.4868364334106445,-0.12349800020456314,15.695503234863281,30.179719924926758,71.11344909667969,-85.13917541503906
2300116.0,-3.473227024078369,-0.1092497780919075,15.7294921875,30.159896850585938,71.0785903930664,-85.14228057861328
2300120.0,-3.4596357345581055,-0.09495951980352402,15.763457298278809,30.140077590942383,71.0437240600586,-85.14537048339844
2300124.0,-3.4460628032684326,-0.08062729239463806,15.79739761352539,30.120267868041992,71.00884246826172,-85.14845275878906
2300128.0,-3.4325079917907715,-0.06625312566757202,15.831313133239746,30.1004638671875,70.97395324707031,-85.15154266357422
2300132.0,-3.4189717769622803,-0.051837123930454254,15.865204811096191,30.080665588378906,70.93905639648438,-85.15461730957031
2300136.0,-3.405454397201538,-0.03737933188676834,15.899068832397461,30.06087875366211,70.9041519165039,-85.15768432617188
2300140.0,-3.391956329345703,-0.022879838943481445,15.93290901184082,30.04109764099121,70.8692398071289,-85.1607437133789
2300144.0,-3.3784773349761963,-0.008338729850947857,15.966723442077637,30.02132797241211,70.83432006835938,-85.16380310058594
2300148.0,-3.365017890930176,0.006243949756026268,16.000513076782227,30.001562118530273,70.79940032958984,-85.16686248779297
2300152.0,-3.3515782356262207,0.020868171006441116,16.03427505493164,29.981801986694336,70.76447296142578,-85.16991424560547
2300156.0,-3.338158369064331,0.03553389757871628,16.06801414489746,29.962055206298828,70.72952270507812,-85.1729507446289
2300160.0,-3.324758529663086,0.05024107173085213,16.101726531982422,29.94231414794922,70.694580078125,-85.17599487304688
2300164.0,-3.3113791942596436,0.06498966366052628,16.135414123535156,29.92258071899414,70.65962982177734,-85.17903137207031
2300168.0,-3.298020601272583,0.07977962493896484,16.16907501220703,29.902854919433594,70.62467193603516,-85.18206024169922
2300172.0,-3.2846827507019043,0.09461087733507156,16.202709197998047,29.883140563964844,70.5896987915039,-85.18508911132812
2300176.0,-3.2713661193847656,0.10948335379362106,16.236318588256836,29.863428115844727,70.55472564697266,-85.18810272216797
2300180.0,-3.258070707321167,0.12439694255590439,16.269901275634766,29.84372901916504,70.5197525024414,-85.19111633300781
2300184.0,-3.2447969913482666,0.13935162127017975,16.3034610748291,29.82403564453125,70.4847640991211,-85.19412994384766
2300188.0,-3.2315449714660645,0.1543472707271576,16.336992263793945,29.804353713989258,70.44976806640625,-85.1971435546875
2300192.0,-3.218315362930298,0.16938382387161255,16.37049674987793,29.78467559814453,70.41477966308594,-85.20014953613281
2300196.0,-3.205108642578125,0.18446120619773865,16.403976440429688,29.7650089263916,70.37977600097656,-85.20315551757812
2300200.0,-3.191924571990967,0.1995793730020523,16.437429428100586,29.74534797668457,70.34476470947266,-85.2061538696289
2300204.0,-3.1787636280059814,0.21473823487758636,16.470857620239258,29.725696563720703,70.30974578857422,-85.20915985107422
2300208.0,-3.165625810623169,0.22993780672550201,16.50425910949707,29.706056594848633,70.27473449707031,-85.21214294433594
2300212.0,-3.152510643005371,0.24517804384231567,16.537635803222656,29.686420440673828,70.23971557617188,-85.21514129638672
2300216.0,-3.1394190788269043,0.26045891642570496,16.57098388671875,29.666797637939453,70.20468139648438,-85.21813201904297
2300220.0,-3.1263504028320312,0.2757803499698639,16.604307174682617,29.647180557250977,70.16964721679688,-85.22111511230469
2300224.0,-3.1133053302764893,0.29114240407943726,16.637603759765625,29.62757110595703,70.13461303710938,-85.22410583496094
2300228.0,-3.1002838611602783,0.30654481053352356,16.670875549316406,29.607969284057617,70.09957122802734,-85.22708892822266
2300232.0,-3.087287425994873,0.32198768854141235,16.704118728637695,29.58837890625,70.06452178955078,-85.23006439208984
2300236.0,-3.074315309524536,0.3374708592891693,16.737337112426758,29.568798065185547,70.02947235107422,-85.23304748535156
2300240.0,-3.061368227005005,0.35299429297447205,16.77052879333496,29.549222946166992,69.99442291259766,-85.23603057861328
2300244.0,-3.0484464168548584,0.3685579299926758,16.803695678710938,29.5296573638916,69.9593505859375,-85.239013671875
2300248.0,-3.0355496406555176,0.38416165113449097,16.836833953857422,29.510099411010742,69.9242935180664,-85.24198150634766
2300252.0,-3.0226781368255615,0.3998055160045624,16.869949340820312,29.490550994873047,69.88922882080078,-85.24496459960938
2300256.0,-3.0098321437835693,0.41548940539360046,16.90303611755371,29.47101402282715,69.85415649414062,-85.24794006347656
2300260.0,-2.997011184692383,0.43121328949928284,16.936098098754883,29.45148277282715,69.81908416748047,-85.25090789794922
2300264.0,-2.9842159748077393,0.4469771683216095,16.969133377075195,29.43195915222168,69.78400421142578,-85.25389099121094
2300268.0,-2.9714467525482178,0.46278101205825806,17.00214195251465,29.412446975708008,69.7489242553711,-85.2568588256836
2300272.0,-2.9587037563323975,0.47862476110458374,17.035125732421875,29.3929443359375,69.71382904052734,-85.25984191894531
2300276.0,-2.9459874629974365,0.49450820684432983,17.068082809448242,29.37344741821289,69.67874908447266,-85.26280975341797
2300280.0,-2.933297634124756,0.5104314088821411,17.10101318359375,29.353960037231445,69.64364624023438,-85.26578521728516
2300284.0,-2.9206349849700928,0.526394248008728,17.13391876220703,29.33448028564453,69.60855865478516,-85.26876831054688
2300288.0,-2.9079999923706055,0.5423966646194458,17.166799545288086,29.31501579284668,69.5734634399414,-85.27174377441406
2300292.0,-2.895392656326294,0.5584385395050049,17.19965171813965,29.29555320739746,69.5383529663086,-85.27472686767578
2300296.0,-2.882812738418579,0.5745198726654053,17.232481002807617,29.276100158691406,69.50325775146484,-85.2777099609375
2300300.0,-2.8702611923217773,0.5906406044960022,17.26527976989746,29.256654739379883,69.46814727783203,-85.28068542480469
2300304.0,-2.8577375411987305,0.6068006157875061,17.298057556152344,29.23722267150879,69.43303680419922,-85.2836685180664
2300308.0,-2.845242500305176,0.6229999661445618,17.330808639526367,29.217798233032227,69.3979263305664,-85.28665924072266
2300312.0,-2.8327760696411133,0.6392385363578796,17.36353302001953,29.198379516601562,69.3628158569336,-85.28964233398438
2300316.0,-2.820338726043701,0.6555162668228149,17.39623260498047,29.178972244262695,69.32769012451172,-85.29264068603516
2300320.0,-2.8079309463500977,0.6718330383300781,17.428905487060547,29.159574508666992,69.29257202148438,-85.29563903808594
2300324.0,-2.7955520153045654,0.6881888508796692,17.4615535736084,29.140182495117188,69.2574462890625,-85.29862976074219
2300328.0,-2.783202886581421,0.7045836448669434,17.49417495727539,29.120798110961914,69.22232818603516,-85.3016357421875
2300332.0,-2.770883798599243,0.7210173606872559,17.526775360107422,29.101425170898438,69.18719482421875,-85.30463409423828
2300336.0,-2.758594512939453,0.7374899387359619,17.559345245361328,29.082061767578125,69.1520767211914,-85.3076400756836
2300340.0,-2.746335744857788,0.7540013194084167,17.59189224243164,29.06270408630371,69.11693572998047,-85.31065368652344
2300344.0,-2.734107732772827,0.770551323890686,17.624414443969727,29.043354034423828,69.0818099975586,-85.31367492675781
2300348.0,-2.7219107151031494,0.7871400117874146,17.656909942626953,29.024019241333008,69.04667663574219,-85.31669616699219
2300352.0,-2.709744930267334,0.8037673234939575,17.68937873840332,29.004688262939453,69.01154327392578,-85.31970977783203
2300356.0,-2.6976115703582764,0.8204332590103149,17.721824645996094,28.985366821289062,68.97640228271484,-85.32273864746094
2300360.0,-2.6855101585388184,0.8371376991271973,17.75424575805664,28.966054916381836,68.9412612915039,-85.32576751708984
2300364.0,-2.67344069480896,0.8538805842399597,17.786640167236328,28.946748733520508,68.9061279296875,-85.32881927490234
2300368.0,-2.661403179168701,0.8706619143486023,17.819013595581055,28.927453994750977,68.87098693847656,-85.33185577392578
2300372.0,-2.649397850036621,0.8874815702438354,17.851356506347656,28.90816879272461,68.8358383178711,-85.33490753173828
2300376.0,-2.6374244689941406,0.9043393731117249,17.883676528930664,28.888887405395508,68.80069732666016,-85.33795928955078
2300380.0,-2.625483274459839,0.9212353229522705,17.915973663330078,28.869619369506836,68.76554870605469,-85.34101867675781
2300384.0,-2.613574981689453,0.9381694197654724,17.948246002197266,28.850357055664062,68.73040771484375,-85.34408569335938
2300388.0,-2.6016993522644043,0.9551413655281067,17.980493545532227,28.83110237121582,68.69525909423828,-85.34716796875
2300392.0,-2.589857578277588,0.9721512794494629,18.012714385986328,28.811859130859375,68.66011047363281,-85.3502426147461
2300396.0,-2.578049421310425,0.9891990423202515,18.04491424560547,28.792625427246094,68.62496185302734,-85.35333251953125
2300400.0,-2.5662755966186523,1.006284475326538,18.07708740234375,28.773395538330078,68.58981323242188,-85.3564224243164
2300404.0,-2.5545361042022705,1.0234078168869019,18.109237670898438,28.754179000854492,68.5546646118164,-85.35953521728516
2300408.0,-2.5428311824798584,1.0405687093734741,18.1413631439209,28.73496437072754,68.5195083618164,-85.36264038085938
2300412.0,-2.5311615467071533,1.0577671527862549,18.173463821411133,28.71576499938965,68.48435974121094,-85.36576080322266
2300416.0,-2.519526958465576,1.0750031471252441,18.205541610717773,28.696571350097656,68.44921112060547,-85.36888885498047
2300420.0,-2.507927894592285,1.0922764539718628,18.23759651184082,28.677385330200195,68.41405487060547,-85.37203216552734
2300424.0,-2.4963643550872803,1.10958731174469,18.26962661743164,28.658206939697266,68.37890625,-85.37518310546875
2300428.0,-2.484837055206299,1.126935362815857,18.301631927490234,28.639039993286133,68.34375762939453,-85.37832641601562
2300432.0,-2.473345994949341,1.1443204879760742,18.333614349365234,28.6198787689209,68.30860137939453,-85.3814926147461
2300436.0,-2.4618911743164062,1.161742925643921,18.36557388305664,28.600725173950195,68.27345275878906,-85.3846664428711
2300440.0,-2.4504730701446533,1.1792024374008179,18.39750862121582,28.581584930419922,68.23829650878906,-85.3878402709961
2300444.0,-2.4390928745269775,1.196698784828186,18.429420471191406,28.56244659423828,68.2031478881836,-85.39104461669922
2300448.0,-2.4277493953704834,1.214232087135315,18.4613094329834,28.543317794799805,68.1679916381836,-85.39424133300781
2300452.0,-2.4164438247680664,1.2318021059036255,18.493173599243164,28.524198532104492,68.13284301757812,-85.3974609375
2300456.0,-2.4051761627197266,1.2494090795516968,18.5250186920166,28.505088806152344,68.09768676757812,-85.40068817138672
2300460.0,-2.393946647644043,1.2670526504516602,18.556835174560547,28.485984802246094,68.06254577636719,-85.40392303466797
2300464.0,-2.382755756378174,1.2847328186035156,18.58863067626953,28.466888427734375,68.02739715576172,-85.40718078613281
2300468.0,-2.371603488922119,1.3024495840072632,18.620405197143555,28.44780158996582,67.99224853515625,-85.41043090820312
2300472.0,-2.360490322113037,1.3202028274536133,18.65215492248535,28.42872428894043,67.95709991455078,-85.41371154785156
2300476.0,-2.349416494369507,1.3379923105239868,18.683883666992188,28.409650802612305,67.92195129394531,-85.41698455810547
2300480.0,-2.3383824825286865,1.355818271636963,18.715591430664062,28.390588760375977,67.88680267333984,-85.42028045654297
2300484.0,-2.3273885250091553,1.3736802339553833,18.747270584106445,28.371532440185547,67.85165405273438,-85.42359161376953
2300488.0,-2.316434860229492,1.3915783166885376,18.778932571411133,28.35248565673828,67.81651306152344,-85.42691802978516
2300492.0,-2.3055219650268555,1.4095122814178467,18.810571670532227,28.33344268798828,67.7813720703125,-85.43025970458984
2300496.0,-2.2946503162384033,1.4274822473526,18.842187881469727,28.31441307067871,67.74623107910156,-85.43360900878906
2300500.0,-2.2838199138641357,1.4454877376556396,18.873781204223633,28.295387268066406,67.7110824584961,-85.43697357177734
2300504.0,-2.273030996322632,1.4635292291641235,18.905351638793945,28.276371002197266,67.67594909667969,-85.44034576416016
2300508.0,-2.262284278869629,1.4816062450408936,18.936904907226562,28.257362365722656,67.64081573486328,-85.44373321533203
2300512.0,-2.251579999923706,1.4997186660766602,18.968433380126953,28.238361358642578,67.60566711425781,-85.44715118408203
2300516.0,-2.2409181594848633,1.517866611480713,18.999940872192383,28.21936798095703,67.57054138183594,-85.45056915283203
2300520.0,-2.2302989959716797,1.5360498428344727,19.031423568725586,28.200380325317383,67.53540802001953,-85.45401763916016
2300524.0,-2.2197234630584717,1.55426824092865,19.062889099121094,28.1814022064209,67.50028228759766,-85.45747375488281
2300528.0,-2.20919132232666,1.5725218057632446,19.09433364868164,28.162431716918945,67.46514892578125,-85.46094512939453
2300532.0,-2.1987032890319824,1.5908106565475464,19.12575340270996,28.143465042114258,67.43002319335938,-85.46443176269531
2300536.0,-2.1882591247558594,1.609134316444397,19.157154083251953,28.124509811401367,67.3948974609375,-85.46794128417969
2300540.0,-2.1778597831726074,1.6274927854537964,19.188535690307617,28.105558395385742,67.35977935791016,-85.4714584350586
2300544.0,-2.1675055027008057,1.6458860635757446,19.219892501831055,28.08661651611328,67.32465362548828,-85.47500610351562
2300548.0,-2.157196521759033,1.6643139123916626,19.251232147216797,28.06768226623535,67.28954315185547,-85.47856140136719
2300552.0,-2.146933078765869,1.6827763319015503,19.282548904418945,28.04875373840332,67.25442504882812,-85.48213195800781
2300556.0,-2.1367154121398926,1.7012730836868286,19.313844680786133,28.029834747314453,67.21931457519531,-85.48572540283203
2300560.0,-2.126544237136841,1.7198045253753662,19.345121383666992,28.01091957092285,67.1842041015625,-85.48934173583984
2300564.0,-2.116419553756714,1.7383701801300049,19.376375198364258,27.992013931274414,67.14910125732422,-85.49297332763672
2300568.0,-2.10634183883667,1.7569698095321655,19.407611846923828,27.973115921020508,67.11399841308594,-85.49662017822266
2300572.0,-2.096311330795288,1.7756036520004272,19.438827514648438,27.954221725463867,67.07889556884766,-85.50029754638672
2300576.0,-2.0863287448883057,1.7942713499069214,19.470022201538086,27.935335159301758,67.0438003540039,-85.50399017333984
2300580.0,-2.0763943195343018,1.8129727840423584,19.50119972229004,27.916460037231445,67.00871276855469,-85.50769805908203
2300584.0,-2.0665082931518555,1.8317079544067383,19.5323543548584,27.897584915161133,66.97361755371094,-85.51143646240234
2300588.0,-2.056671619415283,1.8504767417907715,19.56348991394043,27.878719329833984,66.93852996826172,-85.51518249511719
2300592.0,-2.046884059906006,1.8692786693572998,19.594608306884766,27.85986328125,66.90345001220703,-85.51895904541016
2300596.0,-2.03714656829834,1.8881142139434814,19.62570571899414,27.84101104736328,66.86837005615234,-85.52275848388672
2300600.0,-2.0274593830108643,1.906982660293579,19.65678596496582,27.82216453552246,66.83329772949219,-85.5265884399414
2300604.0,-2.017822265625,1.9258841276168823,19.687847137451172,27.803329467773438,66.79822540283203,-85.53042602539062
2300608.0,-2.0082366466522217,1.9448188543319702,19.71888542175293,27.784494400024414,66.7631607055664,-85.5342788696289
2300612.0,-1.9987022876739502,1.9637861251831055,19.749906539916992,27.765668869018555,66.72809600830078,-85.53817749023438
2300616.0,-1.9892196655273438,1.9827860593795776,19.78091049194336,27.746849060058594,66.69303894042969,-85.5420913696289
2300620.0,-1.9797892570495605,2.0018184185028076,19.8118953704834,27.728036880493164,66.6579818725586,-85.5460205078125
2300624.0,-1.9704114198684692,2.020883560180664,19.842863082885742,27.709226608276367,66.62294006347656,-85.54999542236328
2300628.0,-1.9610862731933594,2.03998064994812,19.87381362915039,27.6904296875,66.587890625,-85.5539779663086
2300632.0,-1.9518147706985474,2.059109926223755,19.904743194580078,27.671632766723633,66.55284881591797,-85.55799865722656
2300636.0,-1.9425969123840332,2.0782716274261475,19.935653686523438,27.652843475341797,66.517822265625,-85.56202697753906
2300640.0,-1.9334334135055542,2.0974647998809814,19.966550827026367,27.634061813354492,66.4827880859375,-85.56609344482422
2300644.0,-1.9243247509002686,2.116690158843994,19.997426986694336,27.615285873413086,66.44776916503906,-85.57018280029297
2300648.0,-1.9152710437774658,2.13594651222229,20.02828598022461,27.596513748168945,66.4127426147461,-85.57430267333984
2300652.0,-1.9062730073928833,2.1552350521087646,20.059127807617188,27.577747344970703,66.37773132324219,-85.57844543457031
2300656.0,-1.8973307609558105,2.1745548248291016,20.08995246887207,27.558988571166992,66.34272003173828,-85.58261108398438
2300660.0,-1.8884451389312744,2.1939055919647217,20.120758056640625,27.54023551940918,66.30772399902344,-85.5868148803711
2300664.0,-1.8796162605285645,2.213287353515625,20.151548385620117,27.521486282348633,66.2727279663086,-85.5910415649414
2300668.0,-1.8708443641662598,2.2327005863189697,20.18231964111328,27.502744674682617,66.23773193359375,-85.59529113769531
2300672.0,-1.8621305227279663,2.2521438598632812,20.213077545166016,27.484006881713867,66.20275115966797,-85.5995864868164
2300676.0,-1.853474736213684,2.271618127822876,20.243816375732422,27.46527671813965,66.16777038574219,-85.60389709472656
2300680.0,-1.84487783908844,2.2911229133605957,20.274539947509766,27.446552276611328,66.13280487060547,-85.60823822021484
2300684.0,-1.8363405466079712,2.3106577396392822,20.305248260498047,27.427827835083008,66.09783172607422,-85.61260986328125
2300688.0,-1.8278629779815674,2.3302228450775146,20.335939407348633,27.409114837646484,66.06287384033203,-85.61701965332031
2300692.0,-1.8194458484649658,2.3498177528381348,20.366615295410156,27.390403747558594,66.0279312133789,-85.62145233154297
2300696.0,-1.8110895156860352,2.3694422245025635,20.39727210998535,27.37169647216797,65.99298858642578,-85.62592315673828
2300700.0,-1.8027946949005127,2.38909649848938,20.427915573120117,27.352996826171875,65.95805358886719,-85.63043212890625
2300704.0,-1.7945619821548462,2.408780097961426,20.45854377746582,27.334299087524414,65.9231185913086,-85.63496398925781
2300708.0,-1.7863913774490356,2.428492784500122,20.489158630371094,27.31560516357422,65.88819885253906,-85.63953399658203
2300712.0,-1.7782838344573975,2.4482345581054688,20.519756317138672,27.296920776367188,65.85328674316406,-85.6441421508789
2300716.0,-1.7702398300170898,2.468005418777466,20.550336837768555,27.27823829650879,65.8183822631836,-85.64877319335938
2300720.0,-1.762259602546692,2.487804889678955,20.580907821655273,27.259557723999023,65.78348541259766,-85.65345001220703
2300724.0,-1.754343867301941,2.5076329708099365,20.61145782470703,27.24088478088379,65.74859619140625,-85.65816497802734
2300728.0,-1.746492862701416,2.527489423751831,20.641996383666992,27.22221565246582,65.71371459960938,-85.66290283203125
2300732.0,-1.738707423210144,2.5473740100860596,20.67251968383789,27.203550338745117,65.67884826660156,-85.66768646240234
2300736.0,-1.7309881448745728,2.567286491394043,20.703031539916992,27.184892654418945,65.64398193359375,-85.67249298095703
2300740.0,-1.723335862159729,2.5872271060943604,20.7335262298584,27.166234970092773,65.609130859375,-85.67733764648438
2300744.0,-1.715751051902771,2.6071951389312744,20.764005661010742,27.147581100463867,65.57428741455078,-85.6822280883789
2300748.0,-1.708234429359436,2.627190351486206,20.794475555419922,27.12893295288086,65.5394515991211,-85.68716430664062
2300752.0,-1.7007861137390137,2.6472132205963135,20.824928283691406,27.110288619995117,65.50462341308594,-85.69213104248047
2300756.0,-1.6934069395065308,2.6672630310058594,20.855369567871094,27.091644287109375,65.46981048583984,-85.69712829589844
2300760.0,-1.6860967874526978,2.6873397827148438,20.88579559326172,27.073009490966797,65.43500518798828,-85.7021713256836
2300764.0,-1.678856372833252,2.7074427604675293,20.916208267211914,27.05437469482422,65.40020751953125,-85.7072525024414
2300768.0,-1.6716861724853516,2.7275726795196533,20.946611404418945,27.03574562072754,65.36542510986328,-85.71237182617188
2300772.0,-1.6645866632461548,2.7477285861968994,20.976999282836914,27.017118453979492,65.33065032958984,-85.71754455566406
2300776.0,-1.6575592756271362,2.7679107189178467,21.00737190246582,26.998493194580078,65.29588317871094,-85.72274017333984
2300780.0,-1.6506043672561646,2.788118362426758,21.037734985351562,26.979869842529297,65.2611312866211,-85.72798919677734
2300784.0,-1.6437227725982666,2.8083512783050537,21.068086624145508,26.96125602722168,65.22639465332031,-85.7332763671875
2300788.0,-1.6369153261184692,2.8286099433898926,21.098424911499023,26.942638397216797,65.19166564941406,-85.73860931396484
2300792.0,-1.6301823854446411,2.848893165588379,21.12874984741211,26.924026489257812,65.15695190429688,-85.74398803710938
2300796.0,-1.6235249042510986,2.869201183319092,21.15906524658203,26.90541648864746,65.12224578857422,-85.7494125366211
2300800.0,-1.6169434785842896,2.889533758163452,21.189367294311523,26.886808395385742,65.08755493164062,-85.75487518310547
2300804.0,-1.6104387044906616,2.9098904132843018,21.21965980529785,26.868202209472656,65.05287170410156,-85.7603988647461
2300808.0,-1.6040111780166626,2.9302713871002197,21.249940872192383,26.849599838256836,65.0182113647461,-85.76594543457031
2300812.0,-1.5976617336273193,2.950676202774048,21.280208587646484,26.830997467041016,64.98355865478516,-85.77156066894531
2300816.0,-1.5913907289505005,2.9711039066314697,21.310468673706055,26.81239891052246,64.94892120361328,-85.77721405029297
2300820.0,-1.585199236869812,2.9915554523468018,21.340715408325195,26.793800354003906,64.91429901123047,-85.78290557861328
2300824.0,-1.5790876150131226,3.0120298862457275,21.370952606201172,26.775203704833984,64.87968444824219,-85.78865814208984
2300828.0,-1.573056697845459,3.032526969909668,21.401180267333984,26.756610870361328,64.84508514404297,-85.7944564819336
2300832.0,-1.5671072006225586,3.053046703338623,21.431396484375,26.738018035888672,64.81050109863281,-85.80030822753906
2300836.0,-1.5612397193908691,3.0735886096954346,21.46160316467285,26.71942710876465,64.77593994140625,-85.80619812011719
2300840.0,-1.5554550886154175,3.0941524505615234,21.491802215576172,26.700838088989258,64.74138641357422,-85.8121566772461
2300844.0,-1.5497541427612305,3.1147382259368896,21.521987915039062,26.6822509765625,64.70684051513672,-85.81815338134766
2300848.0,-1.544137716293335,3.135345220565796,21.55216407775879,26.66366195678711,64.67232513427734,-85.82420349121094
2300852.0,-1.5386064052581787,3.1559736728668213,21.582332611083984,26.64507293701172,64.6378173828125,-85.8302993774414
2300856.0,-1.533160924911499,3.1766226291656494,21.612491607666016,26.626489639282227,64.60333251953125,-85.83645629882812
2300860.0,-1.5278018712997437,3.1972920894622803,21.64263916015625,26.6079044342041,64.56886291503906,-85.84266662597656
2300864.0,-1.5225305557250977,3.217982053756714,21.672779083251953,26.589319229125977,64.5344009399414,-85.84892272949219
2300868.0,-1.5173472166061401,3.238691806793213,21.702913284301758,26.57073211669922,64.49996948242188,-85.8552474975586
2300872.0,-1.5122531652450562,3.259420871734619,21.733036041259766,26.552146911621094,64.46554565429688,-85.86161804199219
2300876.0,-1.507249116897583,3.2801692485809326,21.76314926147461,26.53356170654297,64.43114471435547,-85.86804962158203
2300880.0,-1.502336025238037,3.300936460494995,21.793256759643555,26.514976501464844,64.39675903320312,-85.87454223632812
2300884.0,-1.4975148439407349,3.3217222690582275,21.8233585357666,26.49639320373535,64.36239624023438,-85.88108825683594
2300888.0,-1.4927866458892822,3.3425259590148926,21.853450775146484,26.47780418395996,64.32804870605469,-85.88768768310547
2300892.0,-1.488152027130127,3.3633475303649902,21.883533477783203,26.45921516418457,64.29371643066406,-85.89436340332031
2300896.0,-1.4836121797561646,3.3841867446899414,21.913610458374023,26.440628051757812,64.25941467285156,-85.90108489990234
2300900.0,-1.4791678190231323,3.4050426483154297,21.943679809570312,26.42203712463379,64.22512817382812,-85.90786743164062
2300904.0,-1.4748197793960571,3.425915241241455,21.973743438720703,26.403446197509766,64.19086456298828,-85.91471099853516
2300908.0,-1.4705692529678345,3.4468042850494385,22.003801345825195,26.384851455688477,64.15663146972656,-85.921630859375
2300912.0,-1.4664167165756226,3.467708110809326,22.033851623535156,26.36625862121582,64.12240600585938,-85.92859649658203
2300916.0,-1.4623634815216064,3.4886279106140137,22.06389617919922,26.347658157348633,64.08821105957031,-85.93563079833984
2300920.0,-1.4584100246429443,3.5095622539520264,22.093935012817383,26.329059600830078,64.05403137207031,-85.94273376464844
2300924.0,-1.4545575380325317,3.5305118560791016,22.12396812438965,26.31045913696289,64.0198745727539,-85.94989776611328
2300928.0,-1.450806736946106,3.551476001739502,22.153993606567383,26.291852951049805,63.98575210571289,-85.9571304321289
2300932.0,-1.4471585750579834,3.5724544525146484,22.18401527404785,26.27324676513672,63.95164108276367,-85.96443176269531
2300936.0,-1.4436142444610596,3.593446969985962,22.21402931213379,26.254638671875,63.91756820678711,-85.9718017578125
2300940.0,-1.4401746988296509,3.6144537925720215,22.244037628173828,26.236024856567383,63.88351058959961,-85.97923278808594
2300944.0,-1.4368408918380737,3.6354737281799316,22.27404022216797,26.2174072265625,63.849483489990234,-85.98673248291016
2300948.0,-1.4336140155792236,3.656506061553955,22.304040908813477,26.198787689208984,63.81547546386719,-85.99430084228516
2300952.0,-1.430495023727417,3.677551031112671,22.334033966064453,26.180164337158203,63.781494140625,-86.00194549560547
2300956.0,-1.4274847507476807,3.6986076831817627,22.36402130126953,26.161537170410156,63.74754333496094,-86.00965881347656
2300960.0,-1.4245843887329102,3.7196757793426514,22.394006729125977,26.142906188964844,63.71361541748047,-86.0174331665039
2300964.0,-1.4217952489852905,3.7407546043395996,22.423988342285156,26.124271392822266,63.679718017578125,-86.02529907226562
2300968.0,-1.4191179275512695,3.761843681335449,22.45396614074707,26.10563087463379,63.64585494995117,-86.0332260131836
2300972.0,-1.4165540933609009,3.782942056655884,22.483938217163086,26.086984634399414,63.61201858520508,-86.0412368774414
2300976.0,-1.41410493850708,3.804049253463745,22.513906478881836,26.068334579467773,63.578208923339844,-86.04931640625
2300980.0,-1.4117718935012817,3.8251633644104004,22.543872833251953,26.0496768951416,63.54443359375,-86.05746459960938
2300984.0,-1.4095556735992432,3.846285343170166,22.573835372924805,26.03101348876953,63.510684967041016,-86.06570434570312
2300988.0,-1.4074581861495972,3.867413282394409,22.603796005249023,26.012344360351562,63.47697067260742,-86.07402801513672
2300992.0,-1.405479907989502,3.888547897338867,22.63375473022461,25.993669509887695,63.44329071044922,-86.08241271972656
2300996.0,-1.4036226272583008,3.909688711166382,22.663707733154297,25.974987030029297,63.409645080566406,-86.09088897705078
2301000.0,-1.4018875360488892,3.9308362007141113,22.693660736083984,25.956296920776367,63.37602996826172,-86.09943389892578
2301004.0,-1.400275707244873,3.9519879817962646,22.72361183166504,25.937599182128906,63.34245300292969,-86.10807037353516
2301008.0,-1.3987882137298584,3.9731462001800537,22.753559112548828,25.91889190673828,63.30890655517578,-86.11679077148438
2301012.0,-1.3974263668060303,3.9943082332611084,22.783504486083984,25.90018081665039,63.27539825439453,-86.12559509277344
2301016.0,-1.3961913585662842,4.01547384262085,22.813446044921875,25.881458282470703,63.24192428588867,-86.13448333740234
2301020.0,-1.3950843811035156,4.036642551422119,22.8433895111084,25.86272621154785,63.208492279052734,-86.1434555053711
2301024.0,-1.3941069841384888,4.05781364440918,22.873329162597656,25.8439884185791,63.17509841918945,-86.15251159667969
2301028.0,-1.3932597637176514,4.078986644744873,22.903268814086914,25.825239181518555,63.14173889160156,-86.16165924072266
2301032.0,-1.3925445079803467,4.100160598754883,22.93320655822754,25.80648422241211,63.108421325683594,-86.17089080810547
2301036.0,-1.3919625282287598,4.121335029602051,22.9631404876709,25.7877140045166,63.07514572143555,-86.18020629882812
2301040.0,-1.3915151357650757,4.142509460449219,22.99307632446289,25.768938064575195,63.041908264160156,-86.18962860107422
2301044.0,-1.391203761100769,4.16368293762207,23.023006439208984,25.750150680541992,63.00871276855469,-86.19912719726562
2301048.0,-1.391029953956604,4.1848554611206055,23.052940368652344,25.731353759765625,62.97556686401367,-86.2087173461914
2301052.0,-1.390994668006897,4.206026077270508,23.082874298095703,25.712543487548828,62.94246292114258,-86.2184066772461
2301056.0,-1.3910996913909912,4.227193355560303,23.11280632019043,25.693721771240234,62.90939712524414,-86.22818756103516
2301060.0,-1.3913463354110718,4.248356819152832,23.142736434936523,25.674890518188477,62.876380920410156,-86.2380599975586
2301064.0,-1.3917362689971924,4.269516944885254,23.172664642333984,25.656047821044922,62.84341049194336,-86.2480239868164
2301068.0,-1.3922709226608276,4.290670871734619,23.202594757080078,25.637187957763672,62.810489654541016,-86.25809478759766
2301072.0,-1.3929518461227417,4.311819553375244,23.23252296447754,25.618316650390625,62.77761459350586,-86.26825714111328
2301076.0,-1.3937809467315674,4.332960605621338,23.262454986572266,25.59943389892578,62.744789123535156,-86.27851867675781
2301080.0,-1.3947598934173584,4.354094505310059,23.292383193969727,25.580533981323242,62.71201705932617,-86.28888702392578
2301084.0,-1.395890235900879,4.37522029876709,23.32231330871582,25.56161880493164,62.67930221557617,-86.29935455322266
2301088.0,-1.3971737623214722,4.396336555480957,23.352245330810547,25.54269027709961,62.64663314819336,-86.30992889404297
2301092.0,-1.398612141609192,4.417442321777344,23.382173538208008,25.523744583129883,62.614017486572266,-86.32058715820312
2301096.0,-1.4002069234848022,4.438538074493408,23.412107467651367,25.50478172302246,62.58146667480469,-86.33137512207031
2301100.0,-1.401959776878357,4.459620475769043,23.442039489746094,25.485803604125977,62.54896926879883,-86.34224700927734
2301104.0,-1.4038722515106201,4.480690956115723,23.471975326538086,25.466806411743164,62.51652526855469,-86.35323333740234
2301108.0,-1.405946135520935,4.501748085021973,23.501907348632812,25.447792053222656,62.4841423034668,-86.36433410644531
2301112.0,-1.408182978630066,4.52278995513916,23.531843185424805,25.42875862121582,62.451820373535156,-86.37553405761719
2301116.0,-1.4105840921401978,4.543816566467285,23.561777114868164,25.40970802307129,62.41956329345703,-86.3868637084961
2301120.0,-1.413151741027832,4.5648274421691895,23.591712951660156,25.390636444091797,62.38736343383789,-86.39828491210938
2301124.0,-1.4158869981765747,4.58582067489624,23.62164878845215,25.37154769897461,62.3552360534668,-86.40982055664062
2301128.0,-1.4187918901443481,4.606795787811279,23.65158462524414,25.352436065673828,62.32316970825195,-86.42147064208984
2301132.0,-1.421867847442627,4.62775182723999,23.681520462036133,25.333309173583984,62.291168212890625,-86.43323516845703
2301136.0,-1.4251166582107544,4.648688316345215,23.711458206176758,25.314157485961914,62.25923156738281,-86.44510650634766
2301140.0,-1.4285401105880737,4.66960334777832,23.741397857666016,25.29498863220215,62.22737503051758,-86.45710754394531
2301144.0,-1.432140588760376,4.690496444702148,23.77133560180664,25.275793075561523,62.19557189941406,-86.46922302246094
2301148.0,-1.4359195232391357,4.711365699768066,23.801273345947266,25.256576538085938,62.16385269165039,-86.4814453125
2301152.0,-1.4398787021636963,4.732211589813232,23.831214904785156,25.237337112426758,62.1322021484375,-86.4937973022461
2301156.0,-1.44402015209198,4.753031253814697,23.861154556274414,25.218074798583984,62.10063552856445,-86.50626373291016
2301160.0,-1.44834566116333,4.773825168609619,23.891094207763672,25.19878578186035,62.06914138793945,-86.51885223388672
2301164.0,-1.452857494354248,4.794590473175049,23.921035766601562,25.179471969604492,62.0377197265625,-86.53156280517578
2301168.0,-1.4575573205947876,4.815327167510986,23.950973510742188,25.160133361816406,62.006385803222656,-86.54439544677734
2301172.0,-1.4624475240707397,4.836032867431641,23.980915069580078,25.140766143798828,61.975128173828125,-86.55735778808594
2301176.0,-1.4675298929214478,4.8567070960998535,24.01085662841797,25.121370315551758,61.94395446777344,-86.57044219970703
2301180.0,-1.4728070497512817,4.87734842300415,24.040794372558594,25.10194969177246,61.912879943847656,-86.58365631103516
2301184.0,-1.478281021118164,4.897956371307373,24.07073211669922,25.082494735717773,61.88188171386719,-86.59700012207031
2301188.0,-1.4839539527893066,4.918527603149414,24.100671768188477,25.063011169433594,61.850975036621094,-86.61046600341797
2301192.0,-1.4898277521133423,4.939062595367432,24.13060760498047,25.04349708557129,61.820167541503906,-86.62407684326172
2301196.0,-1.4959046840667725,4.959559440612793,24.160545349121094,25.023948669433594,61.78944396972656,-86.63780975341797
2301200.0,-1.50218665599823,4.980016231536865,24.19047737121582,25.00436782836914,61.75882339477539,-86.65167236328125
2301204.0,-1.5086759328842163,5.000432014465332,24.220409393310547,24.98475456237793,61.72830581665039,-86.6656723022461
2301208.0,-1.5153743028640747,5.020805835723877,24.250341415405273,24.965106964111328,61.69788360595703,-86.6798095703125
2301212.0,-1.5222837924957275,5.041135787963867,24.280269622802734,24.945423126220703,61.66756057739258,-86.69407653808594
2301216.0,-1.5294064283370972,5.061420917510986,24.310195922851562,24.925704956054688,61.6373405456543,-86.70848083496094
2301220.0,-1.536744236946106,5.081659317016602,24.340116500854492,24.90595054626465,61.607234954833984,-86.72303009033203
2301224.0,-1.5442990064620972,5.101850986480713,24.370037078857422,24.88615608215332,61.57722854614258,-86.73772430419922
2301228.0,-1.5520730018615723,5.121992111206055,24.399953842163086,24.866329193115234,61.547332763671875,-86.75253295898438
2301232.0,-1.560068130493164,5.142083168029785,24.42986488342285,24.846460342407227,61.517555236816406,-86.76750946044922
2301236.0,-1.568286657333374,5.1621222496032715,24.45977020263672,24.826553344726562,61.487892150878906,-86.7826156616211
2301240.0,-1.5767306089401245,5.182107448577881,24.48967170715332,24.80660629272461,61.458335876464844,-86.79785919189453
2301244.0,-1.5854021310806274,5.2020368576049805,24.519567489624023,24.78662109375,61.42890548706055,-86.81324768066406
2301248.0,-1.5943032503128052,5.221909999847412,24.549457550048828,24.766590118408203,61.39959716796875,-86.82878112792969
2301252.0,-1.6034363508224487,5.241724014282227,24.579341888427734,24.74652099609375,61.37040328979492,-86.8444595336914
2301256.0,-1.6128034591674805,5.261478900909424,24.609220504760742,24.726404190063477,61.34135055541992,-86.86028289794922
2301260.0,-1.6224066019058228,5.281170845031738,24.639087677001953,24.706241607666016,61.312416076660156,-86.87625885009766
2301264.0,-1.6322484016418457,5.300798416137695,24.668947219848633,24.686037063598633,61.28361511230469,-86.89237976074219
2301268.0,-1.642330527305603,5.3203606605529785,24.69879913330078,24.665781021118164,61.254947662353516,-86.90863800048828
2301272.0,-1.6526559591293335,5.339855670928955,24.728639602661133,24.645477294921875,61.22642517089844,-86.92505645751953
2301276.0,-1.6632264852523804,5.359281063079834,24.758468627929688,24.625123977661133,61.198036193847656,-86.94161987304688
2301280.0,-1.6740447282791138,5.378634929656982,24.78829002380371,24.60471534729004,61.169803619384766,-86.95834350585938
2301284.0,-1.6851128339767456,5.397915840148926,24.818096160888672,24.584259033203125,61.14170837402344,-86.97520446777344
2301288.0,-1.6964330673217773,5.417121887207031,24.847888946533203,24.563743591308594,61.113765716552734,-86.99221801757812
2301292.0,-1.7080078125,5.436250686645508,24.877670288085938,24.543176651000977,61.085975646972656,-87.0093994140625
2301296.0,-1.7198388576507568,5.455300807952881,24.907434463500977,24.522550582885742,61.05834197998047,-87.0267105102539
2301300.0,-1.7319285869598389,5.474269866943359,24.937185287475586,24.501869201660156,61.03086853027344,-87.044189453125
2301304.0,-1.744279146194458,5.493156433105469,24.966917037963867,24.48112678527832,61.003562927246094,-87.06182861328125
2301308.0,-1.7568920850753784,5.511958599090576,24.996633529663086,24.460329055786133,60.97641372680664,-87.07962036132812
2301312.0,-1.7697697877883911,5.530673503875732,25.026330947875977,24.43946647644043,60.949440002441406,-87.0975570678711
2301316.0,-1.7829138040542603,5.549300670623779,25.056007385253906,24.41853904724121,60.922637939453125,-87.11565399169922
2301320.0,-1.7963265180587769,5.567837715148926,25.085664749145508,24.39755630493164,60.8960075378418,-87.13390350341797
2301324.0,-1.8100093603134155,5.586281776428223,25.11530303955078,24.376502990722656,60.86955261230469,-87.1523208618164
2301328.0,-1.8239644765853882,5.6046319007873535,25.144914627075195,24.355388641357422,60.843284606933594,-87.17088317871094
2301332.0,-1.8381932973861694,5.622885227203369,25.174503326416016,24.334213256835938,60.81719207763672,-87.18960571289062
2301336.0,-1.8526978492736816,5.641040802001953,25.20406723022461,24.312965393066406,60.79129409790039,-87.20848846435547
2301340.0,-1.8674798011779785,5.6590962409973145,25.233604431152344,24.291654586791992,60.76557922363281,-87.22752380371094
2301344.0,-1.8825410604476929,5.677049160003662,25.26311492919922,24.27027130126953,60.74005889892578,-87.24671173095703
2301348.0,-1.8978832960128784,5.6948981285095215,25.2925968170166,24.248817443847656,60.71474075317383,-87.26606750488281
2301352.0,-1.9135080575942993,5.712640285491943,25.322050094604492,24.227296829223633,60.689605712890625,-87.28557586669922
2301356.0,-1.9294170141220093,5.730273723602295,25.351470947265625,24.205698013305664,60.664695739746094,-87.30524444580078
2301360.0,-1.9456120729446411,5.747797012329102,25.380857467651367,24.184024810791016,60.639976501464844,-87.32505798339844
2301364.0,-1.9620945453643799,5.765206813812256,25.410207748413086,24.162277221679688,60.615478515625,-87.34503173828125
2301368.0,-1.9788658618927002,5.782500743865967,25.439523696899414,24.140451431274414,60.591190338134766,-87.36516571044922
2301372.0,-1.9959279298782349,5.799677848815918,25.468801498413086,24.118547439575195,60.56711959838867,-87.38545227050781
2301376.0,-2.01328182220459,5.816734790802002,25.4980411529541,24.096559524536133,60.54328155517578,-87.4059066772461
2301380.0,-2.0309295654296875,5.833669662475586,25.527238845825195,24.074491500854492,60.5196647644043,-87.4264907836914
2301384.0,-2.048872470855713,5.8504815101623535,25.556394577026367,24.052337646484375,60.49627685546875,-87.44725036621094
2301388.0,-2.0671112537384033,5.867166519165039,25.58550262451172,24.03009796142578,60.473121643066406,-87.46814727783203
2301392.0,-2.0856480598449707,5.883723258972168,25.614566802978516,24.007774353027344,60.450199127197266,-87.48919677734375
2301396.0,-2.1044836044311523,5.900148868560791,25.64358139038086,23.9853572845459,60.42753219604492,-87.51041412353516
2301400.0,-2.1236190795898438,5.916441917419434,25.67254638671875,23.962852478027344,60.40510177612305,-87.53176879882812
2301404.0,-2.1430554389953613,5.932600498199463,25.701461791992188,23.940258026123047,60.38291549682617,-87.55327606201172
2301408.0,-2.1627936363220215,5.948620796203613,25.73031997680664,23.91756820678711,60.361000061035156,-87.5749282836914
2301412.0,-2.1828348636627197,5.964503288269043,25.759126663208008,23.894786834716797,60.339324951171875,-87.59673309326172
2301416.0,-2.2031795978546143,5.980243682861328,25.787872314453125,23.871912002563477,60.31791305541992,-87.61868286132812
2301420.0,-2.2238287925720215,5.9958415031433105,25.81656265258789,23.848941802978516,60.29676818847656,-87.64078521728516
2301424.0,-2.2447826862335205,6.011293411254883,25.845191955566406,23.82587432861328,60.27588653564453,-87.66304016113281
2301428.0,-2.2660419940948486,6.026598930358887,25.873756408691406,23.80270767211914,60.25527572631836,-87.68543243408203
2301432.0,-2.287607192993164,6.041754722595215,25.90225601196289,23.779443740844727,60.23493194580078,-87.70796203613281
2301436.0,-2.309478521347046,6.056759357452393,25.930688858032227,23.756080627441406,60.214874267578125,-87.73063659667969
2301440.0,-2.331655740737915,6.0716118812561035,25.95905303955078,23.732616424560547,60.195091247558594,-87.75345611572266
2301444.0,-2.354139804840088,6.086309432983398,25.987348556518555,23.70905303955078,60.175594329833984,-87.77641296386719
2301448.0,-2.376929521560669,6.100851058959961,26.01556968688965,23.68538475036621,60.15637969970703,-87.79949951171875
2301452.0,-2.4000260829925537,6.115233898162842,26.04371452331543,23.66161346435547,60.13745880126953,-87.8227310180664
2301456.0,-2.423428535461426,6.129457473754883,26.0717830657959,23.63773536682129,60.11882781982422,-87.84609985351562
2301460.0,-2.4471371173858643,6.143518924713135,26.099775314331055,23.613754272460938,60.100494384765625,-87.86959075927734
2301464.0,-2.471151113510132,6.1574177742004395,26.127685546875,23.589664459228516,60.082454681396484,-87.89321899414062
2301468.0,-2.4954707622528076,6.171151161193848,26.15550994873047,23.565465927124023,60.064720153808594,-87.91697692871094
2301472.0,-2.520094871520996,6.184718132019043,26.183250427246094,23.541154861450195,60.04729461669922,-87.94084930419922
2301476.0,-2.545022964477539,6.198116779327393,26.21090316772461,23.516735076904297,60.03017044067383,-87.96485900878906
2301480.0,-2.570254325866699,6.21134614944458,26.238466262817383,23.492202758789062,60.013362884521484,-87.98898315429688
2301484.0,-2.5957882404327393,6.224405288696289,26.26593589782715,23.467557907104492,59.99686813354492,-88.01323699951172
2301488.0,-2.621623992919922,6.23729133605957,26.29331398010254,23.44279670715332,59.98067855834961,-88.03759765625
2301492.0,-2.6477608680725098,6.250004768371582,26.320592880249023,23.417919158935547,59.964820861816406,-88.06208038330078
2301496.0,-2.674197196960449,6.262542724609375,26.347776412963867,23.392925262451172,59.949275970458984,-88.08667755126953
2301500.0,-2.700932741165161,6.274905204772949,26.374858856201172,23.367813110351562,59.93405532836914,-88.11138153076172
2301504.0,-2.727965831756592,6.287089824676514,26.401840209960938,23.342586517333984,59.919158935546875,-88.13619232177734
2301508.0,-2.755295515060425,6.29909610748291,26.428714752197266,23.317237854003906,59.90459060668945,-88.1611099243164
2301512.0,-2.7829205989837646,6.310922622680664,26.455482482910156,23.291770935058594,59.890357971191406,-88.1861343383789
2301516.0,-2.8108396530151367,6.322568416595459,26.482145309448242,23.266183853149414,59.87645721435547,-88.21125793457031
2301520.0,-2.8390514850616455,6.33403205871582,26.50869369506836,23.240474700927734,59.862892150878906,-88.23648834228516
2301524.0,-2.867553949356079,6.34531307220459,26.53512954711914,23.214649200439453,59.84966278076172,-88.26181030273438
2301528.0,-2.896346092224121,6.356410026550293,26.561450958251953,23.188695907592773,59.83677291870117,-88.28722381591797
2301532.0,-2.9254255294799805,6.367323398590088,26.587656021118164,23.162622451782227,59.82422637939453,-88.31273651123047
2301536.0,-2.9547908306121826,6.378052234649658,26.613740921020508,23.136428833007812,59.812015533447266,-88.33834075927734
2301540.0,-2.9844396114349365,6.388595104217529,26.639707565307617,23.110111236572266,59.80015182495117,-88.36402130126953
2301544.0,-3.0143697261810303,6.398952484130859,26.66554832458496,23.083667755126953,59.78863525390625,-88.38980102539062
2301548.0,-3.04457950592041,6.40912389755249,26.691268920898438,23.057106018066406,59.777462005615234,-88.4156494140625
2301552.0,-3.075066566467285,6.419109344482422,26.716861724853516,23.03041648864746,59.76663589477539,-88.44158935546875
2301556.0,-3.1058285236358643,6.428908348083496,26.742328643798828,23.003604888916016,59.75615692138672,-88.46761322021484
2301560.0,-3.1368632316589355,6.438520431518555,26.76766586303711,22.976667404174805,59.74602127075195,-88.49369049072266
2301564.0,-3.168168783187866,6.447946071624756,26.792871475219727,22.949607849121094,59.73624038696289,-88.51985168457031
2301568.0,-3.199741840362549,6.4571852684021,26.81794548034668,22.92242431640625,59.726802825927734,-88.54608917236328
2301572.0,-3.2315807342529297,6.466238498687744,26.842885971069336,22.89511489868164,59.71771240234375,-88.57239532470703
2301576.0,-3.2636821269989014,6.475105285644531,26.86768913269043,22.867679595947266,59.70896911621094,-88.5987548828125
2301580.0,-3.2960433959960938,6.483786582946777,26.89236068725586,22.840124130249023,59.7005729675293,-88.62517547607422
2301584.0,-3.3286616802215576,6.492283344268799,26.916894912719727,22.81243896484375,59.692527770996094,-88.65167236328125
2301588.0,-3.3615341186523438,6.500595569610596,26.941287994384766,22.784629821777344,59.68482208251953,-88.67821502685547
2301592.0,-3.394658088684082,6.508723258972168,26.965539932250977,22.756698608398438,59.677467346191406,-88.70481872558594
2301596.0,-3.4280312061309814,6.516668796539307,26.98965072631836,22.728639602661133,59.67045974731445,-88.73146057128906
2301600.0,-3.4616503715515137,6.524429798126221,27.01361846923828,22.700458526611328,59.663787841796875,-88.7581558227539
2301604.0,-3.4955124855041504,6.532008171081543,27.037445068359375,22.672151565551758,59.657466888427734,-88.784912109375
2301608.0,-3.5296149253845215,6.539405345916748,27.061124801635742,22.643720626831055,59.651493072509766,-88.81170654296875
2301612.0,-3.563955068588257,6.546621322631836,27.084657669067383,22.615163803100586,59.64585876464844,-88.83854675292969
2301616.0,-3.5985300540924072,6.553656101226807,27.108043670654297,22.586484909057617,59.64057159423828,-88.86542510986328
2301620.0,-3.6333367824554443,6.560510635375977,27.13128089904785,22.557682037353516,59.6356201171875,-88.892333984375
2301624.0,-3.668372631072998,6.5671868324279785,27.154369354248047,22.52875518798828,59.63101577758789,-88.9192886352539
2301628.0,-3.703634262084961,6.573684215545654,27.177305221557617,22.499706268310547,59.62675476074219,-88.94627380371094
2301632.0,-3.739119291305542,6.5800042152404785,27.200092315673828,22.470535278320312,59.622825622558594,-88.9732894897461
2301636.0,-3.774824380874634,6.586147308349609,27.222721099853516,22.441240310668945,59.619239807128906,-89.00032806396484
2301640.0,-3.810746908187866,6.59211540222168,27.245201110839844,22.41182518005371,59.615997314453125,-89.02740478515625
2301644.0,-3.8468832969665527,6.597908973693848,27.267526626586914,22.382287979125977,59.613094329833984,-89.05450439453125
2301648.0,-3.883230686187744,6.603529930114746,27.289697647094727,22.352628707885742,59.61051940917969,-89.08162689208984
2301652.0,-3.919785737991333,6.608978748321533,27.311710357666016,22.322851181030273,59.60826873779297,-89.1087646484375
2301656.0,-3.9565467834472656,6.614256381988525,27.33357048034668,22.292953491210938,59.60636520385742,-89.13593292236328
2301660.0,-3.9935100078582764,6.6193647384643555,27.355270385742188,22.262935638427734,59.60478591918945,-89.16311645507812
2301664.0,-4.030673027038574,6.62430477142334,27.376815795898438,22.232799530029297,59.603538513183594,-89.19031524658203
2301668.0,-4.068033218383789,6.629078388214111,27.398202896118164,22.202547073364258,59.60260772705078,-89.21751403808594
2301672.0,-4.105587005615234,6.633686065673828,27.41943359375,22.172178268432617,59.60200119018555,-89.24474334716797
2301676.0,-4.143331527709961,6.638130187988281,27.440505981445312,22.141691207885742,59.60172653198242,-89.27196502685547
2301680.0,-4.181263446807861,6.642412185668945,27.4614200592041,22.111085891723633,59.60176086425781,-89.29920196533203
2301684.0,-4.219379901885986,6.646533489227295,27.482173919677734,22.08036994934082,59.602115631103516,-89.32646179199219
2301688.0,-4.2576775550842285,6.650495529174805,27.50277328491211,22.049535751342773,59.602779388427734,-89.35371398925781
2301692.0,-4.296154022216797,6.654300212860107,27.523208618164062,22.01858901977539,59.603763580322266,-89.38096618652344
2301696.0,-4.334806442260742,6.657948970794678,27.543487548828125,21.98752784729004,59.605045318603516,-89.4082260131836
2301700.0,-4.373631954193115,6.66144323348999,27.563608169555664,21.956356048583984,59.60664367675781,-89.43548583984375
2301704.0,-4.412627220153809,6.664784908294678,27.583568572998047,21.92506980895996,59.608543395996094,-89.4627456665039
2301708.0,-4.451789855957031,6.667974472045898,27.603370666503906,21.893672943115234,59.610748291015625,-89.49000549316406
2301712.0,-4.491116523742676,6.671013832092285,27.623010635375977,21.862167358398438,59.613258361816406,-89.51725769042969
2301716.0,-4.530605792999268,6.673904895782471,27.642488479614258,21.830549240112305,59.61606216430664,-89.54450988769531
2301720.0,-4.570253372192383,6.67664909362793,27.661808013916016,21.798824310302734,59.619163513183594,-89.5717544555664
2301724.0,-4.610057830810547,6.679248332977295,27.68096923828125,21.766990661621094,59.62256622314453,-89.5989990234375
2301728.0,-4.6500163078308105,6.681703090667725,27.699966430664062,21.735048294067383,59.62625503540039,-89.62621307373047
2301732.0,-4.690125465393066,6.68401575088501,27.71880531311035,21.703001022338867,59.63024139404297,-89.65343475341797
2301736.0,-4.730382919311523,6.686187744140625,27.737483978271484,21.670848846435547,59.63450622558594,-89.6806411743164
2301740.0,-4.770785808563232,6.688220500946045,27.75600242614746,21.638587951660156,59.639068603515625,-89.70783233642578
2301744.0,-4.8113322257995605,6.6901164054870605,27.774356842041016,21.60622215270996,59.64390182495117,-89.73501586914062
2301748.0,-4.8520188331604,6.691876411437988,27.79255485534668,21.57375717163086,59.64902114868164,-89.7621841430664
2301752.0,-4.892843723297119,6.693502902984619,27.810590744018555,21.54118537902832,59.654422760009766,-89.7893295288086
2301756.0,-4.933804512023926,6.6949968338012695,27.82847023010254,21.508514404296875,59.660099029541016,-89.81646728515625
2301760.0,-4.974898338317871,6.696360111236572,27.8461856842041,21.47574234008789,59.666046142578125,-89.84358215332031
2301764.0,-5.0161237716674805,6.69759464263916,27.863746643066406,21.44287109375,59.672264099121094,-89.87068176269531
2301768.0,-5.057477951049805,6.698701858520508,27.881147384643555,21.409896850585938,59.67874526977539,-89.89775848388672
2301772.0,-5.098958969116211,6.699683666229248,27.898387908935547,21.376827239990234,59.68549346923828,-89.92481994628906
2301776.0,-5.140563488006592,6.700541019439697,27.915470123291016,21.34366226196289,59.692501068115234,-89.95186614990234
2301780.0,-5.182290077209473,6.701277732849121,27.932397842407227,21.310396194458008,59.69977569580078,-89.97887420654297
2301784.0,-5.224135398864746,6.701893329620361,27.949167251586914,21.277036666870117,59.70730209350586,-90.00587463378906
2301788.0,-5.2660980224609375,6.702391147613525,27.96578025817871,21.24358367919922,59.71507263183594,-90.0328598022461
2301792.0,-5.308175563812256,6.702772617340088,27.982234954833984,21.210033416748047,59.723106384277344,-90.05980682373047
2301796.0,-5.350365161895752,6.703038215637207,27.998537063598633,21.176393508911133,59.73138427734375,-90.08673095703125
2301800.0,-5.392665863037109,6.70319128036499,28.014680862426758,21.14266014099121,59.73991012573242,-90.1136474609375
2301804.0,-5.435074329376221,6.703232288360596,28.030670166015625,21.108835220336914,59.74867248535156,-90.1405258178711
2301808.0,-5.4775896072387695,6.7031636238098145,28.0465030670166,21.074918746948242,59.757686614990234,-90.1673812866211
2301812.0,-5.52020788192749,6.702985763549805,28.062183380126953,21.04091453552246,59.766937255859375,-90.19422149658203
2301816.0,-5.562929630279541,6.702701568603516,28.077709197998047,21.006816864013672,59.77641677856445,-90.22102355957031
2301820.0,-5.605751037597656,6.702311992645264,28.093080520629883,20.97263526916504,59.786128997802734,-90.247802734375
2301824.0,-5.648670196533203,6.701818943023682,28.108299255371094,20.93836784362793,59.79608154296875,-90.2745590209961
2301828.0,-5.691686153411865,6.701223850250244,28.123363494873047,20.904010772705078,59.80625534057617,-90.30126953125
2301832.0,-5.73479700088501,6.700527667999268,28.138277053833008,20.86956787109375,59.81665802001953,-90.32797241210938
2301836.0,-5.778000354766846,6.699732780456543,28.153039932250977,20.83504295349121,59.82728576660156,-90.3546371459961
2301840.0,-5.821292877197266,6.698840141296387,28.167648315429688,20.800430297851562,59.83814239501953,-90.38127899169922
2301844.0,-5.864675521850586,6.697851657867432,28.182106018066406,20.76573944091797,59.849212646484375,-90.40788269042969
2301848.0,-5.908143997192383,6.696769714355469,28.196414947509766,20.730960845947266,59.86048889160156,-90.43446350097656
2301852.0,-5.951698303222656,6.695594310760498,28.2105712890625,20.69610595703125,59.87199783325195,-90.46102142333984
2301856.0,-5.995336055755615,6.694328784942627,28.224578857421875,20.66116714477539,59.883705139160156,-90.48753356933594
2301860.0,-6.039056777954102,6.692972660064697,28.238439559936523,20.626148223876953,59.8956298828125,-90.51402282714844
2301864.0,-6.082857131958008,6.691528797149658,28.252151489257812,20.591053009033203,59.907752990722656,-90.54048919677734
2301868.0,-6.126737117767334,6.689998626708984,28.265714645385742,20.555877685546875,59.92008972167969,-90.5669174194336
2301872.0,-6.170694351196289,6.688383102416992,28.279132843017578,20.520626068115234,59.932621002197266,-90.59332275390625
2301876.0,-6.214727401733398,6.686684608459473,28.292404174804688,20.48529815673828,59.94534683227539,-90.61968994140625
2301880.0,-6.258833885192871,6.684904098510742,28.305530548095703,20.449893951416016,59.958274841308594,-90.64602661132812
2301884.0,-6.303013801574707,6.683043003082275,28.318511962890625,20.41441535949707,59.971397399902344,-90.67233276367188
2301888.0,-6.347264289855957,6.681103706359863,28.331348419189453,20.378864288330078,59.984710693359375,-90.69861602783203
2301892.0,-6.3915839195251465,6.6790876388549805,28.34404182434082,20.34324073791504,59.99821472167969,-90.72486877441406
2301896.0,-6.435972690582275,6.676994800567627,28.356590270996094,20.30754280090332,60.011905670166016,-90.75109100341797
2301900.0,-6.480427265167236,6.674827575683594,28.368999481201172,20.271774291992188,60.025779724121094,-90.77727508544922
2301904.0,-6.524947166442871,6.672588348388672,28.381263732910156,20.23593521118164,60.03983688354492,-90.80342864990234
2301908.0,-6.569530963897705,6.670276641845703,28.393388748168945,20.20002555847168,60.0540771484375,-90.8295669555664
2301912.0,-6.614177703857422,6.66789436340332,28.405372619628906,20.164047241210938,60.06848907470703,-90.85565948486328
2301916.0,-6.6588850021362305,6.6654438972473145,28.417213439941406,20.12799835205078,60.08308410644531,-90.8817367553711
2301920.0,-6.703652381896973,6.6629252433776855,28.428918838500977,20.09188461303711,60.097843170166016,-90.90776824951172
2301924.0,-6.74847936630249,6.660340309143066,28.440481185913086,20.05570411682129,60.112789154052734,-90.93376922607422
2301928.0,-6.793363571166992,6.657690525054932,28.451908111572266,20.019453048706055,60.127891540527344,-90.9597396850586
2301932.0,-6.838304042816162,6.654977321624756,28.46319580078125,19.98314094543457,60.14316940307617,-90.98568725585938
2301936.0,-6.883299350738525,6.6522016525268555,28.474346160888672,19.946762084960938,60.15861129760742,-91.01160430908203
2301940.0,-6.928349018096924,6.649364471435547,28.48535919189453,19.91031837463379,60.17421340942383,-91.03749084472656
2301944.0,-6.97344970703125,6.646467685699463,28.496234893798828,19.873811721801758,60.18998336791992,-91.06333923339844
2301948.0,-7.0186028480529785,6.643512725830078,28.506977081298828,19.837242126464844,60.20590591430664,-91.08916473388672
2301952.0,-7.063807010650635,6.640501022338867,28.5175838470459,19.80061149597168,60.221988677978516,-91.11495971679688
2301956.0,-7.109059810638428,6.63743257522583,28.52805519104004,19.763919830322266,60.23823165893555,-91.14071655273438
2301960.0,-7.154362201690674,6.6343092918396,28.53839111328125,19.72716522216797,60.25462341308594,-91.16646575927734
2301964.0,-7.199711799621582,6.631133079528809,28.54859733581543,19.690351486206055,60.271175384521484,-91.1921615600586
2301968.0,-7.245109558105469,6.627904415130615,28.558670043945312,19.653480529785156,60.28786849975586,-91.21784210205078
2301972.0,-7.290551662445068,6.624624252319336,28.56861114501953,19.616548538208008,60.30470275878906,-91.24349212646484
2301976.0,-7.336039066314697,6.621294975280762,28.57842254638672,19.57956314086914,60.32168197631836,-91.26910400390625
2301980.0,-7.381568431854248,6.617917060852051,28.588102340698242,19.54251480102539,60.33881378173828,-91.29470825195312
2301984.0,-7.4271392822265625,6.614491939544678,28.597652435302734,19.505414962768555,60.35608673095703,-91.32027435302734
2301988.0,-7.472752094268799,6.611020088195801,28.607074737548828,19.468257904052734,60.37348937988281,-91.34580993652344
2301992.0,-7.518404960632324,6.607504367828369,28.61636734008789,19.43104362487793,60.39103698730469,-91.37130737304688
2301996.0,-7.5640974044799805,6.60394287109375,28.625532150268555,19.39377784729004,60.408714294433594,-91.39679718017578
2302000.0,-7.609828948974609,6.600340366363525,28.634567260742188,19.356456756591797,60.42653274536133,-91.42224884033203
2302004.0,-7.655599594116211,6.596694469451904,28.643478393554688,19.319082260131836,60.44447708129883,-91.44767761230469
2302008.0,-7.701407432556152,6.593008995056152,28.652265548706055,19.28165626525879,60.462554931640625,-91.47307586669922
2302012.0,-7.747251510620117,6.589283466339111,28.66092300415039,19.244176864624023,60.48075866699219,-91.49844360351562
2302016.0,-7.793131351470947,6.585519313812256,28.669452667236328,19.206647872924805,60.49909210205078,-91.52379608154297
2302020.0,-7.839046478271484,6.581717491149902,28.67786407470703,19.1690673828125,60.517547607421875,-91.54911804199219
2302024.0,-7.884994983673096,6.577879905700684,28.686145782470703,19.13143539428711,60.5361328125,-91.57440948486328
2302028.0,-7.930976867675781,6.5740065574646,28.694311141967773,19.0937557220459,60.554832458496094,-91.59968566894531
2302032.0,-7.976990699768066,6.570098400115967,28.702346801757812,19.056026458740234,60.57365036010742,-91.62492370605469
2302036.0,-8.02303695678711,6.56615686416626,28.710264205932617,19.018247604370117,60.59259796142578,-91.650146484375
2302040.0,-8.069112777709961,6.562182903289795,28.718055725097656,18.98042106628418,60.61165237426758,-91.67534637451172
2302044.0,-8.115220069885254,6.558177471160889,28.725730895996094,18.942548751831055,60.63082504272461,-91.70051574707031
2302048.0,-8.161355972290039,6.554141521453857,28.73328399658203,18.904626846313477,60.65011215209961,-91.72565460205078
2302052.0,-8.207521438598633,6.550076007843018,28.74071502685547,18.866661071777344,60.66950988769531,-91.75077819824219
2302056.0,-8.253714561462402,6.5459818840026855,28.748027801513672,18.828649520874023,60.68902587890625,-91.77587127685547
2302060.0,-8.299935340881348,6.541860103607178,28.755220413208008,18.790592193603516,60.708641052246094,-91.80094909667969
2302064.0,-8.346182823181152,6.5377116203308105,28.762296676635742,18.75248908996582,60.72836685180664,-91.82600402832031
2302068.0,-8.392457008361816,6.533536911010742,28.769256591796875,18.71434211730957,60.74820327758789,-91.85103607177734
2302072.0,-8.438756942749023,6.529338836669922,28.77609634399414,18.6761531829834,60.76813888549805,-91.87603759765625
2302076.0,-8.48508071899414,6.525115013122559,28.782817840576172,18.637922286987305,60.788177490234375,-91.90103149414062
2302080.0,-8.5314302444458,6.520869731903076,28.7894287109375,18.599647521972656,60.80831527709961,-91.92598724365234
2302084.0,-8.577803611755371,6.5166015625,28.795921325683594,18.561330795288086,60.82855224609375,-91.950927734375
2302088.0,-8.624199867248535,6.512312412261963,28.80229949951172,18.522972106933594,60.84889221191406,-91.9758529663086
2302092.0,-8.670619010925293,6.508002758026123,28.80855941772461,18.484573364257812,60.869319915771484,-92.0007553100586
2302096.0,-8.717060089111328,6.503673553466797,28.81471061706543,18.446136474609375,60.889854431152344,-92.025634765625
2302100.0,-8.763522148132324,6.499326705932617,28.820749282836914,18.407657623291016,60.91047286987305,-92.05049896240234
2302104.0,-8.810005187988281,6.494960784912109,28.826669692993164,18.369138717651367,60.931190490722656,-92.07533264160156
2302108.0,-8.8565092086792,6.490579128265381,28.83247947692871,18.330581665039062,60.951995849609375,-92.10015869140625
2302112.0,-8.903032302856445,6.486180305480957,28.838178634643555,18.2919864654541,60.9728889465332,-92.12496185302734
2302116.0,-8.949575424194336,6.481766223907471,28.843767166137695,18.253353118896484,60.99386978149414,-92.14974212646484
2302120.0,-8.996139526367188,6.47733736038208,28.8492431640625,18.214679718017578,61.014949798583984,-92.17451477050781
2302124.0,-9.04272174835205,6.472894668579102,28.8546085357666,18.17597198486328,61.03610610961914,-92.19925689697266
2302128.0,-9.089322090148926,6.468439102172852,28.859865188598633,18.13722801208496,61.057342529296875,-92.22399139404297
2302132.0,-9.135940551757812,6.46397066116333,28.86501121520996,18.098445892333984,61.07868194580078,-92.24869537353516
2302136.0,-9.182576179504395,6.459490776062012,28.870044708251953,18.059629440307617,61.1000862121582,-92.27339172363281
2302140.0,-9.229228973388672,6.455000400543213,28.87497329711914,18.020776748657227,61.12157440185547,-92.29806518554688
2302144.0,-9.275897979736328,6.450499534606934,28.879791259765625,17.981889724731445,61.143150329589844,-92.32272338867188
2302148.0,-9.322583198547363,6.445989608764648,28.884504318237305,17.94296646118164,61.16478729248047,-92.34735870361328
2302152.0,-9.369283676147461,6.441470623016357,28.88911247253418,17.90401268005371,61.18651580810547,-92.37199401855469
2302156.0,-9.416000366210938,6.436944007873535,28.893606185913086,17.865022659301758,61.20832443237305,-92.39659881591797
2302160.0,-9.46273136138916,6.43241024017334,28.897998809814453,17.826000213623047,61.230201721191406,-92.42119598388672
2302164.0,-9.509475708007812,6.427870273590088,28.902284622192383,17.786945343017578,61.25215530395508,-92.4457778930664
2302168.0,-9.556234359741211,6.423323631286621,28.906463623046875,17.74785804748535,61.274173736572266,-92.47034454345703
2302172.0,-9.603008270263672,6.4187726974487305,28.910537719726562,17.708736419677734,61.296268463134766,-92.4948959350586
2302176.0,-9.64979362487793,6.414216995239258,28.91451072692871,17.669584274291992,61.31843566894531,-92.5194320678711
2302180.0,-9.696593284606934,6.4096574783325195,28.91837501525879,17.630401611328125,61.340667724609375,-92.54396057128906
2302184.0,-9.74340534210205,6.40509557723999,28.92214012145996,17.591188430786133,61.36296844482422,-92.56846618652344
2302188.0,-9.790227890014648,6.400530815124512,28.925800323486328,17.551942825317383,61.38533401489258,-92.59296417236328
2302192.0,-9.837064743041992,6.3959641456604,28.929359436035156,17.512670516967773,61.407772064208984,-92.61743927001953
2302196.0,-9.883910179138184,6.391396999359131,28.932815551757812,17.473365783691406,61.43026351928711,-92.64191436767578
2302200.0,-9.930768966674805,6.386829376220703,28.936168670654297,17.434032440185547,61.45283126831055,-92.66637420654297
2302204.0,-9.977638244628906,6.382261753082275,28.93941879272461,17.394672393798828,61.475460052490234,-92.6908187866211
2302208.0,-10.024518966674805,6.377694606781006,28.94257164001465,17.35527992248535,61.49814224243164,-92.71525573730469
2302212.0,-10.071407318115234,6.373129367828369,28.945621490478516,17.31586265563965,61.52089309692383,-92.73968505859375
2302216.0,-10.118308067321777,6.368565559387207,28.948572158813477,17.27641487121582,61.543701171875,-92.76409149169922
2302220.0,-10.165217399597168,6.364005088806152,28.95142364501953,17.236942291259766,61.56656265258789,-92.78849029541016
2302224.0,-10.212136268615723,6.359447002410889,28.954172134399414,17.19744110107422,61.589481353759766,-92.8128890991211
2302228.0,-10.259062767028809,6.354893207550049,28.95682716369629,17.157913208007812,61.612464904785156,-92.83727264404297
2302232.0,-10.305998802185059,6.350343227386475,28.95937728881836,17.11836051940918,61.635498046875,-92.86163330078125
2302236.0,-10.352943420410156,6.345798492431641,28.96183204650879,17.078777313232422,61.658592224121094,-92.88599395751953
2302240.0,-10.399896621704102,6.341259002685547,28.96419334411621,17.03917121887207,61.681732177734375,-92.91034698486328
2302244.0,-10.446857452392578,6.33672571182251,28.966449737548828,16.99953842163086,61.704925537109375,-92.9346923828125
2302248.0,-10.49382495880127,6.3321990966796875,28.968612670898438,16.959880828857422,61.72817611694336,-92.95902252197266
2302252.0,-10.540800094604492,6.327679634094238,28.970678329467773,16.920196533203125,61.7514762878418,-92.98334503173828
2302256.0,-10.587782859802246,6.323167324066162,28.972644805908203,16.880489349365234,61.77482604980469,-93.00765228271484
2302260.0,-10.634772300720215,6.318663597106934,28.974515914916992,16.840757369995117,61.798221588134766,-93.03196716308594
2302264.0,-10.681768417358398,6.314168930053711,28.976295471191406,16.80100440979004,61.8216667175293,-93.05625915527344
2302268.0,-10.72877025604248,6.309682846069336,28.97797203063965,16.7612247467041,61.84516525268555,-93.08055877685547
2302272.0,-10.775778770446777,6.305207252502441,28.979564666748047,16.721420288085938,61.86870193481445,-93.1048355102539
2302276.0,-10.822793006896973,6.300741672515869,28.98105239868164,16.681596755981445,61.89228439331055,-93.12911224365234
2302280.0,-10.86981201171875,6.2962870597839355,28.982450485229492,16.641748428344727,61.915916442871094,-93.15338897705078
2302284.0,-10.916836738586426,6.291843891143799,28.983755111694336,16.601877212524414,61.93959045410156,-93.17765045166016
2302288.0,-10.9638671875,6.287413120269775,28.984962463378906,16.561986923217773,61.96330642700195,-93.20191192626953
2302292.0,-11.01090145111084,6.282994747161865,28.986080169677734,16.522069931030273,61.987060546875,-93.22616577148438
2302296.0,-11.057940483093262,6.278589248657227,28.987104415893555,16.482133865356445,62.0108642578125,-93.25041198730469
2302300.0,-11.10498332977295,6.274197578430176,28.988033294677734,16.442180633544922,62.03470230102539,-93.274658203125
2302304.0,-11.152032852172852,6.269820213317871,28.988874435424805,16.402198791503906,62.0585823059082,-93.29888916015625
2302308.0,-11.19908618927002,6.265456676483154,28.989622116088867,16.362201690673828,62.08250045776367,-93.3231201171875
2302312.0,-11.246143341064453,6.261107921600342,28.990276336669922,16.322181701660156,62.10645294189453,-93.34735107421875
2302316.0,-11.293205261230469,6.256774425506592,28.990840911865234,16.282142639160156,62.13044738769531,-93.3715591430664
2302320.0,-11.340270042419434,6.252455711364746,28.99131202697754,16.242082595825195,62.154476165771484,-93.39578247070312
2302324.0,-11.38733959197998,6.248152256011963,28.991695404052734,16.202003479003906,62.17854690551758,-93.42000579833984
2302328.0,-11.434410095214844,6.243865489959717,28.991989135742188,16.16190528869629,62.20264434814453,-93.44420623779297
2302332.0,-11.481485366821289,6.23959493637085,28.9921932220459,16.121788024902344,62.22677993774414,-93.46841430664062
2302336.0,-11.528563499450684,6.235342025756836,28.992305755615234,16.081649780273438,62.250946044921875,-93.49261474609375
2302340.0,-11.575644493103027,6.231107234954834,28.992326736450195,16.041494369506836,62.275150299072266,-93.51681518554688
2302344.0,-11.622726440429688,6.2268900871276855,28.99226188659668,16.001317977905273,62.29938507080078,-93.541015625
2302348.0,-11.669811248779297,6.222692489624023,28.992103576660156,15.961126327514648,62.32365417480469,-93.5652084350586
2302352.0,-11.716897964477539,6.2185139656066895,28.99186134338379,15.920914649963379,62.34794235229492,-93.58940124511719
2302356.0,-11.763986587524414,6.214354991912842,28.991531372070312,15.880684852600098,62.37226867675781,-93.61359405517578
2302360.0,-11.811076164245605,6.210216999053955,28.99110984802246,15.840439796447754,62.39662551879883,-93.63777923583984
2302364.0,-11.858168601989746,6.206098556518555,28.990602493286133,15.800175666809082,62.4210090637207,-93.6619644165039
2302368.0,-11.905261039733887,6.202001571655273,28.990007400512695,15.759895324707031,62.44541549682617,-93.6861572265625
2302372.0,-11.95235538482666,6.1979265213012695,28.989328384399414,15.719596862792969,62.4698600769043,-93.71033477783203
2302376.0,-11.99945068359375,6.193872451782227,28.988555908203125,15.679281234741211,62.494319915771484,-93.7345199584961
2302380.0,-12.046546936035156,6.189841270446777,28.987701416015625,15.638951301574707,62.51881408691406,-93.75869750976562
2302384.0,-12.093643188476562,6.185832977294922,28.98675537109375,15.598603248596191,62.54332733154297,-93.78286743164062
2302388.0,-12.140740394592285,6.18184757232666,28.985729217529297,15.558238983154297,62.567867279052734,-93.80705261230469
2302392.0,-12.187837600708008,6.17788553237915,28.984615325927734,15.517860412597656,62.59242630004883,-93.83123779296875
2302396.0,-12.234933853149414,6.173947334289551,28.983413696289062,15.47746467590332,62.61701583862305,-93.85542297363281
2302400.0,-12.282031059265137,6.170032501220703,28.982128143310547,15.437054634094238,62.64162063598633,-93.87959289550781
2302404.0,-12.329127311706543,6.166141986846924,28.980756759643555,15.396629333496094,62.6662483215332,-93.90377044677734
2302408.0,-12.376224517822266,6.162276268005371,28.979305267333984,15.35618782043457,62.69089889526367,-93.9279556274414
2302412.0,-12.423319816589355,6.158435344696045,28.977764129638672,15.315732955932617,62.71556854248047,-93.95213317871094
2302416.0,-12.470416069030762,6.154620170593262,28.97614288330078,15.275261878967285,62.74026107788086,-93.976318359375
2302420.0,-12.517512321472168,6.150831699371338,28.97443389892578,15.234776496887207,62.76497268676758,-94.00050354003906
2302424.0,-12.564605712890625,6.147069454193115,28.972640991210938,15.194278717041016,62.789703369140625,-94.02468872070312
2302428.0,-12.611700057983398,6.143333911895752,28.970766067504883,15.153765678405762,62.814449310302734,-94.04888153076172
2302432.0,-12.658793449401855,6.139625549316406,28.968809127807617,15.113238334655762,62.839210510253906,-94.07305908203125
2302436.0,-12.705885887145996,6.135944366455078,28.966768264770508,15.0726957321167,62.8640022277832,-94.09725189208984
2302440.0,-12.75297737121582,6.132291316986084,28.964643478393555,15.032143592834473,62.888797760009766,-94.12144470214844
2302444.0,-12.800065994262695,6.128665447235107,28.96243667602539,14.991575241088867,62.913612365722656,-94.1456298828125
2302448.0,-12.847153663635254,6.125068187713623,28.960145950317383,14.950995445251465,62.938446044921875,-94.16983032226562
2302452.0,-12.894240379333496,6.121499538421631,28.957775115966797,14.910402297973633,62.963279724121094,-94.19402313232422
2302456.0,-12.941324234008789,6.117959976196289,28.955324172973633,14.869796752929688,62.98814010620117,-94.21822357177734
2302460.0,-12.988407135009766,6.114449501037598,28.95278549194336,14.829177856445312,63.01301193237305,-94.242431640625
2302464.0,-13.03548812866211,6.110968589782715,28.950170516967773,14.788546562194824,63.037899017333984,-94.26663970947266
2302468.0,-13.082566261291504,6.107518672943115,28.94747543334961,14.747903823852539,63.06279754638672,-94.29084777832031
2302472.0,-13.129642486572266,6.104098796844482,28.944692611694336,14.707246780395508,63.087703704833984,-94.31504821777344
2302476.0,-13.176715850830078,6.100709438323975,28.94183349609375,14.666580200195312,63.11262893676758,-94.33927154541016
2302480.0,-13.223786354064941,6.097351551055908,28.938894271850586,14.625901222229004,63.13755798339844,-94.36349487304688
2302484.0,-13.270854949951172,6.094024658203125,28.935874938964844,14.585209846496582,63.16250228881836,-94.3877182006836
2302488.0,-13.31792163848877,6.090729713439941,28.93277359008789,14.544508934020996,63.18745422363281,-94.41193389892578
2302492.0,-13.364983558654785,6.087467193603516,28.929594039916992,14.503795623779297,63.212406158447266,-94.4361801147461
2302496.0,-13.412044525146484,6.084237098693848,28.926332473754883,14.463072776794434,63.23738098144531,-94.46041107177734
2302500.0,-13.459100723266602,6.081038951873779,28.922992706298828,14.422335624694824,63.262351989746094,-94.48464965820312
2302504.0,-13.50615406036377,6.077874183654785,28.919574737548828,14.381589889526367,63.28733825683594,-94.50889587402344
2302508.0,-13.553204536437988,6.074742794036865,28.916074752807617,14.340834617614746,63.31232452392578,-94.53314208984375
2302512.0,-13.600251197814941,6.071645259857178,28.912498474121094,14.300067901611328,63.33732223510742,-94.5573959350586
2302516.0,-13.647294044494629,6.068581581115723,28.90884017944336,14.259289741516113,63.362327575683594,-94.58164978027344
2302520.0,-13.694334983825684,6.0655517578125,28.905107498168945,14.218502044677734,63.387332916259766,-94.60591125488281
2302524.0,-13.74137020111084,6.062556266784668,28.90129280090332,14.177705764770508,63.412349700927734,-94.63018035888672
2302528.0,-13.78840160369873,6.059596061706543,28.897403717041016,14.1368989944458,63.43736267089844,-94.65444946289062
2302532.0,-13.835430145263672,6.056671142578125,28.8934326171875,14.096080780029297,63.4623908996582,-94.6787338256836
