rparak/ABB_EGM_Python/src/Old/EGM_Results/IRB1200/result_desired_abs_joint_v100_z100.txt
Time,Joint_1,Joint_2,Joint_3,Joint_4,Joint_5,Joint_6
12869006.0,-5.536809921264648,-1.7338919639587402,10.59418773651123,33.07684326171875,75.97412109375,-84.57347869873047
12869010.0,-5.536809921264648,-1.7338919639587402,10.59418773651123,33.07684326171875,75.97412109375,-84.57347869873047
12869014.0,-5.536809921264648,-1.7338919639587402,10.59418773651123,33.07684326171875,75.97412109375,-84.57347869873047
12869018.0,-5.536809921264648,-1.7338919639587402,10.59418773651123,33.07684326171875,75.97412109375,-84.57347869873047
12869022.0,-5.536809921264648,-1.7338919639587402,10.59418773651123,33.07684326171875,75.97412109375,-84.57347869873047
12869026.0,-5.536809921264648,-1.7338919639587402,10.59418773651123,33.07684326171875,75.97412109375,-84.57347869873047
12869030.0,-5.536809921264648,-1.7338919639587402,10.59418773651123,33.07684326171875,75.97412109375,-84.57347869873047
12869034.0,-5.536809921264648,-1.7338919639587402,10.59418773651123,33.07684326171875,75.97412109375,-84.57347869873047
12869038.0,-5.536809921264648,-1.7338919639587402,10.59418773651123,33.07684326171875,75.97412109375,-84.57347869873047
12869042.0,-5.536809921264648,-1.7338919639587402,10.59418773651123,33.07684326171875,75.97412109375,-84.57347869873047
12869046.0,-5.536809921264648,-1.7338919639587402,10.59418773651123,33.07684326171875,75.97412109375,-84.57347869873047
12869050.0,-5.536809921264648,-1.7338919639587402,10.59418773651123,33.07684326171875,75.97412109375,-84.57347869873047
12869054.0,-5.536799430847168,-1.733879804611206,10.594195365905762,33.076839447021484,75.97412109375,-84.57347869873047
12869058.0,-5.536728858947754,-1.733801245689392,10.59424877166748,33.07682800292969,75.9740982055664,-84.57347869873047
12869062.0,-5.536479949951172,-1.7335282564163208,10.594456672668457,33.07676696777344,75.97402954101562,-84.57349395751953
12869066.0,-5.535837650299072,-1.7328417301177979,10.595064163208008,33.07655334472656,75.97377014160156,-84.57352447509766
12869070.0,-5.534529685974121,-1.7314934730529785,10.596479415893555,33.07600784301758,75.9730453491211,-84.57364654541016
12869074.0,-5.532320976257324,-1.7293344736099243,10.59926986694336,33.0748176574707,75.97135162353516,-84.57390594482422
12869078.0,-5.529062271118164,-1.7263723611831665,10.60412883758545,33.07255935668945,75.9679946899414,-84.57442474365234
12869082.0,-5.524663925170898,-1.7227230072021484,10.611821174621582,33.068748474121094,75.962158203125,-84.57532501220703
12869086.0,-5.519068717956543,-1.7185436487197876,10.62309741973877,33.06288528442383,75.95299530029297,-84.57672882080078
12869090.0,-5.5123162269592285,-1.714063286781311,10.63852310180664,33.0545768737793,75.93982696533203,-84.57875061035156
12869094.0,-5.5045318603515625,-1.709533929824829,10.658347129821777,33.043609619140625,75.92227172851562,-84.5814437866211
12869098.0,-5.495763778686523,-1.705008625984192,10.68250846862793,33.030006408691406,75.90036010742188,-84.58480834960938
12869102.0,-5.485922336578369,-1.7002636194229126,10.710670471191406,33.014015197753906,75.87452697753906,-84.5887680053711
12869106.0,-5.474912166595459,-1.694987177848816,10.74225902557373,32.996070861816406,75.84552764892578,-84.59322357177734
12869110.0,-5.462783336639404,-1.6890040636062622,10.776516914367676,32.976661682128906,75.814208984375,-84.59803771972656
12869114.0,-5.449678897857666,-1.6822686195373535,10.812661170959473,32.95628356933594,75.78136444091797,-84.60307312011719
12869118.0,-5.435745716094971,-1.6747733354568481,10.850029945373535,32.93533706665039,75.74769592285156,-84.60823822021484
12869122.0,-5.421168804168701,-1.6666122674942017,10.888120651245117,32.91410827636719,75.71363067626953,-84.61346435546875
12869126.0,-5.4061994552612305,-1.6580108404159546,10.926567077636719,32.89276885986328,75.67943572998047,-84.61872100830078
12869130.0,-5.3910698890686035,-1.6492170095443726,10.965137481689453,32.87138748168945,75.64521026611328,-84.62397003173828
12869134.0,-5.375905990600586,-1.6403729915618896,11.003727912902832,32.85000991821289,75.61097717285156,-84.62921142578125
12869138.0,-5.360740661621094,-1.6315101385116577,11.042309761047363,32.82863235473633,75.57672882080078,-84.63446044921875
12869142.0,-5.345574378967285,-1.6226272583007812,11.080878257751465,32.80725860595703,75.54248809814453,-84.63968658447266
12869146.0,-5.330408573150635,-1.6137213706970215,11.119428634643555,32.785884857177734,75.50822448730469,-84.64490509033203
12869150.0,-5.315244197845459,-1.6047896146774292,11.157957077026367,32.764522552490234,75.4739761352539,-84.65011596679688
12869154.0,-5.300084114074707,-1.5958281755447388,11.196456909179688,32.743167877197266,75.43970489501953,-84.6552963256836
12869158.0,-5.284928321838379,-1.5868332386016846,11.2349271774292,32.72182846069336,75.40542602539062,-84.66045379638672
12869162.0,-5.269777774810791,-1.5778021812438965,11.273362159729004,32.70049285888672,75.37114715576172,-84.66559600830078
12869166.0,-5.254632472991943,-1.5687326192855835,11.311762809753418,32.67917251586914,75.33686065673828,-84.67071533203125
12869170.0,-5.2394914627075195,-1.5596216917037964,11.350127220153809,32.65786361694336,75.30255889892578,-84.67581176757812
12869174.0,-5.224355220794678,-1.550467848777771,11.388452529907227,32.636566162109375,75.26824951171875,-84.6808853149414
12869178.0,-5.209223747253418,-1.5412706136703491,11.426739692687988,32.61528015136719,75.23393249511719,-84.68592071533203
12869182.0,-5.194096565246582,-1.5320295095443726,11.464990615844727,32.59400939941406,75.19961547851562,-84.6909408569336
12869186.0,-5.178974151611328,-1.5227446556091309,11.503202438354492,32.57274627685547,75.16526794433594,-84.69593811035156
12869190.0,-5.16385555267334,-1.513416051864624,11.541377067565918,32.55149841308594,75.13092803955078,-84.7009048461914
12869194.0,-5.148741245269775,-1.504043459892273,11.579513549804688,32.53025817871094,75.0965805053711,-84.70584869384766
12869198.0,-5.133631706237793,-1.4946269989013672,11.6176118850708,32.509033203125,75.06222534179688,-84.71076965332031
12869202.0,-5.118526935577393,-1.4851667881011963,11.65567398071289,32.48781967163086,75.0278549194336,-84.71566009521484
12869206.0,-5.1034255027771,-1.4756627082824707,11.693696022033691,32.466617584228516,74.99346923828125,-84.72054290771484
12869210.0,-5.088329315185547,-1.4661147594451904,11.731680870056152,32.44542694091797,74.9590835571289,-84.72537994384766
12869214.0,-5.07323694229126,-1.456523060798645,11.76962947845459,32.424251556396484,74.92469787597656,-84.7302017211914
12869218.0,-5.058149814605713,-1.4468873739242554,11.807538986206055,32.40308380126953,74.89028930664062,-84.73500061035156
12869222.0,-5.043066501617432,-1.437207818031311,11.845410346984863,32.38193130493164,74.85588073730469,-84.73977661132812
12869226.0,-5.027987957000732,-1.4274845123291016,11.883243560791016,32.36078643798828,74.82145690917969,-84.74452209472656
12869230.0,-5.012914657592773,-1.417717456817627,11.921040534973145,32.339656829833984,74.78702545166016,-84.7492446899414
12869234.0,-4.997847080230713,-1.4079067707061768,11.9587984085083,32.318538665771484,74.7525863647461,-84.75393676757812
12869238.0,-4.982784748077393,-1.3980523347854614,11.996520042419434,32.29743194580078,74.71814727783203,-84.75862121582031
12869242.0,-4.967728614807129,-1.3881542682647705,12.034204483032227,32.27634048461914,74.6836929321289,-84.76326751708984
12869246.0,-4.952678680419922,-1.378212809562683,12.071852684020996,32.255252838134766,74.64923858642578,-84.76790618896484
12869250.0,-4.9376349449157715,-1.3682277202606201,12.109461784362793,32.23418426513672,74.61476135253906,-84.77251434326172
12869254.0,-4.922597885131836,-1.358199119567871,12.147035598754883,32.21312713623047,74.58028411865234,-84.777099609375
12869258.0,-4.907567501068115,-1.3481272459030151,12.184572219848633,32.19207763671875,74.5457992553711,-84.78166198730469
12869262.0,-4.892543315887451,-1.3380118608474731,12.22207260131836,32.171043395996094,74.51130676269531,-84.78620910644531
12869266.0,-4.87752628326416,-1.3278532028198242,12.259535789489746,32.15001678466797,74.476806640625,-84.79073333740234
12869270.0,-4.862515449523926,-1.3176511526107788,12.296963691711426,32.129005432128906,74.44229888916016,-84.79523468017578
12869274.0,-4.847512722015381,-1.307405948638916,12.33435344696045,32.10800552368164,74.40779113769531,-84.7997055053711
12869278.0,-4.832517623901367,-1.2971172332763672,12.37170696258545,32.087013244628906,74.37326049804688,-84.80416870117188
12869282.0,-4.817529678344727,-1.2867851257324219,12.409024238586426,32.066036224365234,74.33873748779297,-84.80860900878906
12869286.0,-4.802548885345459,-1.2764098644256592,12.446305274963379,32.04507064819336,74.30419921875,-84.81302642822266
12869290.0,-4.787575721740723,-1.2659912109375,12.483551025390625,32.02411651611328,74.2696533203125,-84.81742858886719
12869294.0,-4.772610187530518,-1.2555291652679443,12.520758628845215,32.00318145751953,74.235107421875,-84.8218002319336
12869298.0,-4.757651329040527,-1.245023488998413,12.557929992675781,31.982248306274414,74.20054626464844,-84.8261489868164
12869302.0,-4.742700099945068,-1.234474778175354,12.595065116882324,31.96133041381836,74.16597747802734,-84.83048248291016
12869306.0,-4.727756977081299,-1.2238823175430298,12.632164001464844,31.9404239654541,74.13140106201172,-84.83478546142578
12869310.0,-4.712820053100586,-1.2132465839385986,12.66922664642334,31.919530868530273,74.0968246459961,-84.83908081054688
12869314.0,-4.697891712188721,-1.2025673389434814,12.706252098083496,31.89864730834961,74.0622329711914,-84.84334564208984
12869318.0,-4.68297004699707,-1.1918447017669678,12.743241310119629,31.877777099609375,74.02764129638672,-84.84759521484375
12869322.0,-4.668056011199951,-1.181078553199768,12.780194282531738,31.856918334960938,73.99303436279297,-84.85181427001953
12869326.0,-4.653149127960205,-1.1702690124511719,12.817111015319824,31.836069107055664,73.95841979980469,-84.85602569580078
12869330.0,-4.638251304626465,-1.1594163179397583,12.853991508483887,31.81523323059082,73.92379760742188,-84.8602066040039
12869334.0,-4.623361110687256,-1.1485201120376587,12.890835762023926,31.794408798217773,73.88917541503906,-84.86436462402344
12869338.0,-4.6084794998168945,-1.1375809907913208,12.927643775939941,31.773595809936523,73.85454559326172,-84.8685073852539
12869342.0,-4.593606472015381,-1.1265984773635864,12.964415550231934,31.75279426574707,73.81990814208984,-84.87263488769531
12869346.0,-4.578742980957031,-1.1155730485916138,13.001152992248535,31.73200798034668,73.7852554321289,-84.8767318725586
12869350.0,-4.5638885498046875,-1.1045043468475342,13.037853240966797,31.71122932434082,73.7506103515625,-84.88082122802734
12869354.0,-4.549044132232666,-1.0933928489685059,13.074520111083984,31.690462112426758,73.7159423828125,-84.88488006591797
12869358.0,-4.534209251403809,-1.0822383165359497,13.111149787902832,31.669710159301758,73.6812744140625,-84.88893127441406
12869362.0,-4.519384860992432,-1.0710408687591553,13.147745132446289,31.64896583557129,73.6466064453125,-84.89295959472656
12869366.0,-4.504570007324219,-1.0598005056381226,13.184306144714355,31.628232955932617,73.61192321777344,-84.89697265625
12869370.0,-4.4897661209106445,-1.0485173463821411,13.220830917358398,31.607513427734375,73.57723999023438,-84.90097045898438
12869374.0,-4.474972724914551,-1.037191390991211,13.257320404052734,31.58680534362793,73.54254913330078,-84.90494537353516
12869378.0,-4.460189342498779,-1.0258225202560425,13.29377555847168,31.56610870361328,73.50785064697266,-84.90890502929688
12869382.0,-4.4454169273376465,-1.0144108533859253,13.330196380615234,31.54542350769043,73.47314453125,-84.91283416748047
12869386.0,-4.430654525756836,-1.0029562711715698,13.366580963134766,31.524747848510742,73.43843078613281,-84.91676330566406
12869390.0,-4.415902614593506,-0.9914588332176208,13.402931213378906,31.504087448120117,73.40371704101562,-84.92066955566406
12869394.0,-4.401161193847656,-0.9799184203147888,13.43924617767334,31.483436584472656,73.36898803710938,-84.92456817626953
12869398.0,-4.386430263519287,-0.9683351516723633,13.475525856018066,31.46279525756836,73.33426666259766,-84.92842864990234
12869402.0,-4.371709823608398,-0.9567088484764099,13.511770248413086,31.442169189453125,73.29953002929688,-84.93228149414062
12869406.0,-4.35699987411499,-0.945039689540863,13.547980308532715,31.421550750732422,73.2647933959961,-84.93611145019531
12869410.0,-4.3423004150390625,-0.9333275556564331,13.584155082702637,31.40094566345215,73.23004150390625,-84.93993377685547
12869414.0,-4.327611446380615,-0.9215723276138306,13.620293617248535,31.380352020263672,73.19528198242188,-84.94373321533203
12869418.0,-4.312932968139648,-0.9097742438316345,13.65639877319336,31.359769821166992,73.1605224609375,-84.94751739501953
12869422.0,-4.298264980316162,-0.8979331851005554,13.692468643188477,31.33919906616211,73.1257553100586,-84.9512710571289
12869426.0,-4.2836079597473145,-0.8860492706298828,13.728503227233887,31.31863784790039,73.09097290039062,-84.95501708984375
12869430.0,-4.268962860107422,-0.8741226196289062,13.76450252532959,31.298091888427734,73.05619812011719,-84.95874786376953
12869434.0,-4.254328727722168,-0.8621530532836914,13.800467491149902,31.277557373046875,73.02140808105469,-84.96245574951172
12869438.0,-4.239706993103027,-0.8501409292221069,13.836397171020508,31.25703239440918,72.98661041259766,-84.96615600585938
12869442.0,-4.22509765625,-0.8380860686302185,13.872294425964355,31.23651885986328,72.95182037353516,-84.9698257446289
12869446.0,-4.210500240325928,-0.8259885907173157,13.908156394958496,31.21601676940918,72.91700744628906,-84.9734878540039
12869450.0,-4.195915699005127,-0.813848614692688,13.943984031677246,31.195524215698242,72.88219451904297,-84.97714233398438
12869454.0,-4.181344032287598,-0.8016662001609802,13.979777336120605,31.175046920776367,72.8473892211914,-84.98077392578125
12869458.0,-4.16678524017334,-0.7894413471221924,14.015538215637207,31.154577255249023,72.81256103515625,-84.98439025878906
12869462.0,-4.152238845825195,-0.7771741151809692,14.051264762878418,31.134119033813477,72.77774047851562,-84.98799133300781
12869466.0,-4.1377058029174805,-0.7648645639419556,14.086957931518555,31.113677978515625,72.74291229248047,-84.99158477783203
12869470.0,-4.1231865882873535,-0.7525126934051514,14.122617721557617,31.09324073791504,72.70806884765625,-84.99515533447266
12869474.0,-4.108681678771973,-0.7401184439659119,14.158243179321289,31.072818756103516,72.67322540283203,-84.99871826171875
12869478.0,-4.094189167022705,-0.7276819348335266,14.193835258483887,31.052406311035156,72.63838195800781,-85.00225830078125
12869482.0,-4.079711437225342,-0.7152031660079956,14.229393005371094,31.032005310058594,72.60352325439453,-85.00579071044922
12869486.0,-4.06524658203125,-0.7026818990707397,14.26491928100586,31.01161766052246,72.56867218017578,-85.00931549072266
12869490.0,-4.050796031951904,-0.6901184320449829,14.300410270690918,30.991239547729492,72.53380584716797,-85.01282501220703
12869494.0,-4.036358833312988,-0.677512526512146,14.335866928100586,30.970870971679688,72.49893188476562,-85.01631164550781
12869498.0,-4.02193546295166,-0.6648642420768738,14.371292114257812,30.950517654418945,72.46406555175781,-85.019775390625
12869502.0,-4.00752592086792,-0.6521734595298767,14.406682968139648,30.9301700592041,72.42918395996094,-85.02323913574219
12869506.0,-3.9931297302246094,-0.6394402980804443,14.442039489746094,30.90983772277832,72.39430236816406,-85.02669525146484
12869510.0,-3.978747844696045,-0.6266646385192871,14.477361679077148,30.889516830444336,72.35940551757812,-85.0301284790039
12869514.0,-3.96437931060791,-0.6138466000556946,14.512651443481445,30.86920738220215,72.32450866699219,-85.03353881835938
12869518.0,-3.9500253200531006,-0.6009862422943115,14.547908782958984,30.848907470703125,72.28961181640625,-85.03694915771484
12869522.0,-3.935685634613037,-0.5880834460258484,14.5831298828125,30.8286190032959,72.25469970703125,-85.04034423828125
12869526.0,-3.9213602542877197,-0.5751384496688843,14.618319511413574,30.8083438873291,72.21979522705078,-85.04371643066406
12869530.0,-3.9070496559143066,-0.5621511340141296,14.653475761413574,30.788074493408203,72.18487548828125,-85.04708099365234
12869534.0,-3.8927531242370605,-0.5491216778755188,14.688596725463867,30.767820358276367,72.14995574951172,-85.05042266845703
12869538.0,-3.878472089767456,-0.5360499620437622,14.723687171936035,30.74757957458496,72.11502075195312,-85.05376434326172
12869542.0,-3.8642055988311768,-0.522936224937439,14.758744239807129,30.727344512939453,72.0801010131836,-85.05708312988281
12869546.0,-3.849954843521118,-0.5097804665565491,14.793767929077148,30.707124710083008,72.04515838623047,-85.06039428710938
12869550.0,-3.8357198238372803,-0.4965827763080597,14.82875919342041,30.686912536621094,72.01022338867188,-85.06370544433594
12869554.0,-3.8215010166168213,-0.483343243598938,14.863718032836914,30.666715621948242,71.97527313232422,-85.06698608398438
12869558.0,-3.8072993755340576,-0.4700619578361511,14.898645401000977,30.646526336669922,71.94032287597656,-85.07026672363281
12869562.0,-3.793114423751831,-0.45673897862434387,14.933541297912598,30.626346588134766,71.9053726196289,-85.07353973388672
12869566.0,-3.778946876525879,-0.44337430596351624,14.968402862548828,30.606184005737305,71.87041473388672,-85.0768051147461
12869570.0,-3.764796495437622,-0.4299680292606354,15.00323486328125,30.58602523803711,71.83544921875,-85.08003997802734
12869574.0,-3.7506630420684814,-0.41652002930641174,15.038034439086914,30.565879821777344,71.80047607421875,-85.08328247070312
12869578.0,-3.736546754837036,-0.4030304551124573,15.072800636291504,30.545747756958008,71.76551055908203,-85.08651733398438
12869582.0,-3.7224481105804443,-0.3894991874694824,15.107535362243652,30.525625228881836,71.73052978515625,-85.08972930908203
12869586.0,-3.7083663940429688,-0.3759261667728424,15.142237663269043,30.505510330200195,71.695556640625,-85.09293365478516
12869590.0,-3.6943016052246094,-0.3623115122318268,15.176909446716309,30.48541259765625,71.66056823730469,-85.09613037109375
12869594.0,-3.6802539825439453,-0.348655104637146,15.211546897888184,30.465320587158203,71.62557983398438,-85.09931945800781
12869598.0,-3.6662240028381348,-0.33495691418647766,15.246153831481934,30.445240020751953,71.59059143066406,-85.10250091552734
12869602.0,-3.6522109508514404,-0.32121700048446655,15.280728340148926,30.4251708984375,71.55558776855469,-85.10565948486328
12869606.0,-3.6382150650024414,-0.3074352443218231,15.31527042388916,30.405113220214844,71.52059173583984,-85.10881805419922
12869610.0,-3.624236822128296,-0.2936117351055145,15.349781036376953,30.38506317138672,71.48558044433594,-85.11195373535156
12869614.0,-3.6102755069732666,-0.2797464430332184,15.384260177612305,30.36503028869629,71.45056915283203,-85.1150894165039
12869618.0,-3.5963315963745117,-0.2658393681049347,15.418704986572266,30.34500503540039,71.41555786132812,-85.11821746826172
12869622.0,-3.5824053287506104,-0.2518905997276306,15.453120231628418,30.324989318847656,71.38053894042969,-85.12133026123047
12869626.0,-3.5684964656829834,-0.23790016770362854,15.487502098083496,30.30498695373535,71.34551239013672,-85.12442779541016
12869630.0,-3.554605722427368,-0.22386811673641205,15.521852493286133,30.28499412536621,71.31048583984375,-85.12752532958984
12869634.0,-3.5407330989837646,-0.20979462563991547,15.556171417236328,30.265012741088867,71.27545928955078,-85.13060760498047
12869638.0,-3.5268795490264893,-0.19567972421646118,15.590458869934082,30.245040893554688,71.24042510986328,-85.13367462158203
12869642.0,-3.513045310974121,-0.18152350187301636,15.624714851379395,30.225080490112305,71.20538330078125,-85.13674926757812
12869646.0,-3.49923038482666,-0.16732606291770935,15.658941268920898,30.20513153076172,71.17034149169922,-85.13980865478516
12869650.0,-3.485435724258423,-0.15308746695518494,15.693135261535645,30.185192108154297,71.13529205322266,-85.14286041259766
12869654.0,-3.4716615676879883,-0.13880784809589386,15.727299690246582,30.165264129638672,71.10025024414062,-85.14590454101562
12869658.0,-3.4579081535339355,-0.12448721379041672,15.761433601379395,30.145343780517578,71.065185546875,-85.14894104003906
12869662.0,-3.4441752433776855,-0.11012566089630127,15.795536994934082,30.125436782836914,71.03013610839844,-85.1519775390625
12869666.0,-3.4304635524749756,-0.0957232117652893,15.829608917236328,30.105541229248047,70.99507141113281,-85.15499877929688
12869670.0,-3.4167728424072266,-0.08127989619970322,15.863652229309082,30.085651397705078,70.96001434326172,-85.15802001953125
12869674.0,-3.4031031131744385,-0.0667956992983818,15.897663116455078,30.065776824951172,70.92494201660156,-85.1610336303711
12869678.0,-3.3894546031951904,-0.05227060988545418,15.931647300720215,30.045909881591797,70.88987731933594,-85.16404724121094
12869682.0,-3.3758270740509033,-0.03770462051033974,15.965598106384277,30.02605438232422,70.85480499267578,-85.16704559326172
12869686.0,-3.362220525741577,-0.023097703233361244,15.999518394470215,30.006210327148438,70.8197250366211,-85.1700439453125
12869690.0,-3.348634958267212,-0.008449845016002655,16.033409118652344,29.98637580871582,70.7846450805664,-85.17303466796875
12869694.0,-3.3350706100463867,0.0062389736995100975,16.067270278930664,29.966554641723633,70.74956512451172,-85.17601013183594
12869698.0,-3.3215274810791016,0.020968768745660782,16.10110092163086,29.946739196777344,70.7144775390625,-85.17898559570312
12869702.0,-3.3080053329467773,0.03573956713080406,16.134899139404297,29.926931381225586,70.67938995361328,-85.18195343017578
12869706.0,-3.294504165649414,0.05055137351155281,16.168668746948242,29.907140731811523,70.64429473876953,-85.18492126464844
12869710.0,-3.28102445602417,0.06540421396493912,16.202407836914062,29.887361526489258,70.60919952392578,-85.18787384033203
12869714.0,-3.2675657272338867,0.0802980363368988,16.236114501953125,29.86758804321289,70.57410430908203,-85.19083404541016
12869718.0,-3.254128932952881,0.09523278474807739,16.269792556762695,29.847827911376953,70.53900146484375,-85.19377899169922
12869722.0,-3.2407138347625732,0.11020835489034653,16.303442001342773,29.828075408935547,70.50389099121094,-85.19671630859375
12869726.0,-3.227320909500122,0.12522469460964203,16.33705711364746,29.80833625793457,70.46878051757812,-85.19965362548828
12869730.0,-3.2139506340026855,0.14028173685073853,16.37064552307129,29.788606643676758,70.43367004394531,-85.20258331298828
12869734.0,-3.2006032466888428,0.15537935495376587,16.404203414916992,29.768884658813477,70.39855194091797,-85.20549774169922
12869738.0,-3.1872787475585938,0.17051750421524048,16.43773078918457,29.749176025390625,70.36343383789062,-85.20841979980469
12869742.0,-3.173978328704834,0.1856960952281952,16.471229553222656,29.729476928710938,70.32832336425781,-85.21133422851562
12869746.0,-3.160701274871826,0.20091506838798523,16.50469970703125,29.709789276123047,70.29319763183594,-85.21424102783203
12869750.0,-3.1474480628967285,0.21617433428764343,16.53814125061035,29.69011116027832,70.25807189941406,-85.21715545654297
12869754.0,-3.1342196464538574,0.23147372901439667,16.57155418395996,29.670440673828125,70.22294616699219,-85.22006225585938
12869758.0,-3.1210155487060547,0.24681316316127777,16.604936599731445,29.65078353881836,70.18781280517578,-85.22296905517578
12869762.0,-3.1078362464904785,0.26219257712364197,16.63829231262207,29.631134033203125,70.15267944335938,-85.22586822509766
12869766.0,-3.094681978225708,0.27761194109916687,16.67161750793457,29.611495971679688,70.11753845214844,-85.22877502441406
12869770.0,-3.0815529823303223,0.2930712103843689,16.70491600036621,29.59186363220215,70.08240509033203,-85.23167419433594
12869774.0,-3.068449020385742,0.30857032537460327,16.738183975219727,29.572246551513672,70.0472640991211,-85.23456573486328
12869778.0,-3.055371046066284,0.32410940527915955,16.771425247192383,29.552637100219727,70.01212310791016,-85.23746490478516
12869782.0,-3.0423178672790527,0.33968839049339294,16.80463981628418,29.533039093017578,69.97698211669922,-85.2403564453125
12869786.0,-3.0292904376983643,0.35530731081962585,16.83782196044922,29.51344871520996,69.94183349609375,-85.24325561523438
12869790.0,-3.0162885189056396,0.37096619606018066,16.87097930908203,29.49386978149414,69.90669250488281,-85.24614715576172
12869794.0,-3.003312349319458,0.38666510581970215,16.90410614013672,29.47429847717285,69.87153625488281,-85.24903869628906
12869798.0,-2.990361213684082,0.40240398049354553,16.93720245361328,29.454740524291992,69.83638763427734,-85.25192260742188
12869802.0,-2.977435827255249,0.4181828796863556,16.970272064208984,29.435192108154297,69.80123138427734,-85.25481414794922
12869806.0,-2.96453595161438,0.4340018332004547,17.003313064575195,29.415651321411133,69.76607513427734,-85.2576904296875
12869810.0,-2.9516615867614746,0.4498608112335205,17.036327362060547,29.3961238861084,69.73091125488281,-85.26057434082031
12869814.0,-2.9388129711151123,0.4657597243785858,17.069311141967773,29.376602172851562,69.69575500488281,-85.26346588134766
12869818.0,-2.925990581512451,0.4816986620426178,17.102266311645508,29.357091903686523,69.66059112548828,-85.26634216308594
12869822.0,-2.913193941116333,0.49767735600471497,17.13519287109375,29.33759307861328,69.62541961669922,-85.26921844482422
12869826.0,-2.9004242420196533,0.5136958360671997,17.168092727661133,29.318105697631836,69.59025573730469,-85.27210235595703
12869830.0,-2.887681484222412,0.5297540426254272,17.20096206665039,29.298625946044922,69.55508422851562,-85.27497863769531
12869834.0,-2.8749663829803467,0.5458515882492065,17.23380470275879,29.27915382385254,69.51991271972656,-85.2778549194336
12869838.0,-2.862278938293457,0.5619886517524719,17.266620635986328,29.259693145751953,69.4847412109375,-85.28073120117188
12869842.0,-2.8496198654174805,0.5781649947166443,17.299409866333008,29.240245819091797,69.44956970214844,-85.28360748291016
12869846.0,-2.836989641189575,0.5943805575370789,17.332170486450195,29.220802307128906,69.41439056396484,-85.28649139404297
12869850.0,-2.824388027191162,0.6106352210044861,17.364906311035156,29.201370239257812,69.37921142578125,-85.28938293457031
12869854.0,-2.8118162155151367,0.6269287467002869,17.397611618041992,29.181949615478516,69.34403228759766,-85.2922592163086
12869858.0,-2.799274206161499,0.6432611346244812,17.4302921295166,29.162534713745117,69.30885314941406,-85.29515075683594
12869862.0,-2.786761999130249,0.6596324443817139,17.462947845458984,29.14313316345215,69.273681640625,-85.29804229736328
12869866.0,-2.774280309677124,0.676042377948761,17.495574951171875,29.12373924255371,69.23848724365234,-85.30094146728516
12869870.0,-2.761828899383545,0.6924910545349121,17.52817726135254,29.104354858398438,69.20330810546875,-85.30384063720703
12869874.0,-2.749408006668091,0.7089784741401672,17.560752868652344,29.084978103637695,69.16812133789062,-85.30674743652344
12869878.0,-2.737017869949341,0.7255045771598816,17.59330177307129,29.065610885620117,69.13294219970703,-85.30965423583984
12869882.0,-2.7246577739715576,0.7420693635940552,17.625823974609375,29.04625129699707,69.0977554321289,-85.31256103515625
12869886.0,-2.7123286724090576,0.7586729526519775,17.658321380615234,29.026905059814453,69.06256103515625,-85.31548309326172
12869890.0,-2.7000298500061035,0.7753152847290039,17.690792083740234,29.007568359375,69.02738189697266,-85.31839752197266
12869894.0,-2.6877615451812744,0.791996419429779,17.72323226928711,28.988235473632812,68.99219512939453,-85.32132720947266
12869898.0,-2.6755239963531494,0.8087162971496582,17.755651473999023,28.968915939331055,68.95700073242188,-85.3242416381836
12869902.0,-2.6633172035217285,0.8254749774932861,17.788042068481445,28.949609756469727,68.92180633544922,-85.3271713256836
12869906.0,-2.6511409282684326,0.8422725200653076,17.820402145385742,28.93030548095703,68.8866195678711,-85.33010864257812
12869910.0,-2.6389951705932617,0.8591088652610779,17.852739334106445,28.9110164642334,68.85142517089844,-85.33303833007812
12869914.0,-2.6268808841705322,0.8759840130805969,17.885051727294922,28.891735076904297,68.81622314453125,-85.33598327636719
12869918.0,-2.614797830581665,0.8928977847099304,17.917335510253906,28.872459411621094,68.7810287475586,-85.33892822265625
12869922.0,-2.602747678756714,0.9098501205444336,17.949594497680664,28.853195190429688,68.74584197998047,-85.34186553955078
12869926.0,-2.5907299518585205,0.9268410205841064,17.98182487487793,28.83394432067871,68.71064758300781,-85.3448257446289
12869930.0,-2.578744888305664,0.9438701272010803,18.0140323638916,28.814697265625,68.67544555664062,-85.3477783203125
12869934.0,-2.566793203353882,0.9609373211860657,18.04621124267578,28.795459747314453,68.64024353027344,-85.35073852539062
12869938.0,-2.5548746585845947,0.9780426621437073,18.078367233276367,28.776235580444336,68.60504913330078,-85.35371398925781
12869942.0,-2.54298996925354,0.9951856732368469,18.110496520996094,28.757015228271484,68.56985473632812,-85.356689453125
12869946.0,-2.5311388969421387,1.0123666524887085,18.142601013183594,28.737810134887695,68.53465270996094,-85.35966491699219
12869950.0,-2.519322156906128,1.0295850038528442,18.1746826171875,28.71860694885254,68.49945831298828,-85.36266326904297
12869954.0,-2.507540225982666,1.046840786933899,18.20673942565918,28.699413299560547,68.4642562866211,-85.36566925048828
12869958.0,-2.4957942962646484,1.0641340017318726,18.23876953125,28.68023109436035,68.42906188964844,-85.36866760253906
12869962.0,-2.484084129333496,1.081464409828186,18.270780563354492,28.661054611206055,68.39385986328125,-85.37169647216797
12869966.0,-2.472410202026367,1.0988320112228394,18.302764892578125,28.641889572143555,68.3586654663086,-85.37472534179688
12869970.0,-2.460772752761841,1.1162368059158325,18.33472442626953,28.622730255126953,68.32347106933594,-85.37776947021484
12869974.0,-2.449172019958496,1.1336787939071655,18.36665916442871,28.60358238220215,68.28826904296875,-85.38080596923828
12869978.0,-2.437607765197754,1.1511577367782593,18.39857292175293,28.584440231323242,68.2530746459961,-85.38386535644531
12869982.0,-2.426079511642456,1.1686739921569824,18.430461883544922,28.565309524536133,68.21788024902344,-85.38693237304688
12869986.0,-2.414588451385498,1.1862273216247559,18.462324142456055,28.546184539794922,68.18268585205078,-85.3900146484375
12869990.0,-2.4031341075897217,1.2038179636001587,18.494165420532227,28.527070999145508,68.14749145507812,-85.39310455322266
12869994.0,-2.3917160034179688,1.2214456796646118,18.525981903076172,28.50796127319336,68.11229705810547,-85.39619445800781
12869998.0,-2.3803348541259766,1.2391108274459839,18.55777359008789,28.488866806030273,68.07709503173828,-85.39930725097656
12870002.0,-2.368990182876587,1.2568130493164062,18.589540481567383,28.46977424621582,68.04190826416016,-85.40242004394531
12870006.0,-2.357682228088379,1.274552583694458,18.62128448486328,28.450695037841797,68.00672149658203,-85.4055404663086
12870010.0,-2.3464114665985107,1.29232919216156,18.65300178527832,28.431623458862305,67.97151947021484,-85.40868377685547
12870014.0,-2.3351776599884033,1.3101431131362915,18.6846981048584,28.412559509277344,67.93633270263672,-85.41182708740234
12870018.0,-2.323981523513794,1.3279938697814941,18.71636962890625,28.393505096435547,67.9011459350586,-85.41497039794922
12870022.0,-2.312823534011841,1.3458815813064575,18.748016357421875,28.374460220336914,67.86595153808594,-85.41814422607422
12870026.0,-2.301703929901123,1.3638060092926025,18.77964210510254,28.355419158935547,67.83075714111328,-85.42131042480469
12870030.0,-2.290623903274536,1.38176691532135,18.811243057250977,28.336393356323242,67.79557037353516,-85.42449951171875
12870034.0,-2.279583692550659,1.3997641801834106,18.842819213867188,28.31736946105957,67.76038360595703,-85.42770385742188
12870038.0,-2.2685837745666504,1.417797565460205,18.874372482299805,28.298358917236328,67.7251968383789,-85.43091583251953
12870042.0,-2.257624387741089,1.4358670711517334,18.905906677246094,28.279354095458984,67.69001770019531,-85.43413543701172
12870046.0,-2.24670672416687,1.4539722204208374,18.937416076660156,28.260356903076172,67.65483093261719,-85.43738555908203
12870050.0,-2.235830545425415,1.4721132516860962,18.96890640258789,28.241365432739258,67.61964416503906,-85.44063568115234
12870054.0,-2.22499680519104,1.4902896881103516,19.0003719329834,28.222383499145508,67.58446502685547,-85.44390869140625
12870058.0,-2.2142059803009033,1.508501410484314,19.031818389892578,28.203411102294922,67.54928588867188,-85.44718933105469
12870062.0,-2.203458547592163,1.526748538017273,19.063241958618164,28.18444061279297,67.51411437988281,-85.45049285888672
12870066.0,-2.1927545070648193,1.5450305938720703,19.094646453857422,28.165481567382812,67.47893524169922,-85.45381927490234
12870070.0,-2.1820945739746094,1.5633479356765747,19.126028060913086,28.14653205871582,67.44377136230469,-85.4571533203125
12870074.0,-2.171478033065796,1.5817004442214966,19.15738868713379,28.127586364746094,67.40859985351562,-85.46051788330078
12870078.0,-2.1609058380126953,1.6000880002975464,19.1887264251709,28.10865020751953,67.37342834472656,-85.46388244628906
12870082.0,-2.1503772735595703,1.6185107231140137,19.22004508972168,28.0897216796875,67.33827209472656,-85.46726989746094
12870086.0,-2.139892816543579,1.6369683742523193,19.251340866088867,28.070798873901367,67.30310821533203,-85.47067260742188
12870090.0,-2.1294524669647217,1.655461311340332,19.282617568969727,28.051883697509766,67.2679443359375,-85.4740982055664
12870094.0,-2.11905574798584,1.6739895343780518,19.313871383666992,28.03297996520996,67.23278045654297,-85.4775390625
12870098.0,-2.108703136444092,1.6925528049468994,19.345104217529297,28.014080047607422,67.1976318359375,-85.48099517822266
12870102.0,-2.0983946323394775,1.7111512422561646,19.37631607055664,27.995187759399414,67.16248321533203,-85.48446655273438
12870106.0,-2.088130474090576,1.7297849655151367,19.407506942749023,27.976306915283203,67.12732696533203,-85.48794555664062
12870110.0,-2.0779104232788086,1.7484536170959473,19.43867301940918,27.957429885864258,67.09217834472656,-85.491455078125
12870114.0,-2.067735195159912,1.7671573162078857,19.469818115234375,27.938562393188477,67.05703735351562,-85.49497985839844
12870118.0,-2.057605504989624,1.7858959436416626,19.500944137573242,27.919702529907227,67.02188873291016,-85.49851989746094
12870122.0,-2.0475215911865234,1.8046690225601196,19.53204917907715,27.900848388671875,66.98674774169922,-85.50206756591797
12870126.0,-2.0374844074249268,1.823476791381836,19.563133239746094,27.882003784179688,66.95161437988281,-85.50564575195312
12870130.0,-2.027494192123413,1.8423184156417847,19.59419822692871,27.86316680908203,66.91647338867188,-85.50923919677734
12870134.0,-2.017552375793457,1.861194372177124,19.625240325927734,27.844335556030273,66.88134002685547,-85.51284790039062
12870138.0,-2.0076589584350586,1.8801039457321167,19.65626335144043,27.825511932373047,66.84620666503906,-85.5164794921875
12870142.0,-1.9978152513504028,1.8990470170974731,19.687267303466797,27.80669403076172,66.81108856201172,-85.52013397216797
12870146.0,-1.9880211353302002,1.9180234670639038,19.71825408935547,27.78788185119629,66.77597045898438,-85.52381896972656
12870150.0,-1.9782779216766357,1.93703293800354,19.749221801757812,27.76907730102539,66.7408447265625,-85.52752685546875
12870154.0,-1.9685858488082886,1.9560753107070923,19.780170440673828,27.750280380249023,66.70573425292969,-85.53125
12870158.0,-1.958945870399475,1.975150227546692,19.811098098754883,27.731487274169922,66.67062377929688,-85.5350112915039
12870162.0,-1.9493579864501953,1.994257926940918,19.842012405395508,27.71270179748535,66.6355209350586,-85.53878784179688
12870166.0,-1.939823031425476,2.0133981704711914,19.872907638549805,27.69392204284668,66.60041809082031,-85.54258728027344
12870170.0,-1.9303410053253174,2.0325708389282227,19.903783798217773,27.675148010253906,66.5653305053711,-85.54641723632812
12870174.0,-1.9209119081497192,2.0517759323120117,19.934640884399414,27.656383514404297,66.53023529052734,-85.55026245117188
12870178.0,-1.9115358591079712,2.0710132122039795,19.96548080444336,27.63762092590332,66.49515533447266,-85.55415344238281
12870182.0,-1.9022128582000732,2.090282917022705,19.99630355834961,27.618867874145508,66.46006774902344,-85.55805969238281
12870186.0,-1.8929427862167358,2.1095852851867676,20.027109146118164,27.60011863708496,66.42499542236328,-85.56198120117188
12870190.0,-1.8837261199951172,2.128919839859009,20.057893753051758,27.581377029418945,66.38992309570312,-85.56593322753906
12870194.0,-1.8745622634887695,2.148287057876587,20.088661193847656,27.562639236450195,66.3548583984375,-85.56990814208984
12870198.0,-1.8654519319534302,2.1676862239837646,20.119409561157227,27.54391098022461,66.31979370117188,-85.57392120361328
12870202.0,-1.856394648551941,2.1871180534362793,20.1501407623291,27.525190353393555,66.28473663330078,-85.57794952392578
12870206.0,-1.8473910093307495,2.20658278465271,20.18085289001465,27.506473541259766,66.24967956542969,-85.5820083618164
12870210.0,-1.8384408950805664,2.226079225540161,20.2115478515625,27.487762451171875,66.21463775634766,-85.5860824584961
12870214.0,-1.8295451402664185,2.245607852935791,20.24222183227539,27.469058990478516,66.17959594726562,-85.59019470214844
12870218.0,-1.8207043409347534,2.2651684284210205,20.272878646850586,27.450359344482422,66.1445541381836,-85.59432220458984
12870222.0,-1.8119192123413086,2.2847607135772705,20.30352020263672,27.431669235229492,66.10952758789062,-85.59848022460938
12870226.0,-1.80319082736969,2.304384231567383,20.334142684936523,27.412982940673828,66.07450103759766,-85.60267639160156
12870230.0,-1.7945199012756348,2.3240389823913574,20.364748001098633,27.394306182861328,66.03947448730469,-85.60688781738281
12870234.0,-1.7859078645706177,2.343724250793457,20.395339965820312,27.375633239746094,66.00446319580078,-85.61112213134766
12870238.0,-1.7773548364639282,2.3634400367736816,20.425912857055664,27.356962203979492,65.96945190429688,-85.61539459228516
12870242.0,-1.7688618898391724,2.383185863494873,20.456472396850586,27.338300704956055,65.93445587158203,-85.61969757080078
12870246.0,-1.760430097579956,2.4029617309570312,20.487014770507812,27.31964111328125,65.89945220947266,-85.6240463256836
12870250.0,-1.752059817314148,2.422767162322998,20.517539978027344,27.300987243652344,65.86447143554688,-85.62841796875
12870254.0,-1.7437525987625122,2.4426019191741943,20.548053741455078,27.282339096069336,65.8294906616211,-85.63282012939453
12870258.0,-1.7355085611343384,2.462465763092041,20.57855224609375,27.26369285583496,65.79452514648438,-85.63727569580078
12870262.0,-1.7273285388946533,2.48235821723938,20.609037399291992,27.24505043029785,65.75955963134766,-85.6417465209961
12870266.0,-1.7192127704620361,2.502279758453369,20.639507293701172,27.22641372680664,65.72460174560547,-85.64627075195312
12870270.0,-1.711161494255066,2.5222299098968506,20.66996192932129,27.207782745361328,65.68965148925781,-85.65081787109375
12870274.0,-1.7031748294830322,2.542208671569824,20.700403213500977,27.18915367126465,65.65471649169922,-85.65541076660156
12870278.0,-1.6952531337738037,2.56221604347229,20.730831146240234,27.1705322265625,65.61978149414062,-85.6600341796875
12870282.0,-1.6873959302902222,2.582252264022827,20.76124382019043,27.151912689208984,65.58485412597656,-85.66468811035156
12870286.0,-1.6796034574508667,2.6023168563842773,20.791643142700195,27.133298873901367,65.54994201660156,-85.66938018798828
12870290.0,-1.6718759536743164,2.622410297393799,20.8220272064209,27.114688873291016,65.5150375366211,-85.67410278320312
12870294.0,-1.6642131805419922,2.6425323486328125,20.85239601135254,27.096086502075195,65.48013305664062,-85.67887115478516
12870298.0,-1.6566153764724731,2.6626830101013184,20.882749557495117,27.077482223510742,65.44524383544922,-85.68367004394531
12870302.0,-1.6490825414657593,2.6828620433807373,20.913089752197266,27.058889389038086,65.41036224365234,-85.68850708007812
12870306.0,-1.6416149139404297,2.7030699253082275,20.94341468811035,27.040298461914062,65.37548828125,-85.6933822631836
12870310.0,-1.6342132091522217,2.7233059406280518,20.973726272583008,27.021711349487305,65.34062957763672,-85.69828796386719
12870314.0,-1.626878023147583,2.74357008934021,21.0040225982666,27.003131866455078,65.30577087402344,-85.70323181152344
12870318.0,-1.6196109056472778,2.763861894607544,21.034303665161133,26.98455047607422,65.27091979980469,-85.70821380615234
12870322.0,-1.6124125719070435,2.7841811180114746,21.064571380615234,26.965980529785156,65.236083984375,-85.71322631835938
12870326.0,-1.6052838563919067,2.8045272827148438,21.094825744628906,26.947412490844727,65.20126342773438,-85.71829223632812
12870330.0,-1.5982264280319214,2.8249001502990723,21.12506866455078,26.928848266601562,65.16643524169922,-85.72338104248047
12870334.0,-1.5912407636642456,2.845299005508423,21.15530014038086,26.9102840423584,65.13162231445312,-85.728515625
12870338.0,-1.5843279361724854,2.8657240867614746,21.185516357421875,26.891725540161133,65.09683227539062,-85.73370361328125
12870342.0,-1.577488899230957,2.8861746788024902,21.215723037719727,26.873170852661133,65.06204223632812,-85.73892211914062
12870346.0,-1.570724606513977,2.9066500663757324,21.24591827392578,26.854616165161133,65.02726745605469,-85.74420928955078
12870350.0,-1.5640369653701782,2.927150249481201,21.276103973388672,26.836063385009766,64.99250030517578,-85.74951934814453
12870354.0,-1.5574265718460083,2.9476747512817383,21.306276321411133,26.817516326904297,64.95775604248047,-85.75489044189453
12870358.0,-1.5508944988250732,2.9682230949401855,21.336444854736328,26.798967361450195,64.92302703857422,-85.76029968261719
12870362.0,-1.5444414615631104,2.988795280456543,21.36659812927246,26.780418395996094,64.88829803466797,-85.76576232910156
12870366.0,-1.5380679368972778,3.0093905925750732,21.39674186706543,26.761873245239258,64.85359191894531,-85.77128601074219
12870370.0,-1.5317740440368652,3.0300097465515137,21.426876068115234,26.743331909179688,64.81889343261719,-85.77684020996094
12870374.0,-1.5255603790283203,3.050652265548706,21.457002639770508,26.72479248046875,64.78421020507812,-85.78245544433594
12870378.0,-1.5194263458251953,3.0713181495666504,21.48711585998535,26.70625114440918,64.7495346069336,-85.78811645507812
12870382.0,-1.5133723020553589,3.0920073986053467,21.517221450805664,26.687715530395508,64.71488189697266,-85.7938232421875
12870386.0,-1.5073983669281006,3.112720012664795,21.547317504882812,26.66918182373047,64.68023681640625,-85.7995834350586
12870390.0,-1.5015044212341309,3.133455753326416,21.57740020751953,26.65064811706543,64.6456069946289,-85.80538940429688
12870394.0,-1.4956905841827393,3.154214859008789,21.60747528076172,26.632116317749023,64.6109848022461,-85.81124877929688
12870398.0,-1.4899570941925049,3.174997329711914,21.637537002563477,26.613588333129883,64.5763931274414,-85.81714630126953
12870402.0,-1.4843038320541382,3.195802688598633,21.667591094970703,26.595062255859375,64.54180145263672,-85.8230972290039
12870406.0,-1.4787312746047974,3.2166314125061035,21.697633743286133,26.5765380859375,64.5072250366211,-85.82909393310547
12870410.0,-1.4732403755187988,3.2374825477600098,21.7276668548584,26.558015823364258,64.47266387939453,-85.83514404296875
12870414.0,-1.4678319692611694,3.2583563327789307,21.757686614990234,26.53949546813965,64.43811798095703,-85.84125518798828
12870418.0,-1.4625072479248047,3.279252052307129,21.787700653076172,26.520977020263672,64.4035873413086,-85.84740447998047
12870422.0,-1.4572679996490479,3.300168752670288,21.817703247070312,26.502460479736328,64.36907958984375,-85.85359954833984
12870426.0,-1.452115774154663,3.3211066722869873,21.84769630432129,26.483945846557617,64.3345718383789,-85.85984802246094
12870430.0,-1.4470518827438354,3.34206485748291,21.877683639526367,26.46543312072754,64.30008697509766,-85.86616516113281
12870434.0,-1.4420781135559082,3.3630425930023193,21.90766143798828,26.446918487548828,64.26561737060547,-85.87252807617188
12870438.0,-1.4371957778930664,3.3840391635894775,21.93762969970703,26.428401947021484,64.23117065429688,-85.87895202636719
12870442.0,-1.4324063062667847,3.405054807662964,21.96759605407715,26.409887313842773,64.19673919677734,-85.88543701171875
12870446.0,-1.4277111291885376,3.426088571548462,21.997554779052734,26.391368865966797,64.16232299804688,-85.89198303222656
12870450.0,-1.4231120347976685,3.447139263153076,22.027507781982422,26.37285041809082,64.12793731689453,-85.89859771728516
12870454.0,-1.4186099767684937,3.468207359313965,22.05745506286621,26.35433006286621,64.09356689453125,-85.9052734375
12870458.0,-1.4142063856124878,3.4892916679382324,22.0873966217041,26.335803985595703,64.05921936035156,-85.9120101928711
12870462.0,-1.4099019765853882,3.510392427444458,22.117332458496094,26.317279815673828,64.02488708496094,-85.9188232421875
12870466.0,-1.4056975841522217,3.531508684158325,22.147266387939453,26.298749923706055,63.99058151245117,-85.92568969726562
12870470.0,-1.4015930891036987,3.5526413917541504,22.177194595336914,26.280221939086914,63.956295013427734,-85.93262481689453
12870474.0,-1.397589087486267,3.573789358139038,22.207115173339844,26.261688232421875,63.922035217285156,-85.93962860107422
12870478.0,-1.3936851024627686,3.5949530601501465,22.23703384399414,26.243154525756836,63.887786865234375,-85.94670104980469
12870482.0,-1.3898816108703613,3.6161327362060547,22.266944885253906,26.224620819091797,63.85356903076172,-85.9538345336914
12870486.0,-1.3861783742904663,3.6373276710510254,22.296850204467773,26.206085205078125,63.81937026977539,-85.96102905273438
12870490.0,-1.3825757503509521,3.658538341522217,22.326751708984375,26.187545776367188,63.78519821166992,-85.96829223632812
12870494.0,-1.3790737390518188,3.6797640323638916,22.356647491455078,26.169002532958984,63.751041412353516,-85.97562408447266
12870498.0,-1.3756722211837769,3.701004981994629,22.386537551879883,26.150461196899414,63.71690368652344,-85.98301696777344
12870502.0,-1.3723715543746948,3.7222609519958496,22.416419982910156,26.13191795349121,63.68279266357422,-85.99048614501953
12870506.0,-1.36917245388031,3.7435319423675537,22.446298599243164,26.113372802734375,63.64870834350586,-85.99800109863281
12870510.0,-1.366076111793518,3.7648165225982666,22.47616958618164,26.094825744628906,63.61463928222656,-86.00559997558594
12870514.0,-1.363083839416504,3.7861156463623047,22.50603675842285,26.076276779174805,63.58060073852539,-86.01325988769531
12870518.0,-1.3601975440979004,3.8074283599853516,22.53589630126953,26.057727813720703,63.546592712402344,-86.02098083496094
12870522.0,-1.3574188947677612,3.828754425048828,22.56575584411621,26.039175033569336,63.512596130371094,-86.02877807617188
12870526.0,-1.3547509908676147,3.850092649459839,22.59560775756836,26.020618438720703,63.47863006591797,-86.03663635253906
12870530.0,-1.3521952629089355,3.8714418411254883,22.625455856323242,26.002058029174805,63.44468688964844,-86.04457092285156
12870534.0,-1.3497542142868042,3.8928005695343018,22.655302047729492,25.98349380493164,63.41077423095703,-86.0525894165039
12870538.0,-1.3474293947219849,3.914168357849121,22.685148239135742,25.96492576599121,63.376895904541016,-86.0606918334961
12870542.0,-1.3452229499816895,3.935544490814209,22.714988708496094,25.946346282958984,63.34303665161133,-86.06886291503906
12870546.0,-1.3431370258331299,3.9569263458251953,22.744834899902344,25.92776107788086,63.30922317504883,-86.07711791992188
12870550.0,-1.3411736488342285,3.9783153533935547,22.77467918395996,25.90916633605957,63.27543258666992,-86.08546447753906
12870554.0,-1.339334487915039,3.9997100830078125,22.804519653320312,25.890565872192383,63.24168014526367,-86.0938949584961
12870558.0,-1.3376210927963257,4.021111011505127,22.83436393737793,25.87195587158203,63.20796585083008,-86.10240936279297
12870562.0,-1.3360347747802734,4.042515754699707,22.864206314086914,25.85333824157715,63.174278259277344,-86.11100769042969
12870566.0,-1.3345757722854614,4.063925743103027,22.89405059814453,25.8347110748291,63.14063262939453,-86.11970520019531
12870570.0,-1.3332446813583374,4.0853400230407715,22.92389488220215,25.816076278686523,63.10702133178711,-86.12847900390625
12870574.0,-1.3320415019989014,4.1067585945129395,22.9537353515625,25.797435760498047,63.07343673706055,-86.13733673095703
12870578.0,-1.3309663534164429,4.128180980682373,22.983579635620117,25.778783798217773,63.039894104003906,-86.14628601074219
12870582.0,-1.330019235610962,4.149607181549072,23.0134220123291,25.7601261138916,63.006385803222656,-86.15531921386719
12870586.0,-1.3292001485824585,4.171037197113037,23.043264389038086,25.74146270751953,62.9729118347168,-86.1644515991211
12870590.0,-1.3285094499588013,4.192471027374268,23.073104858398438,25.722787857055664,62.939476013183594,-86.17365264892578
12870594.0,-1.3279470205307007,4.2139081954956055,23.10294532775879,25.70410919189453,62.906070709228516,-86.18294525146484
12870598.0,-1.3275130987167358,4.235348701477051,23.132781982421875,25.685420989990234,62.872711181640625,-86.19232177734375
12870602.0,-1.3272080421447754,4.256792068481445,23.162620544433594,25.666725158691406,62.83938217163086,-86.20179748535156
12870606.0,-1.3270326852798462,4.278238296508789,23.192455291748047,25.648021697998047,62.80609130859375,-86.21134948730469
12870610.0,-1.326988935470581,4.299686908721924,23.2222900390625,25.629314422607422,62.77283477783203,-86.22099304199219
12870614.0,-1.327078938484192,4.321135997772217,23.252126693725586,25.610597610473633,62.739620208740234,-86.23072052001953
12870618.0,-1.3273051977157593,4.342584609985352,23.281957626342773,25.59187126159668,62.706443786621094,-86.24054718017578
12870622.0,-1.3276708126068115,4.36403226852417,23.311792373657227,25.573137283325195,62.673309326171875,-86.25045013427734
12870626.0,-1.3281786441802979,4.385477542877197,23.34162712097168,25.554391860961914,62.64021301269531,-86.26045989990234
12870630.0,-1.3288321495056152,4.406918525695801,23.371463775634766,25.535634994506836,62.60716247558594,-86.27055358886719
12870634.0,-1.3296335935592651,4.428354263305664,23.40130043029785,25.516868591308594,62.57416534423828,-86.28076171875
12870638.0,-1.3305854797363281,4.4497833251953125,23.431140899658203,25.49808120727539,62.54121017456055,-86.29106903076172
12870642.0,-1.331691026687622,4.471205234527588,23.460987091064453,25.479284286499023,62.50830841064453,-86.30147552490234
12870646.0,-1.3329534530639648,4.492618083953857,23.490833282470703,25.460466384887695,62.475460052490234,-86.31200408935547
12870650.0,-1.3343747854232788,4.514021396636963,23.52068519592285,25.44162940979004,62.44267654418945,-86.32263946533203
12870654.0,-1.3359577655792236,4.535412788391113,23.5505428314209,25.422775268554688,62.40993881225586,-86.33338928222656
12870658.0,-1.3377043008804321,4.556792259216309,23.580402374267578,25.403902053833008,62.37725830078125,-86.34424591064453
12870662.0,-1.3396157026290894,4.578158855438232,23.610267639160156,25.385011672973633,62.344635009765625,-86.35521697998047
12870666.0,-1.341692566871643,4.599512577056885,23.64013671875,25.36610221862793,62.312068939208984,-86.36631774902344
12870670.0,-1.343935489654541,4.620851993560791,23.67000961303711,25.3471736907959,62.279563903808594,-86.37751007080078
12870674.0,-1.346344232559204,4.642177581787109,23.699888229370117,25.328227996826172,62.24711227416992,-86.38882446289062
12870678.0,-1.3489190340042114,4.66348934173584,23.729768753051758,25.309267044067383,62.214717864990234,-86.40025329589844
12870682.0,-1.351659893989563,4.684786319732666,23.75965118408203,25.290287017822266,62.18239212036133,-86.41178894042969
12870686.0,-1.3545668125152588,4.706068515777588,23.789539337158203,25.27128791809082,62.15011978149414,-86.42344665527344
12870690.0,-1.3576399087905884,4.727336406707764,23.819429397583008,25.252273559570312,62.1179084777832,-86.4352035522461
12870694.0,-1.3608795404434204,4.748588562011719,23.849321365356445,25.23324203491211,62.085750579833984,-86.44709014892578
12870698.0,-1.3642854690551758,4.7698259353637695,23.879215240478516,25.214195251464844,62.05366134643555,-86.4590835571289
12870702.0,-1.367858648300171,4.791047096252441,23.90911102294922,25.195131301879883,62.021629333496094,-86.47117614746094
12870706.0,-1.3716002702713013,4.812251567840576,23.939006805419922,25.176050186157227,61.98965835571289,-86.4833984375
12870710.0,-1.3755131959915161,4.833438396453857,23.968904495239258,25.156953811645508,61.9577522277832,-86.49573516845703
12870714.0,-1.3796005249023438,4.854605197906494,23.99880599975586,25.13783836364746,61.9259033203125,-86.50817108154297
12870718.0,-1.3838657140731812,4.87575101852417,24.02870750427246,25.11870574951172,61.89413070678711,-86.5207290649414
12870722.0,-1.3883130550384521,4.8968729972839355,24.058612823486328,25.09955596923828,61.862422943115234,-86.53340911865234
12870726.0,-1.392946720123291,4.917970180511475,24.08852195739746,25.080381393432617,61.830780029296875,-86.54621124267578
12870730.0,-1.397770881652832,4.939040184020996,24.118432998657227,25.061182022094727,61.799224853515625,-86.55913543701172
12870734.0,-1.4027888774871826,4.960080623626709,24.148347854614258,25.041954040527344,61.767738342285156,-86.57220458984375
12870738.0,-1.4080044031143188,4.981090068817139,24.178266525268555,25.0226993560791,61.7363395690918,-86.58539581298828
12870742.0,-1.413421392440796,5.0020670890808105,24.208192825317383,25.003408432006836,61.705020904541016,-86.59872436523438
12870746.0,-1.4190442562103271,5.023008823394775,24.238121032714844,24.984086990356445,61.67380905151367,-86.6122055053711
12870750.0,-1.424876093864441,5.043914318084717,24.268054962158203,24.96472930908203,61.642677307128906,-86.62582397460938
12870754.0,-1.430919885635376,5.064781188964844,24.29799461364746,24.945335388183594,61.61164855957031,-86.63958740234375
12870758.0,-1.4371782541275024,5.08560848236084,24.327939987182617,24.9259090423584,61.58070755004883,-86.65348052978516
12870762.0,-1.4436525106430054,5.106394290924072,24.357887268066406,24.906442642211914,61.549869537353516,-86.66753387451172
12870766.0,-1.4503438472747803,5.127138137817383,24.387842178344727,24.88694190979004,61.519126892089844,-86.68173217773438
12870770.0,-1.457252025604248,5.14784049987793,24.41779899597168,24.86741065979004,61.48847961425781,-86.69606018066406
12870774.0,-1.4643770456314087,5.1685004234313965,24.447757720947266,24.84784507751465,61.45792770385742,-86.71054077148438
12870778.0,-1.4717191457748413,5.189116477966309,24.47772216796875,24.828245162963867,61.4274787902832,-86.72516632080078
12870782.0,-1.4792779684066772,5.209689140319824,24.5076847076416,24.808609008789062,61.397125244140625,-86.73993682861328
12870786.0,-1.4870537519454956,5.230218410491943,24.537649154663086,24.788942337036133,61.36687469482422,-86.75484466552734
12870790.0,-1.4950462579727173,5.250702857971191,24.567617416381836,24.769243240356445,61.33672332763672,-86.76988983154297
12870794.0,-1.503255844116211,5.271142482757568,24.59758186340332,24.749507904052734,61.306678771972656,-86.78508758544922
12870798.0,-1.511682391166687,5.291537761688232,24.627548217773438,24.729747772216797,61.276729583740234,-86.80043029785156
12870802.0,-1.5203267335891724,5.311885833740234,24.657514572143555,24.709949493408203,61.24688720703125,-86.81590270996094
12870806.0,-1.5291916131973267,5.332187175750732,24.687477111816406,24.690120697021484,61.21714782714844,-86.83152770996094
12870810.0,-1.5382802486419678,5.352437496185303,24.71744155883789,24.670265197753906,61.1875114440918,-86.8472900390625
12870814.0,-1.54759681224823,5.372636318206787,24.747400283813477,24.650371551513672,61.15799331665039,-86.86320495605469
12870818.0,-1.5571458339691162,5.392779350280762,24.777360916137695,24.63044548034668,61.12857437133789,-86.87925720214844
12870822.0,-1.5669327974319458,5.412864685058594,24.807321548461914,24.61048126220703,61.099281311035156,-86.89546203613281
12870826.0,-1.5769635438919067,5.432888507843018,24.837276458740234,24.590473175048828,61.07010269165039,-86.91181945800781
12870830.0,-1.5872423648834229,5.452848434448242,24.867231369018555,24.570419311523438,61.041053771972656,-86.9283218383789
12870834.0,-1.5977736711502075,5.47274112701416,24.897184371948242,24.55031394958496,61.012142181396484,-86.94500732421875
12870838.0,-1.6085621118545532,5.492565155029297,24.92713165283203,24.530155181884766,60.98337936401367,-86.96184539794922
12870842.0,-1.6196130514144897,5.51231575012207,24.957075119018555,24.509933471679688,60.95476150512695,-86.97884368896484
12870846.0,-1.6309313774108887,5.531991481781006,24.987014770507812,24.489652633666992,60.926300048828125,-86.99603271484375
12870850.0,-1.642520785331726,5.55158805847168,25.016948699951172,24.46930694580078,60.89799499511719,-87.01338195800781
12870854.0,-1.6543848514556885,5.571104049682617,25.046876907348633,24.44890022277832,60.86984634399414,-87.0309066772461
12870858.0,-1.666526436805725,5.5905375480651855,25.076799392700195,24.428428649902344,60.84186553955078,-87.0486068725586
12870862.0,-1.6789472103118896,5.609885215759277,25.10671615600586,24.407894134521484,60.81404495239258,-87.06647491455078
12870866.0,-1.6916471719741821,5.629148483276367,25.13662338256836,24.387300491333008,60.786380767822266,-87.08451080322266
12870870.0,-1.704626202583313,5.648324489593506,25.166522979736328,24.366641998291016,60.75889205932617,-87.10272979736328
12870874.0,-1.7178840637207031,5.66741418838501,25.196413040161133,24.345924377441406,60.7315559387207,-87.12110137939453
12870878.0,-1.7314203977584839,5.686415195465088,25.22629165649414,24.325149536132812,60.70439910888672,-87.1396484375
12870882.0,-1.7452349662780762,5.705327987670898,25.256160736083984,24.304311752319336,60.677398681640625,-87.15837860107422
12870886.0,-1.7593271732330322,5.724151611328125,25.286012649536133,24.283414840698242,60.650577545166016,-87.17726135253906
12870890.0,-1.7736968994140625,5.742885112762451,25.315853118896484,24.262460708618164,60.62392807006836,-87.19631958007812
12870894.0,-1.7883440256118774,5.7615275382995605,25.345680236816406,24.241453170776367,60.59743881225586,-87.21554565429688
12870898.0,-1.803268551826477,5.780078887939453,25.37548828125,24.22038459777832,60.571128845214844,-87.23493957519531
12870902.0,-1.8184713125228882,5.798536777496338,25.4052791595459,24.199262619018555,60.54498291015625,-87.25450134277344
12870906.0,-1.83395516872406,5.816899299621582,25.435054779052734,24.178085327148438,60.519020080566406,-87.27422332763672
12870910.0,-1.8497239351272583,5.83516263961792,25.46480941772461,24.156848907470703,60.49323654174805,-87.29411315917969
12870914.0,-1.8657811880111694,5.853323459625244,25.49454689025879,24.135557174682617,60.46763229370117,-87.31417846679688
12870918.0,-1.8821322917938232,5.871378421783447,25.524261474609375,24.11420440673828,60.44221115112305,-87.33440399169922
12870922.0,-1.8987828493118286,5.8893232345581055,25.553953170776367,24.092782974243164,60.4169921875,-87.35479736328125
12870926.0,-1.9157381057739258,5.907153606414795,25.583621978759766,24.071285247802734,60.391971588134766,-87.3753662109375
12870930.0,-1.933002233505249,5.92486572265625,25.61326026916504,24.04970932006836,60.36717224121094,-87.39611053466797
12870934.0,-1.9505795240402222,5.942456245422363,25.64286994934082,24.028047561645508,60.34259796142578,-87.41702270507812
12870938.0,-1.9684741497039795,5.959921836853027,25.672447204589844,24.006288528442383,60.31825637817383,-87.43811798095703
12870942.0,-1.9866918325424194,5.97725772857666,25.701993942260742,23.98442840576172,60.294166564941406,-87.45939636230469
12870946.0,-2.0052366256713867,5.994460582733154,25.731502532958984,23.96246910095215,60.270328521728516,-87.48085021972656
12870950.0,-2.0241119861602783,6.011525630950928,25.76097297668457,23.940404891967773,60.246734619140625,-87.50248718261719
12870954.0,-2.043320894241333,6.028451442718506,25.7904052734375,23.918237686157227,60.22340393066406,-87.5242919921875
12870958.0,-2.0628650188446045,6.045233726501465,25.819795608520508,23.895963668823242,60.20033264160156,-87.5462875366211
12870962.0,-2.082745313644409,6.06187105178833,25.849145889282227,23.87359046936035,60.17753219604492,-87.5684585571289
12870966.0,-2.102961301803589,6.078362464904785,25.87845230102539,23.85111427307129,60.15497970581055,-87.59078979492188
12870970.0,-2.123511552810669,6.094707012176514,25.907712936401367,23.828540802001953,60.13270568847656,-87.61331176757812
12870974.0,-2.144395112991333,6.110902786254883,25.93692970275879,23.805864334106445,60.11069107055664,-87.63600158691406
12870978.0,-2.1656110286712646,6.126949787139893,25.966096878051758,23.78309440612793,60.08893966674805,-87.65885925292969
12870982.0,-2.1871583461761475,6.142846584320068,25.995214462280273,23.760225296020508,60.06745910644531,-87.68189239501953
12870986.0,-2.209035873413086,6.158592224121094,26.02427864074707,23.73726463317871,60.04624938964844,-87.70509338378906
12870990.0,-2.2312421798706055,6.174185276031494,26.05328941345215,23.71420669555664,60.025306701660156,-87.72846221923828
12870994.0,-2.253777265548706,6.189625263214111,26.082242965698242,23.691059112548828,60.00464630126953,-87.75199890136719
12870998.0,-2.276639461517334,6.2049102783203125,26.11114501953125,23.66781997680664,59.9842529296875,-87.77568817138672
12871002.0,-2.2998294830322266,6.220038890838623,26.139984130859375,23.64449119567871,59.96413803100586,-87.79955291748047
12871006.0,-2.3233485221862793,6.235008239746094,26.168764114379883,23.621070861816406,59.94430160522461,-87.8235855102539
12871010.0,-2.3471972942352295,6.249814510345459,26.197477340698242,23.59756088256836,59.924747467041016,-87.84777069091797
12871014.0,-2.371378183364868,6.264454364776611,26.22612953186035,23.573957443237305,59.905479431152344,-87.87211608886719
12871018.0,-2.395892858505249,6.278924942016602,26.254709243774414,23.550256729125977,59.886512756347656,-87.8966293334961
12871022.0,-2.4207444190979004,6.293221473693848,26.283218383789062,23.526451110839844,59.86783981323242,-87.9212875366211
12871026.0,-2.4459340572357178,6.307340621948242,26.311649322509766,23.502532958984375,59.84947967529297,-87.94609832763672
12871030.0,-2.471464157104492,6.3212785720825195,26.340002059936523,23.47849464416504,59.83145523071289,-87.97106170654297
12871034.0,-2.497335195541382,6.3350324630737305,26.368267059326172,23.454322814941406,59.81375503540039,-87.99617004394531
12871038.0,-2.5235488414764404,6.348599910736084,26.396442413330078,23.430017471313477,59.79641342163086,-88.02143096923828
12871042.0,-2.550107717514038,6.361974716186523,26.42452621459961,23.40556526184082,59.779422760009766,-88.04681396484375
12871046.0,-2.577012777328491,6.375155448913574,26.4525146484375,23.380970001220703,59.76279067993164,-88.07235717773438
12871050.0,-2.6042637825012207,6.388137340545654,26.480403900146484,23.35622787475586,59.74652099609375,-88.0980224609375
12871054.0,-2.6318626403808594,6.400918960571289,26.508193969726562,23.331336975097656,59.730621337890625,-88.12381744384766
12871058.0,-2.6598076820373535,6.413496971130371,26.535877227783203,23.306303024291992,59.715087890625,-88.14974975585938
12871062.0,-2.688098192214966,6.425870418548584,26.563457489013672,23.281126022338867,59.69992446899414,-88.17582702636719
12871066.0,-2.7167320251464844,6.438038349151611,26.590932846069336,23.25580596923828,59.68513107299805,-88.2020034790039
12871070.0,-2.745706796646118,6.4499993324279785,26.618295669555664,23.230348587036133,59.67070388793945,-88.22832489013672
12871074.0,-2.7750208377838135,6.461751461029053,26.645549774169922,23.20475196838379,59.656654357910156,-88.25476837158203
12871078.0,-2.8046717643737793,6.473294734954834,26.672687530517578,23.179019927978516,59.64299011230469,-88.28133392333984
12871082.0,-2.8346571922302246,6.484628677368164,26.699710845947266,23.153152465820312,59.62968444824219,-88.30802154541016
12871086.0,-2.8649749755859375,6.495750904083252,26.72661590576172,23.127153396606445,59.61676788330078,-88.3348159790039
12871090.0,-2.895622968673706,6.5066609382629395,26.753400802612305,23.101028442382812,59.604225158691406,-88.36173248291016
12871094.0,-2.9265990257263184,6.517358303070068,26.78006362915039,23.07477569580078,59.592063903808594,-88.3887710571289
12871098.0,-2.957900285720825,6.527840614318848,26.806598663330078,23.04839324951172,59.58028030395508,-88.41590881347656
12871102.0,-2.9895241260528564,6.538108825683594,26.8330078125,23.02189064025879,59.56888198852539,-88.44316101074219
12871106.0,-3.0214672088623047,6.548161029815674,26.859285354614258,22.995262145996094,59.557865142822266,-88.47051239013672
12871110.0,-3.053725481033325,6.557997226715088,26.88543128967285,22.96851348876953,59.5472297668457,-88.49797058105469
12871114.0,-3.0862960815429688,6.567617893218994,26.911439895629883,22.941638946533203,59.536991119384766,-88.52552795410156
12871118.0,-3.1191747188568115,6.577022075653076,26.93730926513672,22.91463851928711,59.52713394165039,-88.55317687988281
12871122.0,-3.1523571014404297,6.586210250854492,26.963035583496094,22.887502670288086,59.51767349243164,-88.58091735839844
12871126.0,-3.1858396530151367,6.595181941986084,26.988616943359375,22.860231399536133,59.508609771728516,-88.60873413085938
12871130.0,-3.2196195125579834,6.603937149047852,27.01405143737793,22.832815170288086,59.499942779541016,-88.63661193847656
12871134.0,-3.2536916732788086,6.612476348876953,27.03933334350586,22.805246353149414,59.49167251586914,-88.66456604003906
12871138.0,-3.288053035736084,6.6207990646362305,27.06446075439453,22.777524948120117,59.483802795410156,-88.69255828857422
12871142.0,-3.3226993083953857,6.62890625,27.089433670043945,22.749645233154297,59.47633361816406,-88.72062683105469
12871146.0,-3.3576269149780273,6.636796474456787,27.114246368408203,22.721607208251953,59.469268798828125,-88.74873352050781
12871150.0,-3.3928325176239014,6.644471645355225,27.138898849487305,22.69340705871582,59.46260452270508,-88.77688598632812
12871154.0,-3.428312301635742,6.651930332183838,27.163389205932617,22.665048599243164,59.45634841918945,-88.80509185791016
12871158.0,-3.4640636444091797,6.659172534942627,27.187715530395508,22.63653564453125,59.45050048828125,-88.83333587646484
12871162.0,-3.5000839233398438,6.666197776794434,27.211872100830078,22.607866287231445,59.44504928588867,-88.86160278320312
12871166.0,-3.536370038986206,6.673005104064941,27.235862731933594,22.57904815673828,59.44000244140625,-88.88992309570312
12871170.0,-3.5729198455810547,6.67959451675415,27.259679794311523,22.55007553100586,59.43537139892578,-88.91826629638672
12871174.0,-3.6097302436828613,6.685965538024902,27.2833251953125,22.52095603942871,59.43114471435547,-88.9466552734375
12871178.0,-3.646798610687256,6.692117214202881,27.30679702758789,22.49169158935547,59.42732620239258,-88.97505950927734
12871182.0,-3.6841225624084473,6.698049068450928,27.330093383789062,22.462282180786133,59.42390823364258,-89.00350189208984
12871186.0,-3.721698760986328,6.703760147094727,27.353212356567383,22.43273162841797,59.42090606689453,-89.0319595336914
12871190.0,-3.7595252990722656,6.709250450134277,27.376150131225586,22.40304183959961,59.41830062866211,-89.06045532226562
12871194.0,-3.797598361968994,6.714519500732422,27.398906707763672,22.373214721679688,59.41611862182617,-89.0889663696289
12871198.0,-3.835914134979248,6.71956729888916,27.421476364135742,22.343252182006836,59.41434860229492,-89.11750030517578
12871202.0,-3.874467611312866,6.7243971824646,27.443862915039062,22.313156127929688,59.4129753112793,-89.14604187011719
12871206.0,-3.9132513999938965,6.729012966156006,27.466062545776367,22.282928466796875,59.412017822265625,-89.17460632324219
12871210.0,-3.952260732650757,6.733416557312012,27.488073348999023,22.252573013305664,59.41146469116211,-89.20317840576172
12871214.0,-3.991487979888916,6.73761510848999,27.5098934173584,22.222089767456055,59.41130828857422,-89.23175811767578
12871218.0,-4.030925273895264,6.741612434387207,27.531530380249023,22.191476821899414,59.41154861450195,-89.26033782958984
12871222.0,-4.070566654205322,6.7454142570495605,27.552980422973633,22.160736083984375,59.41216278076172,-89.2889175415039
12871226.0,-4.110405445098877,6.749025344848633,27.57424545288086,22.129865646362305,59.41314697265625,-89.31748962402344
12871230.0,-4.1504364013671875,6.752449035644531,27.595333099365234,22.098867416381836,59.414485931396484,-89.34606170654297
12871234.0,-4.190652847290039,6.75568962097168,27.61623764038086,22.067739486694336,59.41617202758789,-89.37460327148438
12871238.0,-4.231049060821533,6.758753776550293,27.636966705322266,22.036479949951172,59.41819381713867,-89.40313720703125
12871242.0,-4.271617889404297,6.761646270751953,27.657520294189453,22.00509262084961,59.420555114746094,-89.43164825439453
12871246.0,-4.312355041503906,6.764370441436768,27.67789649963379,21.973573684692383,59.42323303222656,-89.46012878417969
12871250.0,-4.353254318237305,6.76693058013916,27.698097229003906,21.94192886352539,59.426246643066406,-89.48860168457031
12871254.0,-4.394311904907227,6.769329071044922,27.71811866760254,21.910154342651367,59.42958068847656,-89.51704406738281
12871258.0,-4.4355244636535645,6.771567344665527,27.737960815429688,21.878253936767578,59.43323516845703,-89.54545593261719
12871262.0,-4.4768900871276855,6.773646354675293,27.75762367248535,21.846229553222656,59.43722152709961,-89.57383728027344
12871266.0,-4.518406867980957,6.775565147399902,27.7771053314209,21.8140811920166,59.441524505615234,-89.60218811035156
12871270.0,-4.560072422027588,6.777324676513672,27.796405792236328,21.781810760498047,59.446163177490234,-89.63050842285156
12871274.0,-4.601885795593262,6.778923511505127,27.81552505493164,21.749418258666992,59.451114654541016,-89.65879821777344
12871278.0,-4.6438446044921875,6.780362129211426,27.83445930480957,21.716907501220703,59.45639419555664,-89.68705749511719
12871282.0,-4.685947418212891,6.78164005279541,27.853208541870117,21.68427848815918,59.46200180053711,-89.71527862548828
12871286.0,-4.72819185256958,6.782756805419922,27.87177085876465,21.651535034179688,59.46792984008789,-89.74345397949219
12871290.0,-4.770576000213623,6.7837138175964355,27.890146255493164,21.61867332458496,59.47418212890625,-89.7716064453125
12871294.0,-4.813097953796387,6.784509658813477,27.90833854675293,21.5856990814209,59.48075866699219,-89.79971313476562
12871298.0,-4.855754852294922,6.785146713256836,27.92633819580078,21.5526123046875,59.48766326904297,-89.8277816772461
12871302.0,-4.8985419273376465,6.785627841949463,27.944149017333984,21.519418716430664,59.49488067626953,-89.85579681396484
12871306.0,-4.941456317901611,6.785956382751465,27.961772918701172,21.486114501953125,59.50242233276367,-89.8837890625
12871310.0,-4.984492778778076,6.786136627197266,27.979206085205078,21.452701568603516,59.510292053222656,-89.9117202758789
12871314.0,-5.027647495269775,6.786172866821289,27.9964542388916,21.4191837310791,59.51845169067383,-89.93962097167969
12871318.0,-5.070915699005127,6.786072254180908,28.013521194458008,21.385560989379883,59.52691650390625,-89.96746063232422
12871322.0,-5.114293098449707,6.785837650299072,28.030405044555664,21.351839065551758,59.535667419433594,-89.99526977539062
12871326.0,-5.157777309417725,6.785473823547363,28.047119140625,21.318016052246094,59.54469680786133,-90.02302551269531
12871330.0,-5.201364517211914,6.784984588623047,28.063657760620117,21.28409194946289,59.553977966308594,-90.05074310302734
12871334.0,-5.245050430297852,6.784375190734863,28.080032348632812,21.250072479248047,59.56351089477539,-90.07841491699219
12871338.0,-5.288830757141113,6.7836503982543945,28.09623908996582,21.215959548950195,59.573299407958984,-90.10604858398438
12871342.0,-5.332703113555908,6.782814979553223,28.112285614013672,21.18174934387207,59.58331298828125,-90.13362884521484
12871346.0,-5.3766632080078125,6.781872272491455,28.1281681060791,21.147443771362305,59.59356689453125,-90.16117858886719
12871350.0,-5.420708179473877,6.780826091766357,28.14389419555664,21.11304473876953,59.60404968261719,-90.18867492675781
12871354.0,-5.464834690093994,6.779678821563721,28.159454345703125,21.078554153442383,59.6147575378418,-90.21612548828125
12871358.0,-5.509042263031006,6.778430938720703,28.17485237121582,21.04397201538086,59.625709533691406,-90.2435302734375
12871362.0,-5.553328990936279,6.777083873748779,28.19009017944336,21.00929832458496,59.63688278198242,-90.27090454101562
12871366.0,-5.597693920135498,6.775636196136475,28.205163955688477,20.97453498840332,59.64828109741211,-90.29822540283203
12871370.0,-5.642136096954346,6.7740888595581055,28.22007179260254,20.939682006835938,59.659912109375,-90.32549285888672
12871374.0,-5.686654090881348,6.772441387176514,28.234819412231445,20.904739379882812,59.671775817871094,-90.35270690917969
12871378.0,-5.731247425079346,6.770694255828857,28.249399185180664,20.869709014892578,59.68387222290039,-90.37987518310547
12871382.0,-5.775913715362549,6.7688469886779785,28.263816833496094,20.834592819213867,59.69619369506836,-90.40699768066406
12871386.0,-5.820652961730957,6.766900062561035,28.27806854248047,20.799388885498047,59.70874786376953,-90.43407440185547
12871390.0,-5.865464210510254,6.764852523803711,28.292152404785156,20.764101028442383,59.721534729003906,-90.46109771728516
12871394.0,-5.910345077514648,6.762706279754639,28.306072235107422,20.728727340698242,59.73453903198242,-90.4880599975586
12871398.0,-5.955294609069824,6.760461330413818,28.31982421875,20.69327163696289,59.74778366088867,-90.51497650146484
12871402.0,-6.000309944152832,6.758120536804199,28.333412170410156,20.657733917236328,59.76124572753906,-90.54183959960938
12871406.0,-6.045389652252197,6.755687236785889,28.346830368041992,20.622116088867188,59.774932861328125,-90.56864929199219
12871410.0,-6.090533256530762,6.753163814544678,28.360090255737305,20.586414337158203,59.788848876953125,-90.59541320800781
12871414.0,-6.135735511779785,6.750554084777832,28.373184204101562,20.550636291503906,59.80297088623047,-90.62210845947266
12871418.0,-6.180997371673584,6.747860908508301,28.38612174987793,20.514780044555664,59.81731033325195,-90.64876556396484
12871422.0,-6.226314544677734,6.745089530944824,28.398902893066406,20.478851318359375,59.83183670043945,-90.67537689208984
12871426.0,-6.271687030792236,6.742240905761719,28.411529541015625,20.442846298217773,59.846561431884766,-90.70194244384766
12871430.0,-6.317112445831299,6.739318370819092,28.424009323120117,20.40677261352539,59.86145782470703,-90.72845458984375
12871434.0,-6.362588405609131,6.736325740814209,28.436344146728516,20.370628356933594,59.87653350830078,-90.75492858886719
12871438.0,-6.4081130027771,6.733266830444336,28.448535919189453,20.334413528442383,59.89176940917969,-90.78136444091797
12871442.0,-6.4536848068237305,6.730144023895264,28.460588455200195,20.298131942749023,59.90718078613281,-90.8077621459961
12871446.0,-6.499302864074707,6.726959705352783,28.472497940063477,20.26178550720215,59.92274475097656,-90.83412170410156
12871450.0,-6.544964790344238,6.723717212677002,28.484268188476562,20.225370407104492,59.93846893310547,-90.86043548583984
12871454.0,-6.590669631958008,6.720417499542236,28.49589729309082,20.18889045715332,59.9543571472168,-90.88671112060547
12871458.0,-6.636416912078857,6.7170610427856445,28.507387161254883,20.15234375,59.970401763916016,-90.9129409790039
12871462.0,-6.682204723358154,6.713647842407227,28.518733978271484,20.115732192993164,59.98660659790039,-90.93914031982422
12871466.0,-6.728033065795898,6.710178375244141,28.529945373535156,20.079057693481445,60.00297164916992,-90.96529388427734
12871470.0,-6.773901462554932,6.706652641296387,28.541011810302734,20.04231834411621,60.01948928833008,-90.99140930175781
12871474.0,-6.819808483123779,6.703070163726807,28.551937103271484,20.00551414489746,60.03616714477539,-91.0174789428711
12871478.0,-6.865755081176758,6.699431896209717,28.562721252441406,19.968647003173828,60.05301284790039,-91.04350280761719
12871482.0,-6.911738395690918,6.695736408233643,28.573362350463867,19.931718826293945,60.070003509521484,-91.06948852539062
12871486.0,-6.957758903503418,6.691985130310059,28.583866119384766,19.89472770690918,60.087162017822266,-91.09542846679688
12871490.0,-7.003815650939941,6.688177585601807,28.594223022460938,19.857675552368164,60.104469299316406,-91.12132263183594
12871494.0,-7.049908638000488,6.684314250946045,28.604440689086914,19.82056427001953,60.1219367980957,-91.14717102050781
12871498.0,-7.096036434173584,6.680397033691406,28.61451530456543,19.783390045166016,60.139564514160156,-91.17298889160156
12871502.0,-7.142197608947754,6.676425457000732,28.624446868896484,19.746156692504883,60.1573486328125,-91.1987533569336
12871506.0,-7.18839168548584,6.672402858734131,28.634239196777344,19.708866119384766,60.17528533935547,-91.22447204589844
12871510.0,-7.234618186950684,6.668331623077393,28.643890380859375,19.6715145111084,60.1933708190918,-91.2501449584961
12871514.0,-7.280874252319336,6.664214134216309,28.653406143188477,19.634109497070312,60.21160888671875,-91.2757797241211
12871518.0,-7.327160835266113,6.660052299499512,28.662782669067383,19.59664535522461,60.22998809814453,-91.30137634277344
12871522.0,-7.373475074768066,6.655848503112793,28.672027587890625,19.559131622314453,60.24849319458008,-91.32693481445312
12871526.0,-7.419817924499512,6.651605129241943,28.6811466217041,19.521562576293945,60.26713943481445,-91.35246276855469
12871530.0,-7.466189384460449,6.6473236083984375,28.690134048461914,19.483943939208984,60.2859001159668,-91.37794494628906
12871534.0,-7.51258659362793,6.643006801605225,28.698997497558594,19.446271896362305,60.304779052734375,-91.40340423583984
12871538.0,-7.5590105056762695,6.638656139373779,28.70773696899414,19.408554077148438,60.32377243041992,-91.42884063720703
12871542.0,-7.605457782745361,6.634274482727051,28.716352462768555,19.370786666870117,60.34287643432617,-91.45423126220703
12871546.0,-7.651928424835205,6.629863739013672,28.724849700927734,19.332971572875977,60.362091064453125,-91.47960662841797
12871550.0,-7.698421478271484,6.625424861907959,28.733219146728516,19.295108795166016,60.38142013549805,-91.50494384765625
12871554.0,-7.744936943054199,6.620959281921387,28.741474151611328,19.257200241088867,60.40085983276367,-91.5302505493164
12871558.0,-7.791474342346191,6.616466045379639,28.749605178833008,19.2192440032959,60.4203987121582,-91.55553436279297
12871562.0,-7.838034152984619,6.6119465827941895,28.757614135742188,19.18124008178711,60.440059661865234,-91.58078002929688
12871566.0,-7.88461446762085,6.607399940490723,28.765499114990234,19.143192291259766,60.459815979003906,-91.60600280761719
12871570.0,-7.931217670440674,6.602827548980713,28.773265838623047,19.1050968170166,60.47968673706055,-91.6312026977539
12871574.0,-7.977841377258301,6.598228454589844,28.780908584594727,19.066957473754883,60.499664306640625,-91.65636444091797
12871578.0,-8.02448558807373,6.593602180480957,28.788427352905273,19.028770446777344,60.51976013183594,-91.68150329589844
12871582.0,-8.071148872375488,6.588950157165527,28.795825958251953,18.99053955078125,60.539947509765625,-91.70660400390625
12871586.0,-8.11783218383789,6.584271430969238,28.803102493286133,18.9522647857666,60.56025695800781,-91.73165893554688
12871590.0,-8.164533615112305,6.579565525054932,28.810253143310547,18.9139461517334,60.580665588378906,-91.75669860839844
12871594.0,-8.211252212524414,6.574834823608398,28.817285537719727,18.875585556030273,60.60118865966797,-91.7817153930664
12871598.0,-8.257989883422852,6.570078372955322,28.824190139770508,18.837177276611328,60.6218147277832,-91.80668640136719
12871602.0,-8.304744720458984,6.565298080444336,28.83098030090332,18.798728942871094,60.64255142211914,-91.83163452148438
12871606.0,-8.35151481628418,6.560495376586914,28.837642669677734,18.760236740112305,60.66339111328125,-91.8565444946289
12871610.0,-8.39830207824707,6.555671691894531,28.844186782836914,18.721702575683594,60.68433380126953,-91.88142395019531
12871614.0,-8.44510269165039,6.550828456878662,28.85061264038086,18.683128356933594,60.70537567138672,-91.90628051757812
12871618.0,-8.491920471191406,6.5459675788879395,28.856924057006836,18.644514083862305,60.72650909423828,-91.93110656738281
12871622.0,-8.538752555847168,6.541090488433838,28.863115310668945,18.605859756469727,60.747737884521484,-91.9559097290039
12871626.0,-8.58559799194336,6.536198139190674,28.869197845458984,18.567171096801758,60.769046783447266,-91.9806900024414
12871630.0,-8.63245964050293,6.5312933921813965,28.875167846679688,18.528444290161133,60.79045486450195,-92.00544738769531
12871634.0,-8.679333686828613,6.526376247406006,28.881025314331055,18.48967933654785,60.811927795410156,-92.03018188476562
12871638.0,-8.726222038269043,6.521448612213135,28.88677978515625,18.45088005065918,60.83347702026367,-92.05490112304688
12871642.0,-8.773123741149902,6.516512870788574,28.89242172241211,18.412046432495117,60.855106353759766,-92.07959747314453
12871646.0,-8.820036888122559,6.511568546295166,28.89795684814453,18.373180389404297,60.87681579589844,-92.10428619384766
12871650.0,-8.866962432861328,6.506618022918701,28.903383255004883,18.334278106689453,60.898590087890625,-92.12894439697266
12871654.0,-8.913899421691895,6.50166130065918,28.908708572387695,18.29534149169922,60.92044448852539,-92.15359497070312
12871658.0,-8.960847854614258,6.49669885635376,28.913923263549805,18.256372451782227,60.9423713684082,-92.17821502685547
12871662.0,-9.007807731628418,6.491729259490967,28.91902732849121,18.21736717224121,60.96437072753906,-92.20281982421875
12871666.0,-9.054778099060059,6.486754894256592,28.924028396606445,18.17833137512207,60.986446380615234,-92.2274169921875
12871670.0,-9.10175895690918,6.48177433013916,28.92892074584961,18.13926124572754,61.00859451293945,-92.25198364257812
12871674.0,-9.148750305175781,6.476787567138672,28.933706283569336,18.100160598754883,61.03081512451172,-92.27653503417969
12871678.0,-9.195751190185547,6.471795082092285,28.93838119506836,18.061023712158203,61.05310821533203,-92.30107116699219
12871682.0,-9.242762565612793,6.466796875,28.942951202392578,18.02185821533203,61.075477600097656,-92.32557678222656
12871686.0,-9.289783477783203,6.461792469024658,28.94741439819336,17.982656478881836,61.09791564941406,-92.3500747680664
12871690.0,-9.336811065673828,6.456782817840576,28.95176887512207,17.94342613220215,61.12043380737305,-92.37454986572266
12871694.0,-9.383849143981934,6.451767444610596,28.956012725830078,17.904163360595703,61.14302062988281,-92.39900207519531
12871698.0,-9.430895805358887,6.446747779846191,28.960153579711914,17.8648681640625,61.16567611694336,-92.4234390258789
12871702.0,-9.477950096130371,6.441723823547363,28.96418571472168,17.825544357299805,61.18840789794922,-92.4478530883789
12871706.0,-9.52501106262207,6.436697483062744,28.96811294555664,17.78618621826172,61.211212158203125,-92.47224426269531
12871710.0,-9.572080612182617,6.43166971206665,28.97193145751953,17.746801376342773,61.23408126831055,-92.49662780761719
12871714.0,-9.619157791137695,6.42664098739624,28.97564697265625,17.707386016845703,61.257015228271484,-92.52098846435547
12871718.0,-9.666240692138672,6.4216132164001465,28.979259490966797,17.667940139770508,61.28001403808594,-92.54533386230469
12871722.0,-9.71333122253418,6.4165873527526855,28.982770919799805,17.628467559814453,61.303077697753906,-92.56966400146484
12871726.0,-9.760428428649902,6.411563396453857,28.98617935180664,17.588966369628906,61.326194763183594,-92.59397888183594
12871730.0,-9.80753231048584,6.406544208526611,28.989492416381836,17.549440383911133,61.349369049072266,-92.61827850341797
12871734.0,-9.854643821716309,6.401529788970947,28.99270248413086,17.5098876953125,61.372589111328125,-92.642578125
12871738.0,-9.901761054992676,6.39652156829834,28.995819091796875,17.470308303833008,61.3958625793457,-92.66686248779297
12871742.0,-9.948884963989258,6.391520977020264,28.998838424682617,17.43070411682129,61.419185638427734,-92.69114685058594
12871746.0,-9.996014595031738,6.3865275382995605,29.00176239013672,17.391077041625977,61.44255828857422,-92.71540832519531
12871750.0,-10.043149948120117,6.381542205810547,29.004587173461914,17.351423263549805,61.46598815917969,-92.73966979980469
12871754.0,-10.090290069580078,6.376565933227539,29.007314682006836,17.31174659729004,61.48944854736328,-92.763916015625
12871758.0,-10.137434959411621,6.371598720550537,29.00994873046875,17.272045135498047,61.512969970703125,-92.78816223144531
12871762.0,-10.184585571289062,6.366641044616699,29.01248550415039,17.23232078552246,61.536537170410156,-92.81238555908203
12871766.0,-10.23173999786377,6.361691474914551,29.01492691040039,17.192569732666016,61.56015396118164,-92.83661651611328
12871770.0,-10.278899192810059,6.356751441955566,29.017271041870117,17.15279769897461,61.58381271362305,-92.86082458496094
12871774.0,-10.326062202453613,6.351820468902588,29.019519805908203,17.113000869750977,61.607521057128906,-92.88501739501953
12871778.0,-10.373229026794434,6.346898078918457,29.021669387817383,17.073179244995117,61.631282806396484,-92.90921020507812
12871782.0,-10.42039966583252,6.341984748840332,29.023725509643555,17.033336639404297,61.655094146728516,-92.93339538574219
12871786.0,-10.467574119567871,6.337080955505371,29.025684356689453,16.993467330932617,61.6789436340332,-92.95756530761719
12871790.0,-10.514752388000488,6.332186698913574,29.027545928955078,16.953577041625977,61.702842712402344,-92.98172760009766
12871794.0,-10.561933517456055,6.327300548553467,29.029312133789062,16.913660049438477,61.72679901123047,-93.00588989257812
12871798.0,-10.609118461608887,6.322425842285156,29.03097915649414,16.87372398376465,61.750797271728516,-93.030029296875
12871802.0,-10.656306266784668,6.31756067276001,29.032556533813477,16.833765029907227,61.77483367919922,-93.05415344238281
12871806.0,-10.703496932983398,6.312707901000977,29.03403091430664,16.79378318786621,61.79892349243164,-93.07828521728516
12871810.0,-10.750691413879395,6.307867527008057,29.03541374206543,16.753780364990234,61.823062896728516,-93.10240173339844
12871814.0,-10.797886848449707,6.303040981292725,29.036701202392578,16.713754653930664,61.847232818603516,-93.12650299072266
12871818.0,-10.845087051391602,6.298227310180664,29.03789710998535,16.6737117767334,61.87145233154297,-93.15058898925781
12871822.0,-10.892288208007812,6.293428421020508,29.038999557495117,16.63364601135254,61.89570236206055,-93.17469024658203
12871826.0,-10.939492225646973,6.2886457443237305,29.04001808166504,16.59356117248535,61.91999053955078,-93.19877624511719
12871830.0,-10.986696243286133,6.283879280090332,29.040939331054688,16.553457260131836,61.944313049316406,-93.22286224365234
12871834.0,-11.033903121948242,6.279129505157471,29.041772842407227,16.513334274291992,61.96866226196289,-93.2469482421875
12871838.0,-11.081111907958984,6.274398326873779,29.042518615722656,16.473194122314453,61.9930534362793,-93.2710189819336
12871842.0,-11.12832260131836,6.269686222076416,29.043176651000977,16.433034896850586,62.01746368408203,-93.29510498046875
12871846.0,-11.175532341003418,6.2649946212768555,29.043743133544922,16.392854690551758,62.041908264160156,-93.31918334960938
12871850.0,-11.222744941711426,6.260322570800781,29.044221878051758,16.352659225463867,62.06637954711914,-93.34325408935547
12871854.0,-11.269960403442383,6.25567102432251,29.044618606567383,16.31244659423828,62.09087371826172,-93.36732482910156
12871858.0,-11.317174911499023,6.251039505004883,29.044918060302734,16.272212982177734,62.11540603637695,-93.39138793945312
12871862.0,-11.364389419555664,6.2464280128479,29.045137405395508,16.231966018676758,62.13996887207031,-93.41545104980469
12871866.0,-11.411604881286621,6.241837024688721,29.045263290405273,16.191699981689453,62.16455841064453,-93.43952178955078
12871870.0,-11.458823204040527,6.237266540527344,29.045305252075195,16.151416778564453,62.18918228149414,-93.46357727050781
12871874.0,-11.506040573120117,6.232715606689453,29.045257568359375,16.111114501953125,62.21382522583008,-93.48764038085938
12871878.0,-11.553257942199707,6.228185176849365,29.045120239257812,16.070796966552734,62.238502502441406,-93.51170349121094
12871882.0,-11.600475311279297,6.22367525100708,29.04489517211914,16.03046226501465,62.263206481933594,-93.53575134277344
12871886.0,-11.647693634033203,6.2191853523254395,29.044580459594727,15.990111351013184,62.28793716430664,-93.55980682373047
12871890.0,-11.694910049438477,6.21471643447876,29.04418182373047,15.94974136352539,62.31269836425781,-93.58385467529297
12871894.0,-11.742125511169434,6.210268020629883,29.04369354248047,15.909358024597168,62.33749008178711,-93.60791015625
12871898.0,-11.78934097290039,6.205841064453125,29.043115615844727,15.868959426879883,62.3623046875,-93.63195037841797
12871902.0,-11.836554527282715,6.2014360427856445,29.042449951171875,15.82854175567627,62.38715362548828,-93.65599060058594
12871906.0,-11.883766174316406,6.1970534324646,29.041698455810547,15.788108825683594,62.41202163696289,-93.68002319335938
12871910.0,-11.930977821350098,6.192694187164307,29.040857315063477,15.747662544250488,62.436920166015625,-93.70406341552734
12871914.0,-11.978188514709473,6.188358306884766,29.039932250976562,15.707198143005371,62.46184158325195,-93.72809600830078
12871918.0,-12.025397300720215,6.184046745300293,29.038925170898438,15.666719436645508,62.486785888671875,-93.75213623046875
12871922.0,-12.07260513305664,6.179760456085205,29.03782844543457,15.626228332519531,62.511749267578125,-93.77616882324219
12871926.0,-12.119812965393066,6.17549991607666,29.036651611328125,15.58572006225586,62.53673553466797,-93.80020904541016
12871930.0,-12.167019844055176,6.171265602111816,29.03538703918457,15.54520034790039,62.56172561645508,-93.8242416381836
12871934.0,-12.214225769042969,6.167057991027832,29.03404426574707,15.504664421081543,62.58674621582031,-93.84828186035156
12871938.0,-12.261431694030762,6.16287899017334,29.032617568969727,15.464117050170898,62.611778259277344,-93.87232208251953
12871942.0,-12.308635711669922,6.158727645874023,29.031108856201172,15.423556327819824,62.63682556152344,-93.89637756347656
12871946.0,-12.35583782196045,6.154604434967041,29.02952003479004,15.382981300354004,62.66188430786133,-93.9204330444336
12871950.0,-12.403039932250977,6.150510787963867,29.027847290039062,15.342394828796387,62.68695068359375,-93.94448852539062
12871954.0,-12.450239181518555,6.1464457511901855,29.026090621948242,15.301794052124023,62.712039947509766,-93.96854400634766
12871958.0,-12.4974365234375,6.142409801483154,29.02425765991211,15.26117992401123,62.737144470214844,-93.99261474609375
12871962.0,-12.544631958007812,6.138402938842773,29.0223388671875,15.22055435180664,62.76226043701172,-94.01667022705078
12871966.0,-12.591825485229492,6.134425640106201,29.020339965820312,15.179916381835938,62.78738784790039,-94.04073333740234
12871970.0,-12.639016151428223,6.130477428436279,29.018260955810547,15.139265060424805,62.812538146972656,-94.06480407714844
12871974.0,-12.686203956604004,6.126558303833008,29.016096115112305,15.098603248596191,62.83769226074219,-94.08887481689453
12871978.0,-12.733390808105469,6.1226677894592285,29.013851165771484,15.057927131652832,62.86286163330078,-94.11295318603516
12871982.0,-12.780572891235352,6.118807315826416,29.011526107788086,15.017241477966309,62.88805389404297,-94.13703155517578
12871986.0,-12.827753067016602,6.114975452423096,29.00911521911621,14.976542472839355,62.91324234008789,-94.1611099243164
12871990.0,-12.874930381774902,6.111173152923584,29.006628036499023,14.935831069946289,62.93845748901367,-94.18518829345703
12871994.0,-12.922104835510254,6.107400417327881,29.004056930541992,14.89510726928711,62.96368408203125,-94.20928192138672
12871998.0,-12.969274520874023,6.1036577224731445,29.00140380859375,14.854375839233398,62.988922119140625,-94.23336029052734
12872002.0,-13.016441345214844,6.099945545196533,28.998668670654297,14.813630104064941,63.0141716003418,-94.25746154785156
12872006.0,-13.063604354858398,6.096263885498047,28.995853424072266,14.77287483215332,63.03943634033203,-94.28155517578125
12872010.0,-13.110763549804688,6.09261417388916,28.992958068847656,14.732107162475586,63.0647087097168,-94.30564880371094
12872014.0,-13.157918930053711,6.088996887207031,28.98998260498047,14.691327095031738,63.089988708496094,-94.32974243164062
12872018.0,-13.205071449279785,6.085411548614502,28.98693084716797,14.650540351867676,63.11528015136719,-94.35385131835938
12872022.0,-13.252219200134277,6.081860065460205,28.98379135131836,14.609740257263184,63.14057922363281,-94.37796020507812
12872026.0,-13.29936408996582,6.078341960906982,28.980581283569336,14.568930625915527,63.1658821105957,-94.40208435058594
12872030.0,-13.346506118774414,6.07485818862915,28.9772891998291,14.528111457824707,63.19118118286133,-94.42620086669922
12872034.0,-13.393643379211426,6.071409702301025,28.973922729492188,14.487281799316406,63.21650314331055,-94.45033264160156
12872038.0,-13.440778732299805,6.067996025085449,28.970476150512695,14.446444511413574,63.2418098449707,-94.47445678710938
12872042.0,-13.487910270690918,6.0646185874938965,28.966955184936523,14.405598640441895,63.267120361328125,-94.49860382080078
12872046.0,-13.535036087036133,6.061276912689209,28.963356018066406,14.364740371704102,63.29244613647461,-94.52275085449219
12872050.0,-13.582159996032715,6.057971954345703,28.959678649902344,14.323872566223145,63.3177604675293,-94.54690551757812
12872054.0,-13.629278182983398,6.054703235626221,28.955928802490234,14.28299617767334,63.34307861328125,-94.5710678100586
12872058.0,-13.676392555236816,6.051470756530762,28.952096939086914,14.242112159729004,63.368404388427734,-94.5952377319336
12872062.0,-13.723503112792969,6.048274993896484,28.94818878173828,14.201218605041504,63.393733978271484,-94.6194076538086
12872066.0,-13.770607948303223,6.045115947723389,28.9442081451416,14.16031551361084,63.41905212402344,-94.64359283447266
12872070.0,-13.817708969116211,6.041993141174316,28.940147399902344,14.119404792785645,63.44438552856445,-94.66778564453125
12872074.0,-13.864805221557617,6.038906097412109,28.93600845336914,14.078484535217285,63.46971130371094,-94.69197845458984
12872078.0,-13.911895751953125,6.035856246948242,28.931793212890625,14.037554740905762,63.49504470825195,-94.71617126464844
12872082.0,-13.958982467651367,6.032842636108398,28.92750358581543,13.99661922454834,63.52037811279297,-94.7403793334961
12872086.0,-14.006062507629395,6.029865741729736,28.92313575744629,13.955674171447754,63.545711517333984,-94.76460266113281
12872090.0,-14.053138732910156,6.026925563812256,28.918689727783203,13.914721488952637,63.571044921875,-94.788818359375
12872094.0,-14.100207328796387,6.024022102355957,28.91417121887207,13.873758316040039,63.596378326416016,-94.81304931640625
12872098.0,-14.147272109985352,6.021155834197998,28.90957260131836,13.83279037475586,63.6217155456543,-94.8372802734375
12872102.0,-14.194329261779785,6.018327236175537,28.904895782470703,13.791812896728516,63.647056579589844,-94.86151123046875
12872106.0,-14.241382598876953,6.015536308288574,28.900146484375,13.75082778930664,63.67238998413086,-94.8857650756836
12872110.0,-14.288429260253906,6.012784481048584,28.895320892333984,13.70983600616455,63.697723388671875,-94.9100112915039
12872114.0,-14.335469245910645,6.010071754455566,28.890417098999023,13.66883659362793,63.72306442260742,-94.93426513671875
12872118.0,-14.382503509521484,6.007399082183838,28.885440826416016,13.627829551696777,63.748390197753906,-94.95853424072266
12872122.0,-14.429534912109375,6.004765510559082,28.880390167236328,13.586816787719727,63.77371597290039,-94.98281860351562
12872126.0,-14.476556777954102,6.002172946929932,28.875263214111328,13.545794486999512,63.799034118652344,-95.00709533691406
12872130.0,-14.523575782775879,5.999621391296387,28.870065689086914,13.504767417907715,63.82435607910156,-95.0313949584961
12872134.0,-14.570588111877441,5.997111797332764,28.86479377746582,13.46373176574707,63.84965515136719,-95.0556869506836
12872138.0,-14.617593765258789,5.994643688201904,28.859445571899414,13.422690391540527,63.87495422363281,-95.07999420166016
12872142.0,-14.664593696594238,5.992218017578125,28.85402488708496,13.38164234161377,63.900245666503906,-95.10431671142578
12872146.0,-14.711588859558105,5.989834785461426,28.848533630371094,13.340588569641113,63.9255256652832,-95.1286392211914
12872150.0,-14.758577346801758,5.987494468688965,28.842967987060547,13.29952621459961,63.9507942199707,-95.15298461914062
12872154.0,-14.805559158325195,5.985196590423584,28.83732795715332,13.25846004486084,63.97605895996094,-95.17733764648438
12872158.0,-14.852535247802734,5.982941627502441,28.831619262695312,13.217387199401855,64.0013198852539,-95.20169067382812
12872162.0,-14.899502754211426,5.980729103088379,28.825834274291992,13.176305770874023,64.02656555175781,-95.2260513305664
12872166.0,-14.946465492248535,5.978560447692871,28.81997299194336,13.135221481323242,64.05180358886719,-95.25041961669922
12872170.0,-14.99342155456543,5.976433277130127,28.814044952392578,13.09412956237793,64.07703399658203,-95.2748031616211
12872174.0,-15.040369987487793,5.974349498748779,28.808040618896484,13.053033828735352,64.10225677490234,-95.29920196533203
12872178.0,-15.087312698364258,5.972308158874512,28.801965713500977,13.011930465698242,64.1274642944336,-95.32359313964844
12872182.0,-15.134245872497559,5.970310211181641,28.795814514160156,12.970823287963867,64.15267181396484,-95.34800720214844
12872186.0,-15.181173324584961,5.968354225158691,28.789592742919922,12.929709434509277,64.1778564453125,-95.37242889404297
12872190.0,-15.228093147277832,5.966441631317139,28.783294677734375,12.888589859008789,64.20304870605469,-95.3968505859375
12872194.0,-15.275004386901855,5.964572906494141,28.77692985534668,12.847465515136719,64.22822570800781,-95.42127227783203
12872198.0,-15.321908950805664,5.962746620178223,28.770488739013672,12.806336402893066,64.25338745117188,-95.44571685791016
12872202.0,-15.368804931640625,5.960965156555176,28.763973236083984,12.765201568603516,64.27854919433594,-95.47016906738281
12872206.0,-15.415694236755371,5.959227561950684,28.757389068603516,12.7240629196167,64.3036880493164,-95.49463653564453
12872210.0,-15.462576866149902,5.957535266876221,28.750728607177734,12.682918548583984,64.32882690429688,-95.51909637451172
12872214.0,-15.509450912475586,5.955887794494629,28.74399757385254,12.641769409179688,64.35395812988281,-95.5435791015625
12872218.0,-15.556317329406738,5.954286575317383,28.737197875976562,12.600615501403809,64.37905883789062,-95.56806945800781
12872222.0,-15.60317611694336,5.952731609344482,28.730323791503906,12.559456825256348,64.4041519165039,-95.59255981445312
12872226.0,-15.650028228759766,5.9512224197387695,28.72338104248047,12.518294334411621,64.42923736572266,-95.6170654296875
12872230.0,-15.696869850158691,5.949760437011719,28.716365814208984,12.477126121520996,64.45429992675781,-95.64158630371094
12872234.0,-15.743703842163086,5.94834566116333,28.70928382873535,12.435954093933105,64.47933959960938,-95.6661148071289
12872238.0,-15.79053020477295,5.946978569030762,28.702125549316406,12.39477825164795,64.50437927246094,-95.69065856933594
12872242.0,-15.837348937988281,5.945659637451172,28.694902420043945,12.353596687316895,64.52938842773438,-95.71520233154297
12872246.0,-15.88415813446045,5.9443888664245605,28.687606811523438,12.312411308288574,64.55438995361328,-95.7397689819336
12872250.0,-15.930960655212402,5.943166255950928,28.680240631103516,12.271223068237305,64.57936096191406,-95.76432800292969
